%
O01001
(Using high feed G1 F500. instead of G0.)
(Machine)
(  vendor: HAAS)
(  model: VM-3 TR2105BX)
(T1 D=0.25 CR=0. - ZMIN=-1.1 - right hand tap)
(T2 D=0.2015 CR=0. TAPER=118deg - ZMIN=-1.1605 - drill)
(T3 D=3.175 CR=0. TAPER=45deg - ZMIN=-0.125 - face mill)
(T4 D=0.1875 CR=0. - ZMIN=-0.75 - flat end mill)
(T5 D=0.25 CR=0. - ZMIN=-0.75 - flat end mill)
N10 G90 G94 G17
N15 G20
N20 G53 G0 Z0.

(Face2)
N25 T3 M6
N30 S550 M3
N35 G54
N40 M11
N45 M13
N50 G0 A0. B0.
N55 M10
N60 M12
N65 G0 X8.5638 Y1.375
N70 G43 Z0.6 H3
N75 T5
N80 G0 Z0.2
N85 G1 Z0.1925 F15.
N90 G18 G3 X8.2462 Z-0.125 I-0.3175 K0.
N95 G1 X6.5
N100 X0.
N105 G3 X-0.3175 Z0.1925 I0. K0.3175
N110 G0 Z0.6
N115 M5
N120 G53 G0 Z0.

(2D Adaptive1)
N125 M1
N130 T5 M6
N135 S2280 M3
N140 G54
N145 M11
N150 M13
N155 G0 A0. B0.
N160 M10
N165 M12
N170 M8
N175 G17
N180 G0 X-0.0196 Y-0.2647
N185 G43 Z0.6 H5
N190 T4
N195 G0 Z0.2
N200 Z-0.29
N205 G1 Z-0.315 F22.8
N210 Z-0.3937
N215 G3 X0. Y-0.1286 I-0.6183 J0.1584
N220 G1 Y-0.1226
N225 X-0.0078 Y-0.0844
N230 X-0.0132 Y-0.0458
N235 X-0.0169 Y-0.007
N240 X-0.0195 Y0.0319
N245 X-0.0212 Y0.0709
N250 X-0.0224 Y0.1098
N255 X-0.0232 Y0.1488
N260 X-0.0238 Y0.1878
N265 X-0.0242 Y0.2268
N270 X-0.0244 Y0.2658
N275 X-0.0246 Y0.3048
N280 X-0.0248 Y0.3828
N285 X-0.0249 Y0.4997
N290 X-0.025 Y0.8117
N295 Y1.8644
N300 Y2.6345
N305 X-0.0218 Y2.6537
N310 X-0.0126 Y2.6709
N315 X0.0121 Y2.7011
N320 X0.0442 Y2.7232
N325 X0.0798 Y2.739
N330 X0.1172 Y2.7501
N335 X0.1554 Y2.7579
N340 X0.194 Y2.7633
N345 X0.2328 Y2.767
N350 X0.2717 Y2.7695
N355 X0.3107 Y2.7712
N360 X0.3497 Y2.7724
N365 X0.3887 Y2.7733
N370 X0.4276 Y2.7738
N375 X0.4666 Y2.7742
N380 X0.5056 Y2.7744
N385 X0.5446 Y2.7746
N390 X0.6226 Y2.7748
N395 X0.7396 Y2.7749
N400 X1.0515 Y2.775
N405 X1.1295
N410 X3.118
N415 X5.1065
N420 X6.3932
N425 X6.4116 Y2.7684
N430 X6.4441 Y2.7469
N435 X6.4682 Y2.7162
N440 X6.4854 Y2.6813
N445 X6.4976 Y2.6442
N450 X6.5062 Y2.6062
N455 X6.5121 Y2.5677
N460 X6.5161 Y2.5289
N465 X6.5189 Y2.49
N470 X6.5209 Y2.451
N475 X6.5222 Y2.4121
N480 X6.5231 Y2.3731
N485 X6.5237 Y2.3341
N490 X6.5241 Y2.2951
N495 X6.5244 Y2.2561
N500 X6.5246 Y2.2171
N505 X6.5247 Y2.1781
N510 X6.5248 Y2.1392
N515 X6.5249 Y2.0222
N520 X6.525 Y1.7492
N525 Y0.1506
N530 Y0.1116
N535 X6.5199 Y0.0928
N540 X6.5001 Y0.0592
N545 X6.4701 Y0.0343
N550 X6.4355 Y0.0163
N555 X6.3987 Y0.0036
N560 X6.3607 Y-0.0053
N565 X6.3222 Y-0.0115
N570 X6.2835 Y-0.0157
N575 X6.2446 Y-0.0187
N580 X6.2056 Y-0.0207
N585 X6.1667 Y-0.022
N590 X6.1277 Y-0.023
N595 X6.0887 Y-0.0236
N600 X6.0497 Y-0.0241
N605 X6.0107 Y-0.0244
N610 X5.9717 Y-0.0246
N615 X5.9328 Y-0.0247
N620 X5.8548 Y-0.0249
N625 X5.6988 Y-0.025
N630 X4.685
N635 X4.6461
N640 X2.6575
N645 X0.669
N650 X0.2206
N655 X0.2016 Y-0.0209
N660 X0.1843 Y-0.0119
N665 X0.1536 Y0.0122
N670 X0.1308 Y0.0439
N675 X0.1143 Y0.0792
N680 X0.1025 Y0.1163
N685 X0.0941 Y0.1544
N690 X0.0883 Y0.193
N695 X0.0842 Y0.2318
N700 X0.0814 Y0.2707
N705 X0.0794 Y0.3096
N710 X0.078 Y0.3486
N715 X0.0771 Y0.3875
N720 X0.0765 Y0.4265
N725 X0.076 Y0.4655
N730 X0.0757 Y0.5045
N735 X0.0755 Y0.5435
N740 X0.0753 Y0.5825
N745 X0.0752 Y0.6605
N750 X0.0751 Y0.7774
N755 X0.075 Y1.1673
N760 Y1.4403
N765 Y2.493
N770 X0.076 Y2.5125
N775 X0.0811 Y2.5313
N780 X0.0981 Y2.5664
N785 X0.1249 Y2.5947
N790 X0.1573 Y2.6164
N795 X0.1928 Y2.6326
N800 X0.2299 Y2.6446
N805 X0.2679 Y2.6533
N810 X0.3064 Y2.6596
N815 X0.3451 Y2.664
N820 X0.384 Y2.6673
N825 X0.4229 Y2.6695
N830 X0.4619 Y2.6711
N835 X0.5008 Y2.6723
N840 X0.5398 Y2.6731
N845 X0.5788 Y2.6737
N850 X0.6178 Y2.6741
N855 X0.6568 Y2.6743
N860 X0.6958 Y2.6745
N865 X0.7348 Y2.6747
N870 X0.8127 Y2.6748
N875 X0.9297 Y2.6749
N880 X1.2806 Y2.675
N885 X2.9182
N890 X4.9068
N895 X6.252
N900 X6.2713 Y2.6723
N905 X6.3079 Y2.659
N910 X6.338 Y2.6342
N915 X6.3613 Y2.6029
N920 X6.3789 Y2.5681
N925 X6.3918 Y2.5313
N930 X6.4013 Y2.4935
N935 X6.4081 Y2.4551
N940 X6.413 Y2.4164
N945 X6.4165 Y2.3776
N950 X6.419 Y2.3387
N955 X6.4208 Y2.2998
N960 X6.422 Y2.2608
N965 X6.4229 Y2.2218
N970 X6.4235 Y2.1828
N975 X6.424 Y2.1438
N980 X6.4243 Y2.1048
N985 X6.4245 Y2.0658
N990 X6.4246 Y2.0269
N995 X6.4248 Y1.9489
N1000 X6.4249 Y1.8319
N1005 X6.425 Y1.481
N1010 Y0.2333
N1015 X6.4191 Y0.2147
N1020 X6.4009 Y0.1802
N1025 X6.3733 Y0.1527
N1030 X6.3405 Y0.1316
N1035 X6.3048 Y0.1159
N1040 X6.2675 Y0.1044
N1045 X6.2295 Y0.096
N1050 X6.191 Y0.0899
N1055 X6.1522 Y0.0856
N1060 X6.1133 Y0.0825
N1065 X6.0744 Y0.0803
N1070 X6.0354 Y0.0787
N1075 X5.9965 Y0.0776
N1080 X5.9575 Y0.0768
N1085 X5.9185 Y0.0763
N1090 X5.8795 Y0.0759
N1095 X5.8405 Y0.0756
N1100 X5.8015 Y0.0754
N1105 X5.7236 Y0.0752
N1110 X5.6066 Y0.0751
N1115 X5.3336 Y0.075
N1120 X4.3979
N1125 X2.4093
N1130 X0.4208
N1135 X0.3428
N1140 X0.3239 Y0.0796
N1145 X0.2883 Y0.0956
N1150 X0.2594 Y0.1218
N1155 X0.237 Y0.1537
N1160 X0.2201 Y0.1888
N1165 X0.2076 Y0.2257
N1170 X0.1984 Y0.2636
N1175 X0.1917 Y0.3021
N1180 X0.1869 Y0.3408
N1185 X0.1835 Y0.3796
N1190 X0.181 Y0.4185
N1195 X0.1793 Y0.4575
N1200 X0.178 Y0.4964
N1205 X0.1771 Y0.5354
N1210 X0.1765 Y0.5744
N1215 X0.1761 Y0.6134
N1220 X0.1757 Y0.6524
N1225 X0.1755 Y0.6914
N1230 X0.1754 Y0.7303
N1235 X0.1752 Y0.8083
N1240 X0.1751 Y0.848
N1245 X0.1748 Y0.8538
N1250 X0.1739 Y0.8596
N1255 X0.1725 Y0.8653
N1260 X0.1419 Y0.9636
N1265 X0.1394 Y0.9725
N1270 X0.1338 Y0.999
N1275 X0.1155 Y1.0988
N1280 X0.1144 Y1.1052
N1285 X0.1132 Y1.114
N1290 X0.1114 Y1.1406
N1295 X0.106 Y1.229
N1300 X0.1051 Y1.2556
N1305 X0.105 Y1.2644
N1310 Y1.4856
N1315 X0.1051 Y1.4944
N1320 X0.106 Y1.521
N1325 X0.1114 Y1.6094
N1330 X0.1132 Y1.636
N1335 X0.1144 Y1.6448
N1340 X0.1257 Y1.7067
N1345 X0.1338 Y1.751
N1350 X0.1394 Y1.7775
N1355 X0.1421 Y1.787
N1360 X0.1517 Y1.8248
N1365 X0.1593 Y1.8631
N1370 X0.1644 Y1.9017
N1375 X0.1678 Y1.9406
N1380 X0.1701 Y1.9795
N1385 X0.1717 Y2.0184
N1390 X0.1727 Y2.0574
N1395 X0.1735 Y2.0964
N1400 X0.1739 Y2.1354
N1405 X0.1743 Y2.1744
N1410 X0.1745 Y2.2134
N1415 X0.1747 Y2.2524
N1420 X0.1748 Y2.3303
N1425 X0.1749 Y2.3693
N1430 X0.1752 Y2.4083
N1435 X0.1878 Y2.4452
N1440 X0.2112 Y2.4764
N1445 X0.2412 Y2.5013
N1450 X0.2752 Y2.5205
N1455 X0.3114 Y2.535
N1460 X0.3488 Y2.5458
N1465 X0.387 Y2.5538
N1470 X0.4255 Y2.5597
N1475 X0.4643 Y2.5639
N1480 X0.5032 Y2.567
N1485 X0.5421 Y2.5693
N1490 X0.581 Y2.5709
N1495 X0.62 Y2.5721
N1500 X0.659 Y2.5729
N1505 X0.698 Y2.5735
N1510 X0.737 Y2.5739
N1515 X0.776 Y2.5742
N1520 X0.8149 Y2.5745
N1525 X0.8475 Y2.5746
N1530 X0.8537 Y2.5749
N1535 X0.8598 Y2.576
N1540 X0.8658 Y2.5776
N1545 X0.8681 Y2.5784
N1550 X0.9478 Y2.6032
N1555 X0.9567 Y2.6059
N1560 X0.9744 Y2.6109
N1565 X0.9832 Y2.6133
N1570 X1.0895 Y2.6328
N1575 X1.0984 Y2.6344
N1580 X1.1249 Y2.6376
N1585 X1.1338 Y2.6382
N1590 X1.24 Y2.6447
N1595 X1.2489 Y2.6448
N1600 X1.2754 Y2.645
N1605 X5.2246
N1610 X5.2511 Y2.6448
N1615 X5.26 Y2.6447
N1620 X5.3662 Y2.6382
N1625 X5.3751 Y2.6376
N1630 X5.4016 Y2.6344
N1635 X5.4194 Y2.6312
N1640 X5.5168 Y2.6133
N1645 X5.5256 Y2.6109
N1650 X5.5433 Y2.6059
N1655 X5.5812 Y2.5965
N1660 X5.6195 Y2.5895
N1665 X5.6582 Y2.5849
N1670 X5.6971 Y2.5817
N1675 X5.736 Y2.5796
N1680 X5.775 Y2.5781
N1685 X5.814 Y2.5771
N1690 X5.853 Y2.5764
N1695 X5.8919 Y2.576
N1700 X5.9309 Y2.5757
N1705 X5.9699 Y2.5755
N1710 X6.0089 Y2.5753
N1715 X6.0869 Y2.5751
N1720 X6.1259
N1725 X6.1454 Y2.5745
N1730 X6.1836 Y2.5667
N1735 X6.2169 Y2.5465
N1740 X6.2439 Y2.5184
N1745 X6.2649 Y2.4855
N1750 X6.2809 Y2.4499
N1755 X6.2928 Y2.4128
N1760 X6.3016 Y2.3748
N1765 X6.3081 Y2.3364
N1770 X6.3128 Y2.2977
N1775 X6.3162 Y2.2588
N1780 X6.3187 Y2.2199
N1785 X6.3205 Y2.181
N1790 X6.3218 Y2.142
N1795 X6.3227 Y2.103
N1800 X6.3233 Y2.064
N1805 X6.3238 Y2.0251
N1810 X6.3242 Y1.9861
N1815 X6.3244 Y1.9471
N1820 X6.3246 Y1.9027
N1825 X6.3249 Y1.8969
N1830 X6.3258 Y1.8912
N1835 X6.3272 Y1.8856
N1840 X6.3581 Y1.7864
N1845 X6.3606 Y1.7775
N1850 X6.3662 Y1.751
N1855 X6.3845 Y1.6512
N1860 X6.3857 Y1.6448
N1865 X6.3868 Y1.636
N1870 X6.3886 Y1.6094
N1875 X6.394 Y1.521
N1880 X6.3949 Y1.4944
N1885 X6.395 Y1.4856
N1890 Y1.2644
N1895 X6.3949 Y1.2556
N1900 X6.394 Y1.229
N1905 X6.3886 Y1.1406
N1910 X6.3868 Y1.114
N1915 X6.3857 Y1.1052
N1920 X6.3756 Y1.0504
N1925 X6.3662 Y0.999
N1930 X6.3606 Y0.9725
N1935 X6.3579 Y0.963
N1940 X6.3483 Y0.9252
N1945 X6.3407 Y0.8869
N1950 X6.3356 Y0.8483
N1955 X6.3322 Y0.8094
N1960 X6.3299 Y0.7705
N1965 X6.3283 Y0.7316
N1970 X6.3273 Y0.6926
N1975 X6.3265 Y0.6536
N1980 X6.3261 Y0.6146
N1985 X6.3257 Y0.5756
N1990 X6.3255 Y0.5366
N1995 X6.3253 Y0.4976
N2000 X6.3252 Y0.4197
N2005 X6.3251 Y0.3417
N2010 X6.3126 Y0.3047
N2015 X6.2892 Y0.2735
N2020 X6.2592 Y0.2486
N2025 X6.2252 Y0.2294
N2030 X6.1891 Y0.2149
N2035 X6.1516 Y0.2041
N2040 X6.1134 Y0.1961
N2045 X6.0749 Y0.1903
N2050 X6.0361 Y0.186
N2055 X5.9973 Y0.1829
N2060 X5.9583 Y0.1807
N2065 X5.9194 Y0.1791
N2070 X5.8804 Y0.1779
N2075 X5.8414 Y0.1771
N2080 X5.8024 Y0.1765
N2085 X5.7634 Y0.1761
N2090 X5.7244 Y0.1758
N2095 X5.6855 Y0.1755
N2100 X5.6525 Y0.1754
N2105 X5.6463 Y0.1751
N2110 X5.6402 Y0.174
N2115 X5.6342 Y0.1724
N2120 X5.6319 Y0.1716
N2125 X5.5522 Y0.1468
N2130 X5.5433 Y0.1441
N2135 X5.5256 Y0.1391
N2140 X5.5168 Y0.1367
N2145 X5.4105 Y0.1172
N2150 X5.4016 Y0.1156
N2155 X5.3751 Y0.1124
N2160 X5.3662 Y0.1118
N2165 X5.26 Y0.1053
N2170 X5.2511 Y0.1052
N2175 X5.2246 Y0.105
N2180 X3.7547
N2185 X3.7456 Y0.1056
N2190 X3.7281 Y0.1069
N2195 X3.7237 Y0.1074
N2200 X3.7016 Y0.1134
N2205 X3.699 Y0.1144
N2210 X3.6927 Y0.117
N2215 X3.6839 Y0.1212
N2220 X3.6799 Y0.1233
N2225 X3.6632 Y0.1315
N2230 X3.6416 Y0.1401
N2235 X3.6123 Y0.1491
N2240 X3.5742 Y0.1575
N2245 X3.5357 Y0.1632
N2250 X3.4968 Y0.167
N2255 X3.4579 Y0.1696
N2260 X3.419 Y0.1713
N2265 X3.38 Y0.1725
N2270 X3.341 Y0.1733
N2275 X3.302 Y0.1738
N2280 X3.2631 Y0.1742
N2285 X3.2241 Y0.1745
N2290 X3.1851 Y0.1746
N2295 X3.1071 Y0.1748
N2300 X2.9901 Y0.1749
N2305 X2.9037 Y0.175
N2310 X2.8917 Y0.1737
N2315 X2.8801 Y0.1701
N2320 X2.8696 Y0.1642
N2325 X2.8604 Y0.1563
N2330 X2.8515 Y0.1468
N2335 X2.8452 Y0.1409
N2340 X2.8343 Y0.1321
N2345 X2.825 Y0.126
N2350 X2.8201 Y0.1233
N2355 X2.8161 Y0.1212
N2360 X2.8073 Y0.117
N2365 X2.801 Y0.1144
N2370 X2.7984 Y0.1134
N2375 X2.7763 Y0.1074
N2380 X2.7719 Y0.1069
N2385 X2.7541 Y0.1055
N2390 X2.7453 Y0.105
N2395 X1.2754
N2400 X1.2489 Y0.1052
N2405 X1.24 Y0.1053
N2410 X1.1338 Y0.1118
N2415 X1.1249 Y0.1124
N2420 X1.0984 Y0.1156
N2425 X1.0806 Y0.1188
N2430 X0.9832 Y0.1367
N2435 X0.9744 Y0.1391
N2440 X0.9567 Y0.1441
N2445 X0.9188 Y0.1535
N2450 X0.8805 Y0.1605
N2455 X0.8418 Y0.1651
N2460 X0.8029 Y0.1683
N2465 X0.764 Y0.1704
N2470 X0.725 Y0.1719
N2475 X0.686 Y0.1729
N2480 X0.647 Y0.1736
N2485 X0.6081 Y0.174
N2490 X0.5691 Y0.1743
N2495 X0.5301 Y0.1745
N2500 X0.4911 Y0.1747
N2505 X0.4521 Y0.1748
N2510 X0.4143 Y0.1843
N2515 X0.3815 Y0.2055
N2520 X0.3551 Y0.2341
N2525 X0.3345 Y0.2672
N2530 X0.3188 Y0.3029
N2535 X0.3071 Y0.3401
N2540 X0.2984 Y0.3781
N2545 X0.292 Y0.4166
N2550 X0.2873 Y0.4553
N2555 X0.2839 Y0.4941
N2560 X0.2814 Y0.533
N2565 X0.2796 Y0.572
N2570 X0.2783 Y0.611
N2575 X0.2778 Y0.6337
N2580 X0.2766 Y0.6437
N2585 X0.2738 Y0.6534
N2590 X0.2694 Y0.6625
N2595 X0.2424 Y0.7071
N2600 X0.2395 Y0.712
N2605 X0.2306 Y0.7296
N2610 X0.189 Y0.8221
N2615 X0.1863 Y0.8281
N2620 X0.1775 Y0.8504
N2625 X0.1749 Y0.8575
N2630 X0.1725 Y0.8653
N2635 X0.1633 Y0.8948
N2640 X0.1446 Y0.9548
N2645 X0.1421 Y0.963
N2650 X0.1419 Y0.9636
N2655 X0.1394 Y0.9725
N2660 X0.1356 Y0.9902
N2665 X0.1338 Y0.999
N2670 X0.1155 Y1.0988
N2675 X0.1144 Y1.1052
N2680 X0.1132 Y1.114
N2685 X0.1114 Y1.1406
N2690 X0.106 Y1.229
N2695 X0.1051 Y1.2556
N2700 X0.105 Y1.2644
N2705 Y1.4856
N2710 X0.1051 Y1.4944
N2715 X0.106 Y1.521
N2720 X0.1114 Y1.6094
N2725 X0.1132 Y1.636
N2730 X0.1144 Y1.6448
N2735 X0.1155 Y1.6512
N2740 X0.1338 Y1.751
N2745 X0.135 Y1.7569
N2750 X0.1356 Y1.7598
N2755 X0.1394 Y1.7775
N2760 X0.1419 Y1.7864
N2765 X0.1421 Y1.787
N2770 X0.1749 Y1.8925
N2775 X0.1775 Y1.8996
N2780 X0.1863 Y1.9219
N2785 X0.189 Y1.9279
N2790 X0.2288 Y2.0164
N2795 X0.2395 Y2.0434
N2800 X0.2487 Y2.0738
N2805 X0.2571 Y2.1119
N2810 X0.2627 Y2.1504
N2815 X0.2666 Y2.1892
N2820 X0.2692 Y2.2281
N2825 X0.271 Y2.2671
N2830 X0.2728 Y2.306
N2835 X0.2866 Y2.3425
N2840 X0.3102 Y2.3735
N2845 X0.3402 Y2.3984
N2850 X0.3741 Y2.4178
N2855 X0.4101 Y2.4326
N2860 X0.4475 Y2.4437
N2865 X0.4856 Y2.452
N2870 X0.5241 Y2.4582
N2875 X0.5628 Y2.4628
N2880 X0.6017 Y2.4661
N2885 X0.6283 Y2.4678
N2890 X0.6376 Y2.4691
N2895 X0.6465 Y2.4719
N2900 X0.6549 Y2.4761
N2905 X0.691 Y2.4979
N2910 X0.6999 Y2.5031
N2915 X0.7176 Y2.5134
N2920 X0.7265 Y2.5179
N2925 X0.7519 Y2.5294
N2930 X0.8327 Y2.5658
N2935 X0.8416 Y2.5693
N2940 X0.8593 Y2.5754
N2945 X0.8658 Y2.5776
N2950 G0 Z0.2
N2955 G1 X0.188 Y1.9787 F500.
N2960 G0 Z-0.3437
N2965 G1 Z-0.3687 F22.8
N2970 X0.1883 Y1.9788 Z-0.3726
N2975 X0.1891 Y1.9794 Z-0.3764
N2980 X0.1903 Y1.9802 Z-0.3801
N2985 X0.192 Y1.9814 Z-0.3834
N2990 X0.1941 Y1.9829 Z-0.3864
N2995 X0.1965 Y1.9846 Z-0.3889
N3000 X0.1993 Y1.9865 Z-0.391
N3005 X0.2022 Y1.9885 Z-0.3925
N3010 X0.2054 Y1.9907 Z-0.3934
N3015 X0.2086 Y1.9929 Z-0.3937
N3020 G3 X0.2288 Y2.0164 I-0.0356 J0.0511
N3025 G1 X0.2306 Y2.0204
N3030 X0.2395 Y2.038
N3035 X0.266 Y2.082
N3040 X0.2926 Y2.126
N3045 X0.3071 Y2.149
N3050 X0.3103 Y2.154
N3055 X0.316 Y2.163
N3060 X0.3344 Y2.1973
N3065 X0.352 Y2.2321
N3070 X0.3761 Y2.2628
N3075 X0.4056 Y2.2883
N3080 X0.4388 Y2.3088
N3085 X0.4435 Y2.3117
N3090 X0.4479 Y2.315
N3095 X0.452 Y2.3187
N3100 G3 X0.4148 Y2.3521 I-0.0183 J0.0171
N3105 G1 X0.2721 Y2.1862
N3110 G3 X0.3103 Y2.154 I0.0189 J-0.0163
N3115 G1 X0.3201 Y2.1667
N3120 X0.3825 Y2.2464
N3125 X0.3896 Y2.2552
N3130 X0.3988 Y2.2653
N3135 X0.4062 Y2.2729
N3140 X0.477 Y2.3437
N3145 X0.4874 Y2.3539
N3150 X0.4962 Y2.3614
N3155 X0.5184 Y2.3791
N3160 X0.5759 Y2.4241
N3165 X0.5977 Y2.441
N3170 X0.6025 Y2.4442
N3175 X0.6115 Y2.4498
N3180 X0.6549 Y2.4761
N3185 G0 Z0.2
N3190 G1 X0.9995 Y0.1088 F500.
N3195 G0 Z-0.3437
N3200 G1 Z-0.3687 F22.8
N3205 X0.9993 Y0.109 Z-0.3726
N3210 X0.9986 Y0.1097 Z-0.3764
N3215 X0.9976 Y0.1108 Z-0.3801
N3220 X0.9962 Y0.1123 Z-0.3834
N3225 X0.9945 Y0.1142 Z-0.3864
N3230 X0.9925 Y0.1164 Z-0.3889
N3235 X0.9902 Y0.1188 Z-0.391
N3240 X0.9878 Y0.1215 Z-0.3925
N3245 X0.9852 Y0.1243 Z-0.3934
N3250 X0.9826 Y0.1272 Z-0.3937
N3255 G3 X0.9567 Y0.1441 I-0.0459 J-0.0421
N3260 G1 X0.9478 Y0.1468
N3265 X0.8681 Y0.1716
N3270 X0.8593 Y0.1746
N3275 X0.8416 Y0.1807
N3280 X0.8327 Y0.1842
N3285 X0.7442 Y0.224
N3290 X0.7353 Y0.2281
N3295 X0.7066 Y0.2394
N3300 X0.6763 Y0.2487
N3305 X0.6382 Y0.2571
N3310 X0.5996 Y0.2627
N3315 X0.5608 Y0.2666
N3320 X0.523 Y0.2762
N3325 X0.4897 Y0.2965
N3330 X0.4623 Y0.3242
N3335 X0.4406 Y0.3566
N3340 X0.4239 Y0.3918
N3345 X0.4113 Y0.4287
N3350 X0.4017 Y0.4665
N3355 X0.4012 Y0.4692
N3360 X0.3987 Y0.4784
N3365 X0.3948 Y0.487
N3370 X0.3895 Y0.4949
N3375 X0.3811 Y0.5054
N3380 X0.3192 Y0.5845
N3385 X0.3103 Y0.596
N3390 X0.3071 Y0.601
N3395 X0.2926 Y0.624
N3400 X0.2694 Y0.6625
N3405 G0 Z0.2
N3410 G1 X0.773 Y0.1873 F500.
N3415 G0 Z-0.3437
N3420 G1 Z-0.3687 F22.8
N3425 X0.7728 Y0.1876 Z-0.3726
N3430 X0.7723 Y0.1883 Z-0.3764
N3435 X0.7714 Y0.1896 Z-0.3801
N3440 X0.7703 Y0.1912 Z-0.3834
N3445 X0.7688 Y0.1933 Z-0.3864
N3450 X0.7671 Y0.1958 Z-0.3889
N3455 X0.7652 Y0.1985 Z-0.391
N3460 X0.7631 Y0.2015 Z-0.3925
N3465 X0.761 Y0.2046 Z-0.3934
N3470 X0.7587 Y0.2079 Z-0.3937
N3475 G3 X0.7353 Y0.2281 I-0.0512 J-0.0356
N3480 G1 X0.7265 Y0.2321
N3485 X0.7176 Y0.2366
N3490 X0.6995 Y0.2471
N3495 X0.691 Y0.2521
N3500 X0.6114 Y0.3003
N3505 X0.6025 Y0.3058
N3510 X0.5977 Y0.309
N3515 X0.5748 Y0.3267
N3520 X0.5184 Y0.3709
N3525 X0.4962 Y0.3886
N3530 X0.4874 Y0.3961
N3535 X0.477 Y0.4063
N3540 X0.4062 Y0.4771
N3545 X0.3988 Y0.4847
N3550 X0.3895 Y0.4949
N3555 G3 X0.3613 Y0.5019 I-0.019 J-0.0163
N3560 G1 X0.3577 Y0.5005 Z-0.3934
N3565 X0.3541 Y0.4991 Z-0.3925
N3570 X0.3508 Y0.4978 Z-0.391
N3575 X0.3477 Y0.4966 Z-0.3889
N3580 X0.3449 Y0.4955 Z-0.3864
N3585 X0.3425 Y0.4945 Z-0.3834
N3590 X0.3406 Y0.4938 Z-0.3801
N3595 X0.3392 Y0.4932 Z-0.3764
N3600 X0.3384 Y0.4929 Z-0.3726
N3605 X0.3381 Y0.4928 Z-0.3687
N3610 G0 Z0.2
N3615 G1 X3.7141 Y0.0796 F500.
N3620 G0 Z-0.3437
N3625 G1 Z-0.3687 F22.8
N3630 X3.714 Y0.0798 Z-0.3726
N3635 X3.7135 Y0.0806 Z-0.3764
N3640 X3.7128 Y0.0819 Z-0.3801
N3645 X3.7117 Y0.0837 Z-0.3834
N3650 X3.7105 Y0.0859 Z-0.3864
N3655 X3.709 Y0.0885 Z-0.3889
N3660 X3.7073 Y0.0914 Z-0.391
N3665 X3.7055 Y0.0945 Z-0.3925
N3670 X3.7036 Y0.0978 Z-0.3934
N3675 X3.7016 Y0.1012 Z-0.3937
N3680 G3 X3.6799 Y0.1233 I-0.0539 J-0.0313
N3685 G1 X3.675 Y0.126
N3690 X3.6657 Y0.1321
N3695 X3.6548 Y0.1409
N3700 X3.6485 Y0.1468
N3705 X3.6396 Y0.1563
N3710 X3.6376 Y0.1586
N3715 X3.6307 Y0.1683
N3720 X3.6277 Y0.1727
N3725 X3.6231 Y0.1786
N3730 X3.6164 Y0.186
N3735 X3.6082 Y0.1937
N3740 X3.5974 Y0.2023
N3745 X3.5845 Y0.211
N3750 X3.5678 Y0.2203
N3755 X3.547 Y0.2299
N3760 X3.5197 Y0.2399
N3765 X3.4829 Y0.2501
N3770 X3.4446 Y0.2574
N3775 X3.406 Y0.2626
N3780 X3.3671 Y0.2663
N3785 X3.3282 Y0.2689
N3790 X3.2893 Y0.2707
N3795 X3.2503 Y0.272
N3800 X3.2113 Y0.2729
N3805 X3.1724 Y0.2735
N3810 X3.1334 Y0.2739
N3815 X3.0944 Y0.2743
N3820 X3.0554 Y0.2745
N3825 X3.0164 Y0.2746
N3830 X2.9774
N3835 X2.9476 Y0.273
N3840 X2.9422 Y0.2722
N3845 X2.9302 Y0.2693
N3850 X2.9191 Y0.2639
N3855 X2.9094 Y0.2562
N3860 X2.9015 Y0.2467
N3865 X2.8958 Y0.2358
N3870 X2.8925 Y0.2239
N3875 G3 X2.9151 Y0.1958 I0.0248 J-0.0032
N3880 G1 X3.6044 Y0.1343
N3885 G3 X3.6277 Y0.1727 I0.0022 J0.0249
N3890 G1 X3.6252 Y0.1763
N3895 X3.6219 Y0.1821
N3900 X3.6204 Y0.1852
N3905 X3.6163 Y0.194
N3910 X3.613 Y0.2029
N3915 X3.6103 Y0.2117
N3920 X3.6081 Y0.2206
N3925 X3.6066 Y0.2264
N3930 X3.6039 Y0.2331
N3935 X3.6 Y0.2409
N3940 X3.5954 Y0.2487
N3945 X3.5891 Y0.2573
N3950 X3.5809 Y0.2671
N3955 X3.5716 Y0.2765
N3960 X3.5596 Y0.2867
N3965 X3.545 Y0.2973
N3970 X3.5271 Y0.3082
N3975 X3.505 Y0.3193
N3980 X3.4769 Y0.3308
N3985 X3.4405 Y0.3423
N3990 X3.4025 Y0.351
N3995 X3.364 Y0.3574
N4000 X3.3253 Y0.3622
N4005 X3.2865 Y0.3656
N4010 X3.2476 Y0.3682
N4015 X3.2087 Y0.37
N4020 X3.1697 Y0.3714
N4025 X3.1307 Y0.3724
N4030 X3.0917 Y0.3731
N4035 X3.0527 Y0.3735
N4040 X3.0137 Y0.3729
N4045 X2.9873 Y0.3707
N4050 X2.9662 Y0.3672
N4055 X2.9475 Y0.3625
N4060 X2.9321 Y0.3573
N4065 X2.9303 Y0.3565
N4070 X2.9204 Y0.3511
N4075 X2.9117 Y0.3438
N4080 X2.9046 Y0.335
N4085 X2.8993 Y0.325
N4090 X2.8961 Y0.3142
N4095 X2.895 Y0.3029
N4100 Y0.2648
N4105 X2.8948 Y0.2559
N4110 X2.8941 Y0.2383
N4115 X2.8934 Y0.2294
N4120 X2.8925 Y0.2239
N4125 G3 X2.9172 Y0.1957 I0.0248 J-0.0032
N4130 G1 X3.5831 Y0.1924
N4135 G3 X3.6081 Y0.2206 I0.0001 J0.025
N4140 G1 X3.6066 Y0.2294
N4145 X3.6059 Y0.2383
N4150 X3.6052 Y0.2559
N4155 X3.605 Y0.2648
N4160 Y0.2697
N4165 X3.6046 Y0.2772
N4170 X3.6038 Y0.2836
N4175 X3.6022 Y0.2912
N4180 X3.5998 Y0.299
N4185 X3.5964 Y0.3078
N4190 X3.5918 Y0.3173
N4195 X3.586 Y0.3271
N4200 X3.5782 Y0.3382
N4205 X3.5693 Y0.3489
N4210 X3.5575 Y0.361
N4215 X3.5437 Y0.3731
N4220 X3.5267 Y0.3857
N4225 X3.5064 Y0.3983
N4230 X3.481 Y0.4114
N4235 X3.45 Y0.4244
N4240 X3.4129 Y0.4365
N4245 X3.375 Y0.4458
N4250 X3.3367 Y0.4529
N4255 X3.2981 Y0.4583
N4260 X3.2593 Y0.4624
N4265 X3.2205 Y0.4656
N4270 X3.1815 Y0.4679
N4275 X3.1426 Y0.4697
N4280 X3.1036 Y0.4708
N4285 X3.0646 Y0.4707
N4290 X3.0257 Y0.4688
N4295 X2.9926 Y0.4648
N4300 X2.9681 Y0.4598
N4305 X2.9486 Y0.4541
N4310 X2.9324 Y0.4479
N4315 X2.9283 Y0.446
N4320 X2.9172 Y0.4391
N4325 X2.9079 Y0.4299
N4330 X2.9008 Y0.4188
N4335 X2.8965 Y0.4064
N4340 X2.895 Y0.3933
N4345 Y0.3029
N4350 G3 X2.9187 Y0.2789 I0.025 J0.0009
N4355 G1 X3.5788 Y0.2456
N4360 G3 X3.605 Y0.2697 I0.0013 J0.025
N4365 G1 Y0.3444
N4370 X3.6046 Y0.3522
N4375 X3.6036 Y0.3601
N4380 X3.6018 Y0.3686
N4385 X3.599 Y0.3778
N4390 X3.595 Y0.3881
N4395 X3.5899 Y0.3986
N4400 X3.5829 Y0.4105
N4405 X3.5747 Y0.4221
N4410 X3.5637 Y0.4354
N4415 X3.5512 Y0.4482
N4420 X3.5349 Y0.4625
N4425 X3.5165 Y0.4761
N4430 X3.493 Y0.4907
N4435 X3.4652 Y0.505
N4440 X3.431 Y0.5193
N4445 X3.3939 Y0.5314
N4450 X3.3561 Y0.541
N4455 X3.3179 Y0.5486
N4460 X3.2793 Y0.5546
N4465 X3.2406 Y0.5592
N4470 X3.2018 Y0.5628
N4475 X3.1629 Y0.5653
N4480 X3.1239 Y0.5667
N4485 X3.0849 Y0.5668
N4490 X3.046 Y0.5649
N4495 X3.0072 Y0.5607
N4500 X2.9788 Y0.5553
N4505 X2.9559 Y0.549
N4510 X2.9374 Y0.5423
N4515 X2.9291 Y0.5385
N4520 X2.9195 Y0.533
N4525 X2.9111 Y0.5257
N4530 X2.9043 Y0.517
N4535 X2.8992 Y0.5071
N4540 X2.8961 Y0.4965
N4545 X2.895 Y0.4855
N4550 Y0.3933
N4555 G3 X2.9181 Y0.3693 I0.025 J0.0009
N4560 G1 X3.5782 Y0.3204
N4565 G3 X3.605 Y0.3444 I0.0018 J0.0249
N4570 G1 Y0.424
N4575 X3.6044 Y0.4351
N4580 X3.6034 Y0.4431
N4585 X3.6014 Y0.4525
N4590 X3.5985 Y0.4623
N4595 X3.5943 Y0.4731
N4600 X3.5886 Y0.4847
N4605 X3.5814 Y0.4969
N4610 X3.572 Y0.5103
N4615 X3.5609 Y0.5236
N4620 X3.5464 Y0.5386
N4625 X3.53 Y0.5528
N4630 X3.5092 Y0.5683
N4635 X3.4841 Y0.5838
N4640 X3.4545 Y0.5991
N4645 X3.4185 Y0.6142
N4650 X3.3815 Y0.6264
N4655 X3.3438 Y0.6363
N4660 X3.3056 Y0.6443
N4665 X3.2672 Y0.6506
N4670 X3.2285 Y0.6556
N4675 X3.1897 Y0.6592
N4680 X3.1507 Y0.6614
N4685 X3.1117 Y0.6622
N4690 X3.0728 Y0.6612
N4695 X3.0339 Y0.6582
N4700 X2.9964 Y0.6526
N4705 X2.9689 Y0.6463
N4710 X2.948 Y0.6397
N4715 X2.9308 Y0.6326
N4720 X2.9151 Y0.6247
N4725 X2.9097 Y0.6214
N4730 X2.9005 Y0.6144
N4735 X2.8929 Y0.6058
N4740 X2.8871 Y0.5959
N4745 X2.8833 Y0.585
N4750 X2.8818 Y0.5736
N4755 X2.8826 Y0.5621
N4760 X2.8856 Y0.5509
N4765 X2.887 Y0.5472
N4770 X2.8895 Y0.539
N4775 X2.8917 Y0.5302
N4780 X2.8933 Y0.5213
N4785 X2.8939 Y0.5125
N4790 X2.8949 Y0.4948
N4795 X2.895 Y0.4855
N4800 G3 X2.9177 Y0.4614 I0.025 J0.0009
N4805 G1 X3.5777 Y0.4
N4810 G3 X3.605 Y0.424 I0.0023 J0.0249
N4815 G1 Y0.4859
N4820 X3.6051 Y0.4948
N4825 X3.6056 Y0.5036
N4830 Y0.515
N4835 X3.605 Y0.5234
N4840 X3.6036 Y0.5321
N4845 X3.6013 Y0.542
N4850 X3.5977 Y0.5528
N4855 X3.593 Y0.5642
N4860 X3.5863 Y0.5771
N4865 X3.5784 Y0.5898
N4870 X3.5676 Y0.6044
N4875 X3.5553 Y0.6184
N4880 X3.5389 Y0.6345
N4885 X3.5206 Y0.6496
N4890 X3.4973 Y0.666
N4895 X3.4689 Y0.6827
N4900 X3.4348 Y0.6992
N4905 X3.3984 Y0.7134
N4910 X3.3612 Y0.725
N4915 X3.3234 Y0.7345
N4920 X3.2852 Y0.7421
N4925 X3.2466 Y0.7481
N4930 X3.2079 Y0.7525
N4935 X3.169 Y0.7554
N4940 X3.1301 Y0.7568
N4945 X3.0911 Y0.7564
N4950 X3.0521 Y0.7541
N4955 X3.0134 Y0.7495
N4960 X2.978 Y0.7425
N4965 X2.9507 Y0.7348
N4970 X2.9289 Y0.7267
N4975 X2.9109 Y0.7184
N4980 X2.8963 Y0.7101
N4985 X2.8827 Y0.7009
N4990 X2.8714 Y0.6918
N4995 X2.861 Y0.6819
N5000 X2.8561 Y0.6765
N5005 X2.8489 Y0.6666
N5010 X2.8439 Y0.6554
N5015 X2.8414 Y0.6435
N5020 Y0.6313
N5025 X2.844 Y0.6193
N5030 X2.849 Y0.6081
N5035 X2.8562 Y0.5983
N5040 G3 X2.8703 Y0.591 I0.0179 J0.0174
N5045 G1 X2.8849 Y0.5887
N5050 X3.5768 Y0.4812
N5055 G3 X3.6056 Y0.5036 I0.0038 J0.0247
N5060 G1 X3.6061 Y0.5125
N5065 X3.6067 Y0.5213
N5070 X3.6083 Y0.5302
N5075 X3.6105 Y0.539
N5080 X3.613 Y0.5472
N5085 X3.6166 Y0.5567
N5090 X3.6188 Y0.5623
N5095 X3.6202 Y0.5686
N5100 X3.6211 Y0.5756
N5105 X3.6216 Y0.5836
N5110 X3.6214 Y0.5921
N5115 X3.6204 Y0.6022
N5120 X3.6185 Y0.6125
N5125 X3.6153 Y0.6244
N5130 X3.611 Y0.6363
N5135 X3.6048 Y0.6501
N5140 X3.5973 Y0.6637
N5145 X3.587 Y0.6793
N5150 X3.5751 Y0.6945
N5155 X3.5591 Y0.7118
N5160 X3.5415 Y0.7281
N5165 X3.5188 Y0.7459
N5170 X3.4917 Y0.7638
N5175 X3.46 Y0.7813
N5180 X3.4244 Y0.7974
N5185 X3.3878 Y0.8108
N5190 X3.3504 Y0.8219
N5195 X3.3125 Y0.8311
N5200 X3.2743 Y0.8384
N5205 X3.2357 Y0.8441
N5210 X3.1969 Y0.8481
N5215 X3.158 Y0.8506
N5220 X3.119 Y0.8514
N5225 X3.08 Y0.8504
N5230 X3.0412 Y0.8473
N5235 X3.0025 Y0.8419
N5240 X2.9664 Y0.8341
N5245 X2.9344 Y0.8246
N5250 X2.9069 Y0.8138
N5255 X2.8826 Y0.802
N5260 X2.8625 Y0.7902
N5265 X2.8459 Y0.7785
N5270 X2.832 Y0.7671
N5275 X2.8207 Y0.756
N5280 X2.8105 Y0.7443
N5285 X2.8023 Y0.7332
N5290 X2.795 Y0.7215
N5295 X2.7891 Y0.7101
N5300 X2.7867 Y0.7043
N5305 X2.7831 Y0.6922
N5310 X2.7822 Y0.6795
N5315 X2.7841 Y0.667
N5320 X2.7886 Y0.6552
N5325 X2.7956 Y0.6446
N5330 X2.8047 Y0.6358
N5335 X2.8155 Y0.6291
N5340 X2.819 Y0.6279
N5345 X2.8227 Y0.6272
N5350 X2.846 Y0.6247
N5355 X3.5908 Y0.5436
N5360 X3.5918 Y0.5435
N5365 G3 X3.6166 Y0.5567 I0.0027 J0.0249
N5370 G1 X3.6219 Y0.5676
N5375 X3.6256 Y0.5744
N5380 X3.6385 Y0.5921
N5385 X3.642 Y0.5975
N5390 X3.6449 Y0.6027
N5395 X3.6473 Y0.6084
N5400 X3.6497 Y0.6151
N5405 X3.6516 Y0.6224
N5410 X3.6531 Y0.631
N5415 X3.654 Y0.6401
N5420 X3.6542 Y0.6507
N5425 X3.6535 Y0.6616
N5430 X3.6516 Y0.6742
N5435 X3.6486 Y0.6871
N5440 X3.644 Y0.7017
N5445 X3.638 Y0.7164
N5450 X3.6297 Y0.7329
N5455 X3.6195 Y0.7495
N5460 X3.6066 Y0.7674
N5465 X3.5904 Y0.7863
N5470 X3.5718 Y0.8048
N5475 X3.5483 Y0.8246
N5480 X3.5205 Y0.8445
N5485 X3.4884 Y0.8638
N5490 X3.4535 Y0.8811
N5495 X3.4174 Y0.8959
N5500 X3.3805 Y0.9085
N5505 X3.3429 Y0.9189
N5510 X3.3049 Y0.9276
N5515 X3.2665 Y0.9345
N5520 X3.2279 Y0.9398
N5525 X3.1891 Y0.9434
N5530 X3.1502 Y0.9455
N5535 X3.1112 Y0.9458
N5540 X3.0722 Y0.9443
N5545 X3.0334 Y0.9407
N5550 X2.9948 Y0.935
N5555 X2.9567 Y0.9267
N5560 X2.9193 Y0.9158
N5565 X2.8861 Y0.9033
N5570 X2.8568 Y0.8895
N5575 X2.8308 Y0.8745
N5580 X2.8082 Y0.859
N5585 X2.7886 Y0.843
N5590 X2.7711 Y0.8264
N5595 X2.7572 Y0.8108
N5600 X2.7457 Y0.7956
N5605 X2.7368 Y0.7815
N5610 X2.7295 Y0.7677
N5615 X2.7237 Y0.7544
N5620 X2.7193 Y0.7411
N5625 X2.7161 Y0.7287
N5630 X2.714 Y0.7157
N5635 X2.713 Y0.704
N5640 Y0.7019
N5645 X2.7142 Y0.6895
N5650 X2.7181 Y0.6777
N5655 X2.7244 Y0.6669
N5660 X2.7329 Y0.6577
N5665 X2.7431 Y0.6506
N5670 X2.7546 Y0.6458
N5675 X2.7669 Y0.6435
N5680 X2.7977 Y0.6413
N5685 X3.6106 Y0.583
N5690 X3.617 Y0.5826
N5695 G3 X3.6385 Y0.5921 I0.0018 J0.0249
N5700 G1 X3.6396 Y0.5936
N5705 X3.6462 Y0.601
N5710 X3.6485 Y0.6033
N5715 X3.656 Y0.6098
N5720 X3.6671 Y0.6186
N5725 X3.6718 Y0.6224
N5730 X3.676 Y0.6267
N5735 X3.6798 Y0.6314
N5740 X3.6834 Y0.6366
N5745 X3.6871 Y0.6431
N5750 X3.6904 Y0.65
N5755 X3.6935 Y0.6583
N5760 X3.696 Y0.6671
N5765 X3.6981 Y0.6775
N5770 X3.6994 Y0.6884
N5775 X3.6999 Y0.7008
N5780 X3.6994 Y0.7141
N5785 X3.6976 Y0.7284
N5790 X3.6943 Y0.7443
N5795 X3.6896 Y0.7605
N5800 X3.6828 Y0.7786
N5805 X3.6741 Y0.7968
N5810 X3.6628 Y0.8164
N5815 X3.6482 Y0.8376
N5820 X3.6315 Y0.858
N5825 X3.6105 Y0.88
N5830 X3.585 Y0.9026
N5835 X3.5561 Y0.9244
N5840 X3.5232 Y0.9452
N5845 X3.4887 Y0.9635
N5850 X3.4531 Y0.9795
N5855 X3.4167 Y0.9932
N5860 X3.3795 Y1.005
N5865 X3.3418 Y1.015
N5870 X3.3037 Y1.0233
N5875 X3.2653 Y1.0299
N5880 X3.2266 Y1.0349
N5885 X3.1878 Y1.0384
N5890 X3.1488 Y1.0403
N5895 X3.1098 Y1.0404
N5900 X3.0709 Y1.0387
N5905 X3.0321 Y1.0352
N5910 X2.9935 Y1.0296
N5915 X2.9552 Y1.022
N5920 X2.9175 Y1.0122
N5925 X2.8805 Y0.9998
N5930 X2.8445 Y0.9849
N5935 X2.8107 Y0.9677
N5940 X2.78 Y0.9488
N5945 X2.7529 Y0.929
N5950 X2.7299 Y0.9091
N5955 X2.71 Y0.8891
N5960 X2.6929 Y0.8686
N5965 X2.6783 Y0.8481
N5970 X2.6662 Y0.8278
N5975 X2.6563 Y0.8077
N5980 X2.6492 Y0.7899
N5985 X2.6439 Y0.7725
N5990 X2.6406 Y0.7571
N5995 X2.6385 Y0.7419
N6000 X2.6377 Y0.7282
N6005 X2.6381 Y0.7142
N6010 X2.6394 Y0.7019
N6015 X2.6418 Y0.6891
N6020 X2.6421 Y0.688
N6025 X2.6467 Y0.6762
N6030 X2.6538 Y0.6657
N6035 X2.6629 Y0.657
N6040 X2.6738 Y0.6504
N6045 X2.6858 Y0.6464
N6050 X2.6983 Y0.645
N6055 X2.7453
N6060 X2.7541 Y0.6445
N6065 X2.7669 Y0.6435
N6070 X2.7978 Y0.6425
N6075 X3.6369 Y0.6153
N6080 X3.6529 Y0.6148
N6085 G3 X3.6671 Y0.6186 I0.0008 J0.025
N6090 G1 X3.675 Y0.6241
N6095 X3.6813 Y0.6275
N6100 X3.6839 Y0.6288
N6105 X3.6927 Y0.633
N6110 X3.7008 Y0.6363
N6115 X3.7063 Y0.6388
N6120 X3.7114 Y0.6419
N6125 X3.7162 Y0.6454
N6130 X3.721 Y0.6497
N6135 X3.7258 Y0.6546
N6140 X3.7307 Y0.6605
N6145 X3.7353 Y0.6672
N6150 X3.74 Y0.6752
N6155 X3.7441 Y0.6838
N6160 X3.748 Y0.6939
N6165 X3.7513 Y0.7049
N6170 X3.7539 Y0.7172
N6175 X3.7556 Y0.7309
N6180 X3.7563 Y0.7452
N6185 X3.7557 Y0.7616
N6190 X3.7538 Y0.7785
N6195 X3.7501 Y0.7971
N6200 X3.7444 Y0.8173
N6205 X3.7369 Y0.8375
N6210 X3.7266 Y0.8595
N6215 X3.7132 Y0.8832
N6220 X3.6975 Y0.9063
N6225 X3.6778 Y0.9309
N6230 X3.6536 Y0.9564
N6235 X3.6256 Y0.9816
N6240 X3.5947 Y1.0053
N6245 X3.562 Y1.0265
N6250 X3.5279 Y1.0455
N6255 X3.4927 Y1.0623
N6260 X3.4566 Y1.0771
N6265 X3.4198 Y1.09
N6270 X3.3825 Y1.1012
N6275 X3.3447 Y1.1107
N6280 X3.3065 Y1.1186
N6285 X3.268 Y1.1251
N6290 X3.2293 Y1.13
N6295 X3.1905 Y1.1333
N6300 X3.1515 Y1.135
N6305 X3.1126 Y1.1352
N6310 X3.0736 Y1.1336
N6315 X3.0347 Y1.1304
N6320 X2.9961 Y1.1254
N6325 X2.9577 Y1.1185
N6330 X2.9197 Y1.1097
N6335 X2.8822 Y1.0989
N6340 X2.8455 Y1.0858
N6345 X2.8097 Y1.0705
N6350 X2.7749 Y1.0528
N6355 X2.7414 Y1.0328
N6360 X2.7096 Y1.0103
N6365 X2.6803 Y0.9862
N6370 X2.6548 Y0.9613
N6375 X2.6327 Y0.936
N6380 X2.6138 Y0.9105
N6385 X2.5978 Y0.8849
N6390 X2.5848 Y0.8598
N6395 X2.5746 Y0.8357
N6400 X2.567 Y0.8123
N6405 X2.5615 Y0.7895
N6410 X2.558 Y0.7677
N6415 X2.5566 Y0.7488
N6420 X2.5567 Y0.7319
N6425 X2.558 Y0.716
N6430 X2.5604 Y0.7017
N6435 X2.5638 Y0.6881
N6440 X2.565 Y0.6847
N6445 X2.57 Y0.6737
N6450 X2.5772 Y0.664
N6455 X2.5862 Y0.6559
N6460 X2.5967 Y0.65
N6465 X2.6082 Y0.6463
N6470 X2.6202 Y0.645
N6475 X2.6983
N6480 G3 X2.7084 Y0.6471 I0. J0.025
N6485 G2 X2.7188 Y0.6492 I0.01 J-0.0229
N6490 G1 X2.7287 Y0.649
N6495 X3.6663 Y0.634
N6500 X3.67 Y0.6337
N6505 G3 X3.7008 Y0.6363 I0.0102 J0.0615
N6510 G1 X3.7016 Y0.6366
N6515 X3.7104 Y0.6393
N6520 X3.7193 Y0.6415
N6525 X3.7281 Y0.6431
N6530 X3.733 Y0.6435
N6535 X3.739 Y0.6442
N6540 X3.7448 Y0.6456
N6545 X3.7505 Y0.6475
N6550 X3.756 Y0.65
N6555 X3.7617 Y0.6531
N6560 X3.7675 Y0.6569
N6565 X3.7736 Y0.6617
N6570 X3.7797 Y0.6674
N6575 X3.7858 Y0.6739
N6580 X3.792 Y0.6818
N6585 X3.7977 Y0.6905
N6590 X3.8033 Y0.7007
N6595 X3.8084 Y0.7119
N6600 X3.8129 Y0.7245
N6605 X3.8168 Y0.7389
N6610 X3.8196 Y0.7539
N6615 X3.8213 Y0.7709
N6620 X3.8217 Y0.7894
N6625 X3.8206 Y0.8086
N6630 X3.8176 Y0.8302
N6635 X3.8125 Y0.853
N6640 X3.8054 Y0.8761
N6645 X3.7953 Y0.9015
N6650 X3.7819 Y0.9286
N6655 X3.766 Y0.9551
N6660 X3.7461 Y0.9829
N6665 X3.7218 Y1.0117
N6670 X3.6944 Y1.0394
N6675 X3.6649 Y1.0649
N6680 X3.6336 Y1.0882
N6685 X3.601 Y1.1095
N6690 X3.567 Y1.1287
N6695 X3.5321 Y1.146
N6700 X3.4963 Y1.1615
N6705 X3.4598 Y1.1752
N6710 X3.4228 Y1.1873
N6715 X3.3852 Y1.1979
N6720 X3.3473 Y1.2069
N6725 X3.309 Y1.2145
N6730 X3.2705 Y1.2206
N6735 X3.2318 Y1.2252
N6740 X3.193 Y1.2284
N6745 X3.1566 Y1.23
N6750 X3.1549
N6755 X3.1437
N6760 X3.1048 Y1.2281
N6765 X3.0658 Y1.2269
N6770 X3.0269 Y1.224
N6775 X2.9882 Y1.2193
N6780 X2.9498 Y1.2128
N6785 X2.9117 Y1.2045
N6790 X2.8741 Y1.1943
N6795 X2.837 Y1.1823
N6800 X2.8006 Y1.1683
N6805 X2.765 Y1.1523
N6810 X2.7305 Y1.1343
N6815 X2.6971 Y1.1141
N6820 X2.665 Y1.0919
N6825 X2.6345 Y1.0677
N6830 X2.6057 Y1.0414
N6835 X2.5789 Y1.0131
N6840 X2.5543 Y0.9828
N6845 X2.5331 Y0.952
N6850 X2.5153 Y0.9209
N6855 X2.5007 Y0.89
N6860 X2.4895 Y0.8601
N6865 X2.4813 Y0.8318
N6870 X2.4758 Y0.8043
N6875 X2.4726 Y0.778
N6880 X2.4717 Y0.755
N6885 X2.4726 Y0.7343
N6890 X2.4746 Y0.7173
N6895 X2.478 Y0.7008
N6900 X2.4821 Y0.6868
N6905 X2.4837 Y0.6826
N6910 X2.4889 Y0.6721
N6915 X2.4961 Y0.6629
N6920 X2.5051 Y0.6553
N6925 X2.5153 Y0.6497
N6930 X2.5265 Y0.6462
N6935 X2.5382 Y0.645
N6940 X2.6202
N6945 G3 X2.6372 Y0.6525 I-0.0009 J0.025
N6950 G1 X2.6455 Y0.661
N6955 X3.1607 Y1.1875
N6960 G3 X3.1437 Y1.23 I-0.0179 J0.0175
N6965 G1 X3.0198
N6970 X3.0109 Y1.2301
N6975 X2.9932 Y1.2305
N6980 X2.9844 Y1.2309
N6985 X2.9312 Y1.2368
N6990 X2.9238 Y1.2379
N6995 X2.9224 Y1.2381
N7000 X2.9135 Y1.2397
N7005 X2.9047 Y1.2419
N7010 X2.8998 Y1.2435
N7015 X2.8912 Y1.2458
N7020 X2.8768 Y1.2484
N7025 X2.8608 Y1.2501
N7030 X2.8416 Y1.2505
N7035 X2.82 Y1.2492
N7040 X2.7943 Y1.2456
N7045 X2.7667 Y1.2394
N7050 X2.7352 Y1.2296
N7055 X2.7002 Y1.2157
N7060 X2.6653 Y1.1983
N7065 X2.6318 Y1.1784
N7070 X2.5997 Y1.1563
N7075 X2.5693 Y1.1319
N7080 X2.5405 Y1.1056
N7085 X2.5136 Y1.0774
N7090 X2.4887 Y1.0474
N7095 X2.4659 Y1.0157
N7100 X2.4454 Y0.9826
N7105 X2.4274 Y0.948
N7110 X2.4123 Y0.9124
N7115 X2.4005 Y0.8771
N7120 X2.3921 Y0.8431
N7125 X2.3871 Y0.8118
N7130 X2.3847 Y0.7826
N7135 Y0.7557
N7140 X2.3865 Y0.7333
N7145 X2.3894 Y0.715
N7150 X2.3937 Y0.6978
N7155 X2.3985 Y0.6832
N7160 X2.3997 Y0.6805
N7165 X2.4051 Y0.6706
N7170 X2.4123 Y0.6618
N7175 X2.4212 Y0.6547
N7180 X2.4312 Y0.6494
N7185 X2.4421 Y0.6461
N7190 X2.4534 Y0.645
N7195 X2.5382
N7200 G3 X2.5584 Y0.6565 I-0.0009 J0.025
N7205 G1 X2.562 Y0.6622
N7210 X2.9123 Y1.2064
N7215 G3 X2.8998 Y1.2435 I-0.021 J0.0135
N7220 G1 X2.8958 Y1.2448
N7225 X2.8781 Y1.2508
N7230 X2.8515 Y1.2601
N7235 X2.8427 Y1.2633
N7240 X2.8338 Y1.2668
N7245 X2.825 Y1.2712
N7250 X2.8208 Y1.2733
N7255 X2.8161 Y1.276
N7260 X2.8102 Y1.2792
N7265 X2.8015 Y1.2831
N7270 X2.7923 Y1.2865
N7275 X2.7811 Y1.2895
N7280 X2.7675 Y1.292
N7285 X2.7534 Y1.2934
N7290 X2.7361 Y1.2938
N7295 X2.7173 Y1.2927
N7300 X2.6955 Y1.2896
N7305 X2.6719 Y1.2844
N7310 X2.6444 Y1.2759
N7315 X2.6155 Y1.2644
N7320 X2.5844 Y1.2489
N7325 X2.551 Y1.2289
N7330 X2.5193 Y1.2062
N7335 X2.4893 Y1.1813
N7340 X2.461 Y1.1544
N7345 X2.4346 Y1.1258
N7350 X2.41 Y1.0955
N7355 X2.3874 Y1.0637
N7360 X2.367 Y1.0305
N7365 X2.3488 Y0.996
N7370 X2.3329 Y0.9604
N7375 X2.3195 Y0.9238
N7380 X2.3087 Y0.8863
N7385 X2.301 Y0.8485
N7390 X2.2967 Y0.813
N7395 X2.2954 Y0.7814
N7400 X2.2965 Y0.7525
N7405 X2.2993 Y0.7293
N7410 X2.3031 Y0.7105
N7415 X2.3081 Y0.6931
N7420 X2.312 Y0.6828
N7425 X2.3172 Y0.6722
N7430 X2.3245 Y0.663
N7435 X2.3334 Y0.6554
N7440 X2.3437 Y0.6497
N7445 X2.3549 Y0.6462
N7450 X2.3666 Y0.645
N7455 X2.4534
N7460 G3 X2.4739 Y0.6572 I-0.0009 J0.025
N7465 G1 X2.477 Y0.6623
N7470 X2.8237 Y1.2424
N7475 G3 X2.8161 Y1.276 I-0.0215 J0.0128
N7480 G1 X2.8062 Y1.2821
N7485 X2.7719 Y1.3037
N7490 X2.7641 Y1.3087
N7495 X2.763 Y1.3094
N7500 X2.7524 Y1.3175
N7505 X2.7512 Y1.3185
N7510 X2.7465 Y1.3223
N7515 X2.7395 Y1.3267
N7520 X2.7318 Y1.3308
N7525 X2.7226 Y1.3347
N7530 X2.7117 Y1.3384
N7535 X2.6999 Y1.3413
N7540 X2.6854 Y1.3437
N7545 X2.6704 Y1.345
N7550 X2.6522 Y1.3451
N7555 X2.6333 Y1.3436
N7560 X2.6107 Y1.34
N7565 X2.5875 Y1.3344
N7570 X2.5604 Y1.3255
N7575 X2.5319 Y1.3135
N7580 X2.5014 Y1.2977
N7585 X2.4684 Y1.277
N7590 X2.4371 Y1.2538
N7595 X2.4076 Y1.2283
N7600 X2.3798 Y1.201
N7605 X2.3537 Y1.172
N7610 X2.3295 Y1.1414
N7615 X2.3071 Y1.1095
N7620 X2.2867 Y1.0763
N7625 X2.2684 Y1.0419
N7630 X2.252 Y1.0065
N7635 X2.2379 Y0.9701
N7640 X2.226 Y0.933
N7645 X2.2165 Y0.8952
N7650 X2.2096 Y0.8568
N7655 X2.2058 Y0.819
N7660 X2.2051 Y0.7842
N7665 X2.2069 Y0.7536
N7670 X2.2104 Y0.7285
N7675 X2.2149 Y0.7088
N7680 X2.2202 Y0.6916
N7685 X2.2242 Y0.6816
N7690 X2.2295 Y0.6714
N7695 X2.2368 Y0.6624
N7700 X2.2456 Y0.655
N7705 X2.2558 Y0.6495
N7710 X2.2668 Y0.6461
N7715 X2.2783 Y0.645
N7720 X2.3666
N7725 G3 X2.3873 Y0.6574 I-0.0009 J0.025
N7730 G1 X2.3902 Y0.6623
N7735 X2.7556 Y1.2877
N7740 G3 X2.7512 Y1.3185 I-0.0216 J0.0126
N7745 G1 X2.7453 Y1.3237
N7750 X2.7364 Y1.3322
N7755 X2.7069 Y1.3617
N7760 X2.701 Y1.3679
N7765 X2.6967 Y1.3721
N7770 X2.6907 Y1.3768
N7775 X2.6831 Y1.3818
N7780 X2.6748 Y1.3864
N7785 X2.6647 Y1.391
N7790 X2.6537 Y1.395
N7795 X2.6407 Y1.3985
N7800 X2.6262 Y1.4011
N7805 X2.6098 Y1.4028
N7810 X2.5917 Y1.4033
N7815 X2.5712 Y1.4021
N7820 X2.5493 Y1.399
N7825 X2.5237 Y1.3933
N7830 X2.498 Y1.3854
N7835 X2.4687 Y1.3738
N7840 X2.4369 Y1.358
N7845 X2.4034 Y1.338
N7850 X2.3717 Y1.3153
N7855 X2.3417 Y1.2904
N7860 X2.3134 Y1.2636
N7865 X2.2868 Y1.2351
N7870 X2.2619 Y1.205
N7875 X2.2388 Y1.1737
N7880 X2.2174 Y1.1411
N7885 X2.1977 Y1.1074
N7890 X2.1799 Y1.0727
N7895 X2.1639 Y1.0372
N7900 X2.15 Y1.0008
N7905 X2.1381 Y0.9636
N7910 X2.1284 Y0.9258
N7915 X2.121 Y0.8876
N7920 X2.1161 Y0.8489
N7925 X2.1139 Y0.81
N7930 X2.1147 Y0.7741
N7935 X2.1177 Y0.7448
N7940 X2.1222 Y0.7205
N7945 X2.1275 Y0.701
N7950 X2.1333 Y0.6848
N7955 X2.1358 Y0.6793
N7960 X2.1413 Y0.6697
N7965 X2.1485 Y0.6612
N7970 X2.1573 Y0.6543
N7975 X2.1672 Y0.6492
N7980 X2.1778 Y0.6461
N7985 X2.1889 Y0.645
N7990 X2.2783
N7995 G3 X2.2989 Y0.6572 I-0.0009 J0.025
N8000 G1 X2.302 Y0.6623
N8005 X2.7036 Y1.3388
N8010 G3 X2.701 Y1.3679 I-0.0215 J0.0128
N8015 G1 X2.6985 Y1.3706
N8020 X2.6922 Y1.3777
N8025 X2.6843 Y1.3883
N8030 X2.6833 Y1.3896
N8035 X2.6785 Y1.3971
N8040 X2.6699 Y1.4108
N8045 X2.6651 Y1.4177
N8050 X2.6607 Y1.423
N8055 X2.6555 Y1.4283
N8060 X2.6492 Y1.4339
N8065 X2.6417 Y1.4394
N8070 X2.633 Y1.4448
N8075 X2.623 Y1.4501
N8080 X2.6115 Y1.4549
N8085 X2.5982 Y1.4592
N8090 X2.5836 Y1.4628
N8095 X2.567 Y1.4654
N8100 X2.5484 Y1.4668
N8105 X2.5282 Y1.4667
N8110 X2.5047 Y1.4647
N8115 X2.4807 Y1.4607
N8120 X2.4526 Y1.4537
N8125 X2.4232 Y1.4437
N8130 X2.3922 Y1.4304
N8135 X2.3584 Y1.4125
N8140 X2.3255 Y1.3916
N8145 X2.2943 Y1.3683
N8150 X2.2646 Y1.343
N8155 X2.2365 Y1.316
N8160 X2.21 Y1.2874
N8165 X2.1851 Y1.2574
N8170 X2.1618 Y1.2261
N8175 X2.1401 Y1.1937
N8180 X2.1201 Y1.1603
N8185 X2.1017 Y1.1259
N8190 X2.0851 Y1.0906
N8195 X2.0701 Y1.0546
N8200 X2.057 Y1.0179
N8205 X2.0457 Y0.9806
N8210 X2.0365 Y0.9427
N8215 X2.0294 Y0.9043
N8220 X2.0246 Y0.8657
N8225 X2.0222 Y0.8267
N8230 X2.0225 Y0.7878
N8235 X2.0254 Y0.7543
N8240 X2.0299 Y0.7276
N8245 X2.0351 Y0.707
N8250 X2.0377 Y0.6995
N8255 X2.0412 Y0.6914
N8260 X2.0459 Y0.6838
N8265 X2.0516 Y0.6771
N8270 X2.057 Y0.6717
N8275 X2.0603 Y0.6687
N8280 X2.0635 Y0.6665
N8285 X2.0723 Y0.6609
N8290 X2.0812 Y0.6558
N8295 X2.0901 Y0.6526
N8300 X2.0989 Y0.6495
N8305 X2.1011 Y0.6489
N8310 X2.1033 Y0.6484
N8315 X2.1078 Y0.6479
N8320 X2.1255 Y0.6459
N8325 X2.1343 Y0.6453
N8330 X2.152 Y0.6451
N8335 X2.1609 Y0.645
N8340 X2.1889
N8345 G3 X2.2092 Y0.6566 I-0.0009 J0.025
N8350 G1 X2.2127 Y0.6622
N8355 X2.6675 Y1.3818
N8360 X2.6694 Y1.3849
N8365 G3 X2.6699 Y1.4108 I-0.0211 J0.0134
N8370 G1 X2.6508 Y1.4413
N8375 X2.6479 Y1.4467
N8380 X2.6406 Y1.4633
N8385 X2.6373 Y1.4698
N8390 X2.6339 Y1.4755
N8395 X2.6298 Y1.4811
N8400 X2.6245 Y1.4874
N8405 X2.6184 Y1.4934
N8410 X2.6108 Y1.4998
N8415 X2.6024 Y1.5059
N8420 X2.5921 Y1.5121
N8425 X2.5808 Y1.5178
N8430 X2.5672 Y1.5232
N8435 X2.5529 Y1.5277
N8440 X2.5355 Y1.5317
N8445 X2.5174 Y1.5342
N8450 X2.496 Y1.5356
N8455 X2.4733 Y1.5351
N8460 X2.4482 Y1.5326
N8465 X2.4195 Y1.5274
N8470 X2.3906 Y1.5197
N8475 X2.3585 Y1.5083
N8480 X2.3237 Y1.4928
N8485 X2.2895 Y1.4741
N8490 X2.2568 Y1.4529
N8495 X2.2255 Y1.4296
N8500 X2.1958 Y1.4044
N8505 X2.1675 Y1.3776
N8510 X2.1407 Y1.3492
N8515 X2.1154 Y1.3195
N8520 X2.0916 Y1.2887
N8525 X2.0693 Y1.2567
N8530 X2.0484 Y1.2237
N8535 X2.0291 Y1.1899
N8540 X2.0265 Y1.1847
N8545 X2.0229 Y1.1762
N8550 X2.0207 Y1.1673
N8555 X2.02 Y1.1581
N8560 Y0.7867
N8565 X2.0201 Y0.7602
N8570 X2.0208 Y0.7513
N8575 X2.0233 Y0.7292
N8580 X2.0243 Y0.7248
N8585 X2.0304 Y0.7071
N8590 X2.0314 Y0.7049
N8595 X2.0326 Y0.7027
N8600 X2.0409 Y0.6894
N8605 X2.043 Y0.6862
N8610 X2.0458 Y0.6829
N8615 X2.0516 Y0.6771
N8620 G3 X2.0889 Y0.6807 I0.017 J0.0183
N8625 G1 X2.6342 Y1.4347
N8630 X2.6376 Y1.4394
N8635 G3 X2.6406 Y1.4633 I-0.0203 J0.0147
N8640 G1 X2.6386 Y1.4679
N8645 X2.6351 Y1.4767
N8650 X2.6258 Y1.5033
N8655 X2.6213 Y1.5162
N8660 X2.6197 Y1.521
N8665 X2.6177 Y1.5266
N8670 X2.6149 Y1.5324
N8675 X2.611 Y1.539
N8680 X2.6065 Y1.5456
N8685 X2.6007 Y1.5527
N8690 X2.594 Y1.5596
N8695 X2.5856 Y1.567
N8700 X2.5763 Y1.5739
N8705 X2.565 Y1.5811
N8710 X2.5527 Y1.5875
N8715 X2.5378 Y1.5938
N8720 X2.5221 Y1.5991
N8725 X2.5033 Y1.6037
N8730 X2.483 Y1.607
N8735 X2.4607 Y1.6088
N8740 X2.4348
N8745 X2.4083 Y1.6066
N8750 X2.3783 Y1.6018
N8755 X2.3452 Y1.5936
N8760 X2.3103 Y1.582
N8765 X2.2745 Y1.5668
N8770 X2.2399 Y1.5488
N8775 X2.2066 Y1.5284
N8780 X2.1748 Y1.5059
N8785 X2.1442 Y1.4817
N8790 X2.1151 Y1.4558
N8795 X2.0873 Y1.4285
N8800 X2.0608 Y1.3998
N8805 X2.0357 Y1.37
N8810 X2.0321 Y1.3653
N8815 X2.0255 Y1.3544
N8820 X2.0214 Y1.3424
N8825 X2.02 Y1.3297
N8830 Y1.1581
N8835 G3 X2.0585 Y1.1379 I0.025 J0.0009
N8840 G1 X2.6092 Y1.4933
N8845 G3 X2.6197 Y1.521 I-0.0136 J0.021
N8850 G1 X2.617 Y1.5298
N8855 X2.6125 Y1.5525
N8860 X2.6118 Y1.5563
N8865 X2.6103 Y1.5701
N8870 X2.6092 Y1.5766
N8875 X2.6078 Y1.5824
N8880 X2.6056 Y1.589
N8885 X2.6027 Y1.5956
N8890 X2.5988 Y1.6031
N8895 X2.5941 Y1.6104
N8900 X2.588 Y1.6185
N8905 X2.581 Y1.6265
N8910 X2.5723 Y1.6348
N8915 X2.5624 Y1.6429
N8920 X2.5507 Y1.6509
N8925 X2.5372 Y1.6587
N8930 X2.522 Y1.6659
N8935 X2.5042 Y1.6726
N8940 X2.4854 Y1.6781
N8945 X2.4634 Y1.6826
N8950 X2.439 Y1.6856
N8955 X2.4128 Y1.6866
N8960 X2.3828 Y1.6855
N8965 X2.3504 Y1.6816
N8970 X2.3169 Y1.6748
N8975 X2.28 Y1.6642
N8980 X2.2436 Y1.6504
N8985 X2.2082 Y1.634
N8990 X2.174 Y1.6153
N8995 X2.141 Y1.5946
N9000 X2.1091 Y1.572
N9005 X2.0786 Y1.5478
N9010 X2.0493 Y1.5221
N9015 X2.0378 Y1.511
N9020 X2.0303 Y1.5021
N9025 X2.0246 Y1.4918
N9030 X2.0212 Y1.4807
N9035 X2.02 Y1.4691
N9040 Y1.3297
N9045 G3 X2.055 Y1.3077 I0.025 J0.0009
N9050 G1 X2.5953 Y1.5452
N9055 X2.5954
N9060 G3 X2.6103 Y1.5701 I-0.0101 J0.0229
N9065 G1 X2.6059 Y1.6094
N9070 X2.6055 Y1.6183
N9075 X2.6053 Y1.6271
N9080 X2.6047 Y1.6358
N9085 X2.6037 Y1.642
N9090 X2.6021 Y1.6487
N9095 X2.5997 Y1.6561
N9100 X2.5965 Y1.6638
N9105 X2.5922 Y1.6721
N9110 X2.5869 Y1.6806
N9115 X2.5802 Y1.6897
N9120 X2.5725 Y1.6986
N9125 X2.5627 Y1.7082
N9130 X2.552 Y1.7172
N9135 X2.5387 Y1.7265
N9140 X2.5241 Y1.7351
N9145 X2.5071 Y1.7434
N9150 X2.4876 Y1.7511
N9155 X2.4665 Y1.7574
N9160 X2.4417 Y1.7628
N9165 X2.4148 Y1.7663
N9170 X2.3861 Y1.7678
N9175 X2.3532 Y1.7669
N9180 X2.3174 Y1.763
N9185 X2.28 Y1.7558
N9190 X2.2424 Y1.7454
N9195 X2.2057 Y1.7322
N9200 X2.17 Y1.7166
N9205 X2.1353 Y1.6988
N9210 X2.1016 Y1.6791
N9215 X2.0691 Y1.6577
N9220 X2.0438 Y1.6391
N9225 X2.0357 Y1.6319
N9230 X2.029 Y1.6232
N9235 X2.0241 Y1.6135
N9240 X2.021 Y1.603
N9245 X2.02 Y1.5921
N9250 Y1.4691
N9255 G3 X2.052 Y1.4459 I0.025 J0.0009
N9260 G1 X2.5873 Y1.6034
N9265 G3 X2.6053 Y1.6271 I-0.0071 J0.024
N9270 G1 X2.6051 Y1.636
N9275 X2.605 Y1.6448
N9280 Y1.6979
N9285 X2.6047 Y1.7039
N9290 X2.6036 Y1.7108
N9295 X2.6018 Y1.7186
N9300 X2.5991 Y1.7267
N9305 X2.5954 Y1.7356
N9310 X2.5908 Y1.7446
N9315 X2.5846 Y1.7545
N9320 X2.5774 Y1.7643
N9325 X2.5682 Y1.7749
N9330 X2.558 Y1.7849
N9335 X2.5451 Y1.7956
N9340 X2.5309 Y1.8056
N9345 X2.5142 Y1.8154
N9350 X2.4947 Y1.8249
N9355 X2.4739 Y1.833
N9360 X2.4493 Y1.8404
N9365 X2.4217 Y1.8464
N9370 X2.3925 Y1.8502
N9375 X2.3592 Y1.8519
N9380 X2.3225 Y1.8509
N9385 X2.2838 Y1.8466
N9390 X2.2455 Y1.8393
N9395 X2.2078 Y1.8291
N9400 X2.171 Y1.8164
N9405 X2.1349 Y1.8015
N9410 X2.0998 Y1.7846
N9415 X2.0656 Y1.7659
N9420 X2.0472 Y1.7542
N9425 X2.038 Y1.747
N9430 X2.0303 Y1.7381
N9435 X2.0247 Y1.7278
N9440 X2.0212 Y1.7166
N9445 X2.02 Y1.7049
N9450 Y1.5921
N9455 G3 X2.0498 Y1.5684 I0.025 J0.0009
N9460 G1 X2.5849 Y1.6742
N9465 G3 X2.605 Y1.6979 I-0.0048 J0.0245
N9470 G1 Y1.7687
N9475 X2.6047 Y1.7756
N9480 X2.6037 Y1.783
N9485 X2.602 Y1.7909
N9490 X2.5994 Y1.7996
N9495 X2.5958 Y1.8087
N9500 X2.591 Y1.8186
N9505 X2.5851 Y1.8287
N9510 X2.5774 Y1.8396
N9515 X2.5685 Y1.8503
N9520 X2.5572 Y1.8619
N9525 X2.5447 Y1.8728
N9530 X2.5292 Y1.8843
N9535 X2.512 Y1.895
N9540 X2.4921 Y1.9053
N9545 X2.4685 Y1.9151
N9550 X2.4436 Y1.9233
N9555 X2.4145 Y1.9302
N9560 X2.3813 Y1.9354
N9565 X2.3463 Y1.9381
N9570 X2.3084 Y1.9378
N9575 X2.2696 Y1.9345
N9580 X2.2311 Y1.9283
N9585 X2.1931 Y1.9194
N9590 X2.1558 Y1.9083
N9595 X2.1191 Y1.895
N9600 X2.0832 Y1.8797
N9605 X2.0567 Y1.8664
N9610 X2.0479 Y1.861
N9615 X2.0384 Y1.8538
N9620 X2.0306 Y1.8448
N9625 X2.0248 Y1.8344
N9630 X2.0212 Y1.823
N9635 X2.02 Y1.8112
N9640 Y1.7049
N9645 G3 X2.0479 Y1.681 I0.025 J0.0009
N9650 G1 X2.583 Y1.7447
N9655 G3 X2.605 Y1.7687 I-0.003 J0.0248
N9660 G1 Y1.8483
N9665 X2.6047 Y1.8543
N9670 X2.6035 Y1.8624
N9675 X2.6016 Y1.8707
N9680 X2.5985 Y1.8802
N9685 X2.5946 Y1.8897
N9690 X2.5891 Y1.9004
N9695 X2.5826 Y1.9111
N9700 X2.574 Y1.9229
N9705 X2.5641 Y1.9343
N9710 X2.5517 Y1.9466
N9715 X2.5377 Y1.9583
N9720 X2.5208 Y1.9704
N9725 X2.5011 Y1.9821
N9730 X2.4792 Y1.9929
N9735 X2.453 Y2.0033
N9740 X2.4242 Y2.0121
N9745 X2.3929 Y2.019
N9750 X2.3572 Y2.0239
N9755 X2.3182 Y2.0261
N9760 X2.2792 Y2.0252
N9765 X2.2404 Y2.0215
N9770 X2.2019 Y2.0153
N9775 X2.1639 Y2.0067
N9780 X2.1264 Y1.9959
N9785 X2.0896 Y1.983
N9790 X2.0638 Y1.9717
N9795 X2.0507 Y1.9647
N9800 X2.0404 Y1.9576
N9805 X2.0318 Y1.9484
N9810 X2.0253 Y1.9377
N9815 X2.0213 Y1.9258
N9820 X2.02 Y1.9133
N9825 Y1.8112
N9830 G3 X2.0467 Y1.7871 I0.025 J0.0009
N9835 G1 X2.5817 Y1.8242
N9840 G3 X2.605 Y1.8483 I-0.0017 J0.0249
N9845 G1 Y1.9279
N9850 X2.6047 Y1.9339
N9855 X2.6036 Y1.9416
N9860 X2.6016 Y1.9507
N9865 X2.5987 Y1.9598
N9870 X2.5945 Y1.9703
N9875 X2.5893 Y1.9808
N9880 X2.5822 Y1.9926
N9885 X2.574 Y2.004
N9890 X2.5631 Y2.0168
N9895 X2.551 Y2.029
N9900 X2.5357 Y2.0421
N9905 X2.5185 Y2.0545
N9910 X2.4983 Y2.0668
N9915 X2.474 Y2.079
N9920 X2.4483 Y2.0895
N9925 X2.4177 Y2.0991
N9930 X2.3984 Y2.1035
N9935 X2.3941 Y2.1043
N9940 X2.3897 Y2.1048
N9945 X2.3853 Y2.105
N9950 G3 X2.3708 Y2.0603 I0.0009 J-0.025
N9955 G1 X2.5646 Y1.9091
N9960 G3 X2.605 Y1.9279 I0.0154 J0.0197
N9965 G1 Y1.9633
N9970 X2.6049 Y1.9898
N9975 X2.6042 Y1.9987
N9980 X2.6017 Y2.0208
N9985 X2.6007 Y2.0252
N9990 X2.5946 Y2.0429
N9995 X2.5936 Y2.0451
N10000 X2.5924 Y2.0473
N10005 X2.5841 Y2.0606
N10010 X2.5811 Y2.0649
N10015 X2.5768 Y2.0694
N10020 X2.568 Y2.0783
N10025 X2.5637 Y2.0821
N10030 X2.5593 Y2.0849
N10035 X2.5505 Y2.0904
N10040 X2.5461 Y2.0931
N10045 X2.5416 Y2.095
N10050 X2.5328 Y2.0981
N10055 X2.5239 Y2.1011
N10060 X2.5151 Y2.1024
N10065 X2.4974 Y2.1044
N10070 X2.4894 Y2.1048
N10075 X2.4797 Y2.105
N10080 X2.2583
N10085 X2.2194 Y2.1031
N10090 X2.1805 Y2.0996
N10095 X2.1421 Y2.093
N10100 X2.1054 Y2.0839
N10105 X2.0783 Y2.0748
N10110 X2.0583 Y2.0662
N10115 X2.0545 Y2.0643
N10120 X2.0453 Y2.0583
N10125 X2.0374 Y2.0507
N10130 X2.0311 Y2.0418
N10135 X2.0266 Y2.0318
N10140 G3 X2.0569 Y2.0003 I0.0239 J-0.0074
N10145 G1 X2.2639 Y2.0559
N10150 G3 X2.2583 Y2.105 I-0.0065 J0.0241
N10155 G1 X2.1609
N10160 X2.152 Y2.1049
N10165 X2.1343 Y2.1047
N10170 X2.1255 Y2.1041
N10175 X2.1078 Y2.1021
N10180 X2.1033 Y2.1016
N10185 X2.1011 Y2.1011
N10190 X2.0989 Y2.1004
N10195 X2.0861 Y2.096
N10200 X2.0812 Y2.0942
N10205 X2.0723 Y2.0891
N10210 X2.0635 Y2.0835
N10215 X2.0603 Y2.0813
N10220 X2.057 Y2.0783
N10225 X2.0458 Y2.0671
N10230 X2.043 Y2.0638
N10235 X2.0409 Y2.0606
N10240 X2.0326 Y2.0473
N10245 X2.0314 Y2.0451
N10250 X2.0304 Y2.0429
N10255 X2.0243 Y2.0252
N10260 X2.0233 Y2.0208
N10265 X2.0208 Y1.9987
N10270 X2.0201 Y1.9898
N10275 X2.02 Y1.9633
N10280 Y1.9133
N10285 G3 X2.0376 Y1.8903 I0.025 J0.0009
N10290 G1 X2.0414 Y1.8891 Z-0.3934
N10295 X2.045 Y1.888 Z-0.3925
N10300 X2.0485 Y1.8869 Z-0.391
N10305 X2.0517 Y1.886 Z-0.3889
N10310 X2.0545 Y1.8851 Z-0.3864
N10315 X2.0569 Y1.8843 Z-0.3834
N10320 X2.0589 Y1.8837 Z-0.3801
N10325 X2.0603 Y1.8833 Z-0.3764
N10330 X2.0612 Y1.883 Z-0.3726
N10335 X2.0615 Y1.8829 Z-0.3687
N10340 G0 Z0.2
N10345 G1 X3.6804 Y0.6611 F500.
N10350 G0 Z-0.3437
N10355 G1 Z-0.3687 F22.8
N10360 X3.6807 Y0.6609 Z-0.3726
N10365 X3.6815 Y0.6605 Z-0.3764
N10370 X3.6828 Y0.6599 Z-0.3801
N10375 X3.6847 Y0.6589 Z-0.3834
N10380 X3.6869 Y0.6578 Z-0.3864
N10385 X3.6896 Y0.6565 Z-0.3889
N10390 X3.6926 Y0.655 Z-0.391
N10395 X3.6959 Y0.6534 Z-0.3925
N10400 X3.6993 Y0.6517 Z-0.3934
N10405 X3.7028 Y0.6499 Z-0.3937
N10410 G3 X3.733 Y0.6435 I0.0277 J0.0558
N10415 G1 X3.7459 Y0.6445
N10420 X3.7547 Y0.645
N10425 X3.7813
N10430 X3.7873 Y0.6453
N10435 X3.7932 Y0.6462
N10440 X3.7991 Y0.6477
N10445 X3.8053 Y0.6497
N10450 X3.8121 Y0.6526
N10455 X3.8189 Y0.6561
N10460 X3.8263 Y0.6608
N10465 X3.8336 Y0.6663
N10470 X3.8411 Y0.6729
N10475 X3.8488 Y0.6808
N10480 X3.8561 Y0.6897
N10485 X3.8635 Y0.7004
N10490 X3.8702 Y0.712
N10495 X3.8766 Y0.7252
N10500 X3.8824 Y0.7404
N10505 X3.8871 Y0.7564
N10510 X3.8909 Y0.7747
N10515 X3.8934 Y0.7948
N10520 X3.8943 Y0.8156
N10525 X3.8935 Y0.8387
N10530 X3.8905 Y0.8642
N10535 X3.8854 Y0.89
N10540 X3.8776 Y0.9175
N10545 X3.8666 Y0.9471
N10550 X3.852 Y0.9783
N10555 X3.8345 Y1.009
N10560 X3.8129 Y1.0407
N10565 X3.7884 Y1.0711
N10570 X3.7617 Y1.0995
N10575 X3.7332 Y1.1261
N10580 X3.703 Y1.1508
N10585 X3.6714 Y1.1736
N10590 X3.6386 Y1.1946
N10595 X3.6046 Y1.2139
N10600 X3.5763 Y1.2281
N10605 X3.5658 Y1.2322
N10610 X3.5548 Y1.2342
N10615 X3.5436 Y1.234
N10620 X3.5156 Y1.2309
N10625 X3.5068 Y1.2305
N10630 X3.4891 Y1.2301
N10635 X3.4802 Y1.23
N10640 X3.1549
N10645 G3 X3.1396 Y1.186 I0.0009 J-0.025
N10650 G1 X3.7552 Y0.6601
N10655 X3.7659 Y0.651
N10660 G3 X3.7813 Y0.645 I0.0162 J0.019
N10665 G1 X3.8393
N10670 X3.8462 Y0.6453
N10675 X3.8522 Y0.6461
N10680 X3.8588 Y0.6475
N10685 X3.8659 Y0.6497
N10690 X3.8733 Y0.6526
N10695 X3.8814 Y0.6565
N10700 X3.8895 Y0.6612
N10705 X3.8982 Y0.6674
N10710 X3.9066 Y0.6744
N10715 X3.9155 Y0.683
N10720 X3.9241 Y0.6929
N10725 X3.9326 Y0.7044
N10730 X3.941 Y0.7178
N10735 X3.9484 Y0.7322
N10740 X3.9554 Y0.7489
N10745 X3.9615 Y0.7678
N10750 X3.9663 Y0.7877
N10755 X3.9698 Y0.8101
N10760 X3.9717 Y0.835
N10765 X3.9715 Y0.8606
N10770 X3.9691 Y0.8886
N10775 X3.964 Y0.9193
N10780 X3.9558 Y0.9519
N10785 X3.9447 Y0.9844
N10790 X3.93 Y1.0185
N10795 X3.9117 Y1.0529
N10800 X3.8908 Y1.0859
N10805 X3.8677 Y1.1172
N10810 X3.8424 Y1.1469
N10815 X3.8154 Y1.1751
N10820 X3.7868 Y1.2015
N10825 X3.7567 Y1.2263
N10830 X3.7252 Y1.2494
N10835 X3.7119 Y1.2582
N10840 X3.702 Y1.2634
N10845 X3.6913 Y1.2667
N10850 X3.6802 Y1.2678
N10855 X3.669 Y1.2668
N10860 X3.6583 Y1.2637
N10865 X3.6573 Y1.2633
N10870 X3.6485 Y1.2601
N10875 X3.6219 Y1.2508
N10880 X3.6042 Y1.2448
N10885 X3.5953 Y1.2419
N10890 X3.5865 Y1.2397
N10895 X3.5776 Y1.2381
N10900 X3.5762 Y1.2379
N10905 X3.5688 Y1.2368
N10910 X3.5436 Y1.234
N10915 G3 X3.5253 Y1.1973 I0.0037 J-0.0247
N10920 G1 X3.8158 Y0.6624
N10925 X3.8182 Y0.6581
N10930 G3 X3.8393 Y0.645 I0.022 J0.0119
N10935 G1 X3.9052
N10940 X3.9129 Y0.6454
N10945 X3.9194 Y0.6462
N10950 X3.9268 Y0.6478
N10955 X3.9344 Y0.6501
N10960 X3.9428 Y0.6534
N10965 X3.9514 Y0.6576
N10970 X3.9605 Y0.6629
N10975 X3.97 Y0.6696
N10980 X3.9795 Y0.6775
N10985 X3.9895 Y0.6872
N10990 X3.9989 Y0.698
N10995 X4.0086 Y0.7111
N11000 X4.0178 Y0.7258
N11005 X4.0263 Y0.7424
N11010 X4.0344 Y0.7616
N11015 X4.0411 Y0.7823
N11020 X4.0466 Y0.8052
N11025 X4.0507 Y0.8313
N11030 X4.0528 Y0.8594
N11035 X4.0526 Y0.8889
N11040 X4.0498 Y0.9213
N11045 X4.0439 Y0.9563
N11050 X4.0347 Y0.9931
N11055 X4.0221 Y1.0301
N11060 X4.0067 Y1.0659
N11065 X3.9887 Y1.1004
N11070 X3.9683 Y1.1337
N11075 X3.9459 Y1.1656
N11080 X3.9217 Y1.1961
N11085 X3.8957 Y1.2252
N11090 X3.8682 Y1.2529
N11095 X3.8393 Y1.279
N11100 X3.8167 Y1.297
N11105 X3.8004 Y1.3079
N11110 X3.7904 Y1.3132
N11115 X3.7796 Y1.3166
N11120 X3.7683 Y1.3178
N11125 X3.757 Y1.3169
N11130 X3.746 Y1.3138
N11135 X3.7359 Y1.3087
N11140 X3.7193 Y1.2981
N11145 X3.6927 Y1.2814
N11150 X3.6839 Y1.276
N11155 X3.6792 Y1.2733
N11160 X3.675 Y1.2712
N11165 X3.6662 Y1.2668
N11170 X3.6583 Y1.2637
N11175 G3 X3.6452 Y1.2312 I0.01 J-0.0229
N11180 G1 X3.8821 Y0.6626
N11185 X3.883 Y0.6604
N11190 G3 X3.9052 Y0.645 I0.0231 J0.0096
N11195 G1 X3.9761
N11200 X3.9843 Y0.6454
N11205 X3.9913 Y0.6463
N11210 X3.999 Y0.648
N11215 X4.0073 Y0.6505
N11220 X4.0162 Y0.6539
N11225 X4.0254 Y0.6584
N11230 X4.0355 Y0.6643
N11235 X4.0454 Y0.6713
N11240 X4.0562 Y0.6802
N11245 X4.0664 Y0.6902
N11250 X4.0772 Y0.7026
N11255 X4.0875 Y0.7165
N11260 X4.0976 Y0.7327
N11265 X4.1074 Y0.7517
N11270 X4.1159 Y0.772
N11275 X4.1235 Y0.7954
N11280 X4.1299 Y0.8221
N11285 X4.1343 Y0.85
N11290 X4.1366 Y0.8811
N11295 X4.1364 Y0.9158
N11300 X4.1332 Y0.9531
N11305 X4.1267 Y0.9915
N11310 X4.1172 Y1.0293
N11315 X4.1048 Y1.0663
N11320 X4.0899 Y1.1023
N11325 X4.0727 Y1.1373
N11330 X4.0534 Y1.1711
N11335 X4.0321 Y1.2038
N11340 X4.0092 Y1.2353
N11345 X3.9846 Y1.2656
N11350 X3.9585 Y1.2946
N11355 X3.9309 Y1.3221
N11360 X3.9084 Y1.3414
N11365 X3.8897 Y1.355
N11370 X3.8733 Y1.365
N11375 X3.8583 Y1.3726
N11380 X3.8557 Y1.3737
N11385 X3.8448 Y1.377
N11390 X3.8334 Y1.378
N11395 X3.8221 Y1.3769
N11400 X3.8112 Y1.3736
N11405 X3.8011 Y1.3682
N11410 X3.7923 Y1.3609
N11415 X3.7636 Y1.3322
N11420 X3.7547 Y1.3237
N11425 X3.7476 Y1.3175
N11430 X3.737 Y1.3094
N11435 X3.7359 Y1.3087
N11440 G3 X3.727 Y1.2798 I0.0146 J-0.0203
N11445 G1 X3.953 Y0.6626
N11450 X3.9535 Y0.6614
N11455 G3 X3.9761 Y0.645 I0.0235 J0.0086
N11460 G1 X4.0518
N11465 X4.0591 Y0.6454
N11470 X4.0668 Y0.6464
N11475 X4.0746 Y0.648
N11480 X4.0836 Y0.6507
N11485 X4.0926 Y0.6543
N11490 X4.1029 Y0.6592
N11495 X4.113 Y0.6652
N11500 X4.1241 Y0.673
N11505 X4.1349 Y0.682
N11510 X4.1464 Y0.6931
N11515 X4.1578 Y0.7062
N11520 X4.1689 Y0.7213
N11525 X4.1802 Y0.7394
N11530 X4.1902 Y0.7588
N11535 X4.1998 Y0.7817
N11540 X4.2084 Y0.8081
N11545 X4.215 Y0.8358
N11550 X4.22 Y0.8677
N11555 X4.2227 Y0.9032
N11560 X4.2225 Y0.9414
N11565 X4.2191 Y0.9802
N11570 X4.2127 Y1.0187
N11575 X4.2035 Y1.0566
N11580 X4.1918 Y1.0937
N11585 X4.1778 Y1.1301
N11590 X4.1617 Y1.1656
N11595 X4.1436 Y1.2002
N11600 X4.1238 Y1.2338
N11605 X4.1023 Y1.2663
N11610 X4.0792 Y1.2977
N11615 X4.0546 Y1.328
N11620 X4.0284 Y1.3568
N11625 X4.001 Y1.3833
N11630 X3.9765 Y1.4034
N11635 X3.9564 Y1.4174
N11640 X3.9392 Y1.4274
N11645 X3.9235 Y1.4349
N11650 X3.9079 Y1.4409
N11655 X3.9005 Y1.4431
N11660 X3.8882 Y1.4453
N11665 X3.8756 Y1.4448
N11670 X3.8634 Y1.4417
N11675 X3.8522 Y1.436
N11680 X3.8425 Y1.428
N11685 X3.8347 Y1.4181
N11690 X3.8215 Y1.3971
N11695 X3.8167 Y1.3896
N11700 X3.8157 Y1.3883
N11705 X3.8078 Y1.3777
N11710 X3.8015 Y1.3706
N11715 X3.7931 Y1.3617
N11720 X3.7923 Y1.3609
N11725 G3 X3.7871 Y1.3354 I0.0183 J-0.017
N11730 G1 X3.7883 Y1.3321
N11735 X4.0287 Y0.6626
N11740 X4.0291 Y0.6615
N11745 G3 X4.0518 Y0.645 I0.0235 J0.0084
N11750 G1 X4.1266
N11755 X4.1371 Y0.6455
N11760 X4.145 Y0.6466
N11765 X4.1532 Y0.6483
N11770 X4.1624 Y0.6511
N11775 X4.1721 Y0.6548
N11780 X4.1826 Y0.6599
N11785 X4.1933 Y0.6662
N11790 X4.2048 Y0.6743
N11795 X4.2163 Y0.6839
N11800 X4.2287 Y0.6959
N11805 X4.2404 Y0.7093
N11810 X4.2526 Y0.7259
N11815 X4.2641 Y0.7444
N11820 X4.2752 Y0.7658
N11825 X4.2859 Y0.7914
N11830 X4.2947 Y0.8183
N11835 X4.3021 Y0.8495
N11840 X4.3076 Y0.8847
N11845 X4.3105 Y0.9229
N11850 X4.3103 Y0.9619
N11855 X4.307 Y1.0007
N11860 X4.301 Y1.0393
N11865 X4.2925 Y1.0773
N11870 X4.2816 Y1.1148
N11875 X4.2687 Y1.1515
N11880 X4.2538 Y1.1876
N11885 X4.2371 Y1.2228
N11890 X4.2187 Y1.2572
N11895 X4.1987 Y1.2906
N11900 X4.1771 Y1.3231
N11905 X4.154 Y1.3545
N11910 X4.1294 Y1.3848
N11915 X4.1031 Y1.4136
N11920 X4.0751 Y1.4407
N11925 X4.0487 Y1.4627
N11930 X4.0232 Y1.4807
N11935 X4.0016 Y1.4934
N11940 X3.9836 Y1.5022
N11945 X3.966 Y1.509
N11950 X3.9509 Y1.5136
N11955 X3.9353 Y1.5169
N11960 X3.9285 Y1.5178
N11965 X3.9153 Y1.5181
N11970 X3.9023 Y1.5153
N11975 X3.8903 Y1.5097
N11980 X3.8799 Y1.5015
N11985 X3.8716 Y1.4912
N11990 X3.8658 Y1.4793
N11995 X3.8649 Y1.4767
N12000 X3.8614 Y1.4679
N12005 X3.8521 Y1.4467
N12010 X3.8492 Y1.4413
N12015 X3.8347 Y1.4181
N12020 G3 X3.8328 Y1.3969 I0.0216 J-0.0125
N12025 G1 X3.8359 Y1.3885
N12030 X4.1035 Y0.6626
N12035 X4.104 Y0.6613
N12040 G3 X4.1266 Y0.645 I0.0235 J0.0086
N12045 G1 X4.2063
N12050 X4.2174 Y0.6456
N12055 X4.2253 Y0.6466
N12060 X4.2341 Y0.6485
N12065 X4.2434 Y0.6512
N12070 X4.2537 Y0.6553
N12075 X4.2641 Y0.6603
N12080 X4.2757 Y0.6672
N12085 X4.2873 Y0.6753
N12090 X4.2998 Y0.6857
N12095 X4.3122 Y0.6978
N12100 X4.3249 Y0.7123
N12105 X4.3378 Y0.7298
N12110 X4.3498 Y0.749
N12115 X4.362 Y0.7728
N12120 X4.3729 Y0.7988
N12125 X4.3825 Y0.8282
N12130 X4.3906 Y0.8621
N12135 X4.3965 Y0.8995
N12140 X4.3994 Y0.9384
N12145 X4.3993 Y0.9774
N12150 X4.3964 Y1.0163
N12155 X4.391 Y1.0549
N12160 X4.3833 Y1.0931
N12165 X4.3734 Y1.1309
N12170 X4.3616 Y1.168
N12175 X4.3479 Y1.2045
N12180 X4.3326 Y1.2404
N12185 X4.3156 Y1.2755
N12190 X4.297 Y1.3098
N12195 X4.277 Y1.3432
N12200 X4.2554 Y1.3757
N12205 X4.2324 Y1.4072
N12210 X4.2079 Y1.4375
N12215 X4.1819 Y1.4665
N12220 X4.1542 Y1.494
N12225 X4.1248 Y1.5196
N12230 X4.0957 Y1.5413
N12235 X4.0691 Y1.5581
N12240 X4.0433 Y1.5715
N12245 X4.0215 Y1.5808
N12250 X4.0026 Y1.587
N12255 X3.9849 Y1.5914
N12260 X3.9693 Y1.5939
N12265 X3.9539 Y1.5951
N12270 X3.9398
N12275 X3.9392 Y1.595
N12280 X3.9268 Y1.5926
N12285 X3.9153 Y1.5877
N12290 X3.9051 Y1.5804
N12295 X3.8967 Y1.5711
N12300 X3.8904 Y1.5602
N12305 X3.8867 Y1.5482
N12310 X3.883 Y1.5298
N12315 X3.8803 Y1.521
N12320 X3.8773 Y1.5121
N12325 X3.8711 Y1.4944
N12330 X3.8658 Y1.4793
N12335 G3 X3.8665 Y1.4626 I0.0239 J-0.0074
N12340 G1 X3.8716 Y1.4497
N12345 X4.1832 Y0.6626
N12350 X4.1839 Y0.6608
N12355 G3 X4.2063 Y0.645 I0.0232 J0.0092
N12360 G1 X4.2948
N12365 X4.3008 Y0.6453
N12370 X4.309 Y0.6465
N12375 X4.3183 Y0.6486
N12380 X4.3279 Y0.6517
N12385 X4.3387 Y0.6561
N12390 X4.3496 Y0.6615
N12395 X4.3618 Y0.669
N12400 X4.3738 Y0.6777
N12405 X4.3871 Y0.689
N12410 X4.3998 Y0.7019
N12415 X4.4133 Y0.7178
N12420 X4.4265 Y0.7362
N12425 X4.4393 Y0.7575
N12430 X4.4522 Y0.7834
N12435 X4.4633 Y0.8111
N12440 X4.4732 Y0.8431
N12445 X4.4813 Y0.8795
N12450 X4.4868 Y0.9181
N12455 X4.4893 Y0.957
N12460 X4.489 Y0.996
N12465 X4.4863 Y1.0349
N12470 X4.4812 Y1.0735
N12475 X4.474 Y1.1118
N12480 X4.4648 Y1.1497
N12485 X4.4537 Y1.1871
N12490 X4.4409 Y1.224
N12495 X4.4266 Y1.2602
N12500 X4.4106 Y1.2958
N12505 X4.3932 Y1.3307
N12510 X4.3744 Y1.3648
N12515 X4.3541 Y1.3981
N12520 X4.3325 Y1.4306
N12525 X4.3094 Y1.462
N12530 X4.2849 Y1.4924
N12535 X4.259 Y1.5215
N12540 X4.2317 Y1.5493
N12545 X4.2028 Y1.5754
N12550 X4.1722 Y1.5997
N12555 X4.1401 Y1.6217
N12560 X4.1095 Y1.6392
N12565 X4.0817 Y1.6523
N12570 X4.055 Y1.6623
N12575 X4.0311 Y1.6692
N12580 X4.0103 Y1.6733
N12585 X3.9931 Y1.6754
N12590 X3.976 Y1.676
N12595 X3.9614 Y1.6754
N12600 X3.9465 Y1.6736
N12605 X3.941 Y1.6724
N12610 X3.9288 Y1.6685
N12615 X3.9177 Y1.6619
N12620 X3.9084 Y1.6532
N12625 X3.9012 Y1.6425
N12630 X3.8965 Y1.6306
N12635 X3.8945 Y1.6179
N12640 X3.8941 Y1.6094
N12645 X3.8885 Y1.5591
N12650 X3.8882 Y1.5563
N12655 X3.8875 Y1.5525
N12660 X3.8867 Y1.5482
N12665 G3 X3.8885 Y1.5341 I0.0247 J-0.004
N12670 G1 X3.8951 Y1.519
N12675 X4.2717 Y0.6626
N12680 X4.2728 Y0.6599
N12685 G3 X4.2948 Y0.645 I0.0229 J0.0101
N12690 G1 X4.3745
N12695 X4.3837 Y0.6455
N12700 X4.3919 Y0.6465
N12705 X4.4009 Y0.6485
N12710 X4.4109 Y0.6515
N12715 X4.4214 Y0.6555
N12720 X4.433 Y0.6612
N12725 X4.4447 Y0.6681
N12730 X4.4577 Y0.6772
N12735 X4.4706 Y0.6879
N12740 X4.4843 Y0.7012
N12745 X4.4979 Y0.7169
N12750 X4.5116 Y0.7353
N12755 X4.5256 Y0.7579
N12760 X4.5381 Y0.7822
N12765 X4.5504 Y0.8115
N12770 X4.5614 Y0.8452
N12775 X4.5704 Y0.8826
N12780 X4.5764 Y0.9212
N12785 X4.5795 Y0.96
N12790 X4.58 Y0.999
N12795 X4.5782 Y1.038
N12800 X4.5741 Y1.0767
N12805 X4.5681 Y1.1153
N12810 X4.5601 Y1.1534
N12815 X4.5504 Y1.1912
N12820 X4.5391 Y1.2285
N12825 X4.5262 Y1.2653
N12830 X4.5118 Y1.3015
N12835 X4.4959 Y1.3371
N12840 X4.4786 Y1.3721
N12845 X4.46 Y1.4063
N12850 X4.44 Y1.4398
N12855 X4.4187 Y1.4725
N12860 X4.3961 Y1.5043
N12865 X4.3723 Y1.5351
N12870 X4.3471 Y1.5649
N12875 X4.3207 Y1.5935
N12880 X4.2928 Y1.6208
N12885 X4.2635 Y1.6465
N12890 X4.2327 Y1.6705
N12895 X4.2006 Y1.6925
N12900 X4.1669 Y1.7123
N12905 X4.1331 Y1.7289
N12910 X4.1024 Y1.741
N12915 X4.073 Y1.7499
N12920 X4.0454 Y1.7559
N12925 X4.0215 Y1.7591
N12930 X3.9997 Y1.7603
N12935 X3.9822 Y1.7599
N12940 X3.965 Y1.758
N12945 X3.9505 Y1.7553
N12950 X3.9359 Y1.7513
N12955 X3.9335 Y1.7504
N12960 X3.9228 Y1.7452
N12965 X3.9133 Y1.738
N12970 X3.9056 Y1.729
N12975 X3.8998 Y1.7187
N12980 X3.8962 Y1.7074
N12985 X3.895 Y1.6956
N12990 Y1.6448
N12995 X3.8949 Y1.636
N13000 X3.8945 Y1.6179
N13005 G3 X3.897 Y1.6068 I0.025 J-0.0002
N13010 G1 X3.9054 Y1.5893
N13015 X4.3512 Y0.6625
N13020 X4.3529 Y0.6591
N13025 G3 X4.3745 Y0.645 I0.0225 J0.0108
N13030 G1 X4.4631
N13035 X4.4691 Y0.6453
N13040 X4.4773 Y0.6464
N13045 X4.4867 Y0.6484
N13050 X4.4967 Y0.6514
N13055 X4.5076 Y0.6557
N13060 X4.5194 Y0.6615
N13065 X4.5316 Y0.6687
N13070 X4.5446 Y0.6779
N13075 X4.558 Y0.689
N13080 X4.5719 Y0.7026
N13085 X4.5863 Y0.7191
N13090 X4.6003 Y0.7381
N13095 X4.615 Y0.7618
N13100 X4.628 Y0.7872
N13105 X4.6406 Y0.8175
N13110 X4.6519 Y0.8524
N13115 X4.661 Y0.8903
N13120 X4.6671 Y0.9288
N13125 X4.6705 Y0.9677
N13130 X4.6714 Y1.0067
N13135 X4.6701 Y1.0456
N13140 X4.6667 Y1.0845
N13145 X4.6614 Y1.1231
N13150 X4.6544 Y1.1614
N13155 X4.6456 Y1.1994
N13160 X4.6353 Y1.237
N13165 X4.6234 Y1.2742
N13170 X4.6102 Y1.3109
N13175 X4.5955 Y1.347
N13180 X4.5796 Y1.3826
N13185 X4.5623 Y1.4175
N13190 X4.5437 Y1.4518
N13195 X4.5238 Y1.4853
N13200 X4.5027 Y1.5181
N13205 X4.4805 Y1.5501
N13210 X4.457 Y1.5813
N13215 X4.4323 Y1.6115
N13220 X4.4064 Y1.6406
N13225 X4.3793 Y1.6686
N13230 X4.3509 Y1.6954
N13235 X4.3212 Y1.7207
N13240 X4.2903 Y1.7443
N13245 X4.258 Y1.7662
N13250 X4.2245 Y1.7862
N13255 X4.1898 Y1.8039
N13260 X4.1539 Y1.8192
N13265 X4.1181 Y1.8313
N13270 X4.0854 Y1.8394
N13275 X4.0553 Y1.8444
N13280 X4.0269 Y1.8468
N13285 X4.0021 Y1.8469
N13290 X3.9807 Y1.8453
N13295 X3.9633 Y1.8425
N13300 X3.9468 Y1.8385
N13305 X3.9324 Y1.8338
N13310 X3.9307 Y1.8331
N13315 X3.9207 Y1.8277
N13320 X3.9119 Y1.8204
N13325 X3.9047 Y1.8116
N13330 X3.8994 Y1.8015
N13335 X3.8961 Y1.7906
N13340 X3.895 Y1.7793
N13345 Y1.6956
N13350 G3 X3.8979 Y1.6847 I0.025 J0.0009
N13355 G1 X3.9071 Y1.6674
N13360 X4.4396 Y0.6624
N13365 X4.4419 Y0.6583
N13370 G3 X4.4631 Y0.645 I0.0221 J0.0117
N13375 G1 X4.5476
N13380 X4.5554 Y0.6454
N13385 X4.5639 Y0.6465
N13390 X4.5733 Y0.6485
N13395 X4.5836 Y0.6516
N13400 X4.5944 Y0.6558
N13405 X4.6067 Y0.6618
N13410 X4.6188 Y0.6689
N13415 X4.6325 Y0.6785
N13420 X4.6458 Y0.6895
N13425 X4.6604 Y0.7038
N13430 X4.6746 Y0.7201
N13435 X4.6894 Y0.74
N13440 X4.7041 Y0.7638
N13445 X4.7177 Y0.7901
N13450 X4.7309 Y0.8216
N13455 X4.7427 Y0.8579
N13460 X4.7518 Y0.8958
N13465 X4.7581 Y0.9343
N13470 X4.7619 Y0.9731
N13475 X4.7633 Y1.0121
N13480 X4.7626 Y1.0511
N13485 X4.7599 Y1.09
N13490 X4.7553 Y1.1287
N13495 X4.7491 Y1.1672
N13500 X4.7412 Y1.2054
N13505 X4.7319 Y1.2432
N13510 X4.7211 Y1.2807
N13515 X4.7089 Y1.3177
N13520 X4.6954 Y1.3543
N13525 X4.6806 Y1.3904
N13530 X4.6646 Y1.4259
N13535 X4.6473 Y1.4609
N13540 X4.6288 Y1.4952
N13545 X4.6091 Y1.5289
N13550 X4.5883 Y1.5618
N13555 X4.5664 Y1.5941
N13560 X4.5433 Y1.6255
N13565 X4.5192 Y1.6561
N13570 X4.4939 Y1.6858
N13575 X4.4675 Y1.7145
N13580 X4.4399 Y1.7421
N13585 X4.4112 Y1.7684
N13590 X4.3813 Y1.7935
N13595 X4.3502 Y1.817
N13600 X4.318 Y1.839
N13605 X4.2847 Y1.8593
N13610 X4.2504 Y1.8778
N13615 X4.2151 Y1.8942
N13620 X4.1787 Y1.9084
N13625 X4.1415 Y1.92
N13630 X4.1042 Y1.9285
N13635 X4.069 Y1.9337
N13640 X4.0365 Y1.9359
N13645 X4.0075 Y1.9354
N13650 X3.9841 Y1.9332
N13655 X3.9646 Y1.9298
N13660 X3.947 Y1.9251
N13665 X3.9322 Y1.92
N13670 X3.9297 Y1.9189
N13675 X3.92 Y1.9134
N13680 X3.9114 Y1.9061
N13685 X3.9044 Y1.8974
N13690 X3.8993 Y1.8874
N13695 X3.8961 Y1.8767
N13700 X3.895 Y1.8655
N13705 Y1.7793
N13710 G3 X3.9126 Y1.7563 I0.025 J0.0009
N13715 G1 X3.9164 Y1.7551 Z-0.3934
N13720 X3.92 Y1.754 Z-0.3925
N13725 X3.9235 Y1.753 Z-0.391
N13730 X3.9267 Y1.752 Z-0.3889
N13735 X3.9295 Y1.7511 Z-0.3864
N13740 X3.9319 Y1.7503 Z-0.3834
N13745 X3.9339 Y1.7497 Z-0.3801
N13750 X3.9353 Y1.7493 Z-0.3764
N13755 X3.9362 Y1.749 Z-0.3726
N13760 X3.9365 Y1.7489 Z-0.3687
N13765 G0 Z0.2
N13770 G1 X4.4965 Y0.6665 F500.
N13775 G0 Z-0.3437
N13780 G1 Z-0.3687 F22.8
N13785 X4.4967 Y0.6663 Z-0.3726
N13790 X4.4975 Y0.6659 Z-0.3764
N13795 X4.4988 Y0.6651 Z-0.3801
N13800 X4.5006 Y0.664 Z-0.3834
N13805 X4.5028 Y0.6627 Z-0.3864
N13810 X4.5053 Y0.6612 Z-0.3889
N13815 X4.5082 Y0.6595 Z-0.391
N13820 X4.5113 Y0.6577 Z-0.3925
N13825 X4.5146 Y0.6557 Z-0.3934
N13830 X4.518 Y0.6537 Z-0.3937
N13835 G3 X4.5476 Y0.645 I0.0318 J0.0536
N13840 G1 X4.6313
N13845 X4.6431 Y0.6456
N13850 X4.6517 Y0.6467
N13855 X4.6611 Y0.6487
N13860 X4.6717 Y0.6519
N13865 X4.6825 Y0.6561
N13870 X4.695 Y0.6622
N13875 X4.7073 Y0.6694
N13880 X4.7212 Y0.6792
N13885 X4.7347 Y0.6903
N13890 X4.7497 Y0.705
N13895 X4.764 Y0.7214
N13900 X4.7794 Y0.7422
N13905 X4.7942 Y0.7661
N13910 X4.8083 Y0.7934
N13915 X4.822 Y0.826
N13920 X4.8341 Y0.8631
N13925 X4.8432 Y0.901
N13930 X4.8497 Y0.9394
N13935 X4.8538 Y0.9782
N13940 X4.8556 Y1.0172
N13945 X4.8554 Y1.0562
N13950 X4.8532 Y1.0951
N13955 X4.8494 Y1.1339
N13960 X4.8439 Y1.1725
N13965 X4.8368 Y1.2108
N13970 X4.8283 Y1.2489
N13975 X4.8184 Y1.2866
N13980 X4.8072 Y1.324
N13985 X4.7948 Y1.3609
N13990 X4.7811 Y1.3974
N13995 X4.7662 Y1.4334
N14000 X4.7501 Y1.469
N14005 X4.7328 Y1.5039
N14010 X4.7144 Y1.5383
N14015 X4.6949 Y1.5721
N14020 X4.6744 Y1.6052
N14025 X4.6527 Y1.6376
N14030 X4.6301 Y1.6693
N14035 X4.6063 Y1.7003
N14040 X4.5816 Y1.7304
N14045 X4.5558 Y1.7597
N14050 X4.529 Y1.788
N14055 X4.5011 Y1.8152
N14060 X4.4721 Y1.8413
N14065 X4.4421 Y1.8662
N14070 X4.411 Y1.8897
N14075 X4.3789 Y1.9119
N14080 X4.3459 Y1.9326
N14085 X4.3119 Y1.9516
N14090 X4.277 Y1.969
N14095 X4.2412 Y1.9845
N14100 X4.2045 Y1.9978
N14105 X4.1671 Y2.0088
N14110 X4.1291 Y2.0174
N14115 X4.0905 Y2.0232
N14120 X4.0546 Y2.026
N14125 X4.0219 Y2.0258
N14130 X3.9936 Y2.0234
N14135 X3.9708 Y2.0196
N14140 X3.9523 Y2.015
N14145 X3.9361 Y2.0095
N14150 X3.9303 Y2.007
N14155 X3.9204 Y2.0016
N14160 X3.9117 Y1.9943
N14165 X3.9046 Y1.9855
N14170 X3.8993 Y1.9755
N14175 X3.8961 Y1.9647
N14180 X3.895 Y1.9534
N14185 Y1.8655
N14190 G3 X3.9126 Y1.8425 I0.025 J0.0009
N14195 G1 X3.9164 Y1.8414 Z-0.3934
N14200 X3.92 Y1.8402 Z-0.3925
N14205 X3.9235 Y1.8392 Z-0.391
N14210 X3.9267 Y1.8382 Z-0.3889
N14215 X3.9295 Y1.8373 Z-0.3864
N14220 X3.9319 Y1.8366 Z-0.3834
N14225 X3.9339 Y1.836 Z-0.3801
N14230 X3.9353 Y1.8355 Z-0.3764
N14235 X3.9362 Y1.8353 Z-0.3726
N14240 X3.9365 Y1.8352 Z-0.3687
N14245 G0 Z0.2
N14250 G1 X4.5801 Y0.6665 F500.
N14255 G0 Z-0.3437
N14260 G1 Z-0.3687 F22.8
N14265 X4.5804 Y0.6663 Z-0.3726
N14270 X4.5812 Y0.6659 Z-0.3764
N14275 X4.5825 Y0.6651 Z-0.3801
N14280 X4.5843 Y0.664 Z-0.3834
N14285 X4.5864 Y0.6627 Z-0.3864
N14290 X4.589 Y0.6612 Z-0.3889
N14295 X4.5919 Y0.6595 Z-0.391
N14300 X4.595 Y0.6577 Z-0.3925
N14305 X4.5983 Y0.6557 Z-0.3934
N14310 X4.6016 Y0.6537 Z-0.3937
N14315 G3 X4.6313 Y0.645 I0.0318 J0.0536
N14320 G1 X4.7198
N14325 X4.7313 Y0.6456
N14330 X4.7401 Y0.6467
N14335 X4.7495 Y0.6487
N14340 X4.7604 Y0.652
N14345 X4.7713 Y0.6562
N14350 X4.7839 Y0.6624
N14355 X4.7963 Y0.6697
N14360 X4.8105 Y0.6796
N14365 X4.8242 Y0.691
N14370 X4.8396 Y0.706
N14375 X4.8541 Y0.7226
N14380 X4.8699 Y0.744
N14385 X4.8849 Y0.7681
N14390 X4.8995 Y0.7964
N14395 X4.9135 Y0.83
N14400 X4.9256 Y0.8671
N14405 X4.9349 Y0.9049
N14410 X4.9416 Y0.9434
N14415 X4.946 Y0.9821
N14420 X4.9482 Y1.021
N14425 X4.9485 Y1.06
N14430 X4.9469 Y1.099
N14435 X4.9437 Y1.1378
N14440 X4.9389 Y1.1765
N14445 X4.9326 Y1.215
N14450 X4.9249 Y1.2532
N14455 X4.9159 Y1.2912
N14460 X4.9056 Y1.3288
N14465 X4.8941 Y1.366
N14470 X4.8814 Y1.4029
N14475 X4.8675 Y1.4393
N14480 X4.8525 Y1.4753
N14485 X4.8364 Y1.5108
N14490 X4.8192 Y1.5458
N14495 X4.8009 Y1.5803
N14500 X4.7816 Y1.6141
N14505 X4.7613 Y1.6474
N14510 X4.74 Y1.6801
N14515 X4.7177 Y1.7121
N14520 X4.6944 Y1.7433
N14525 X4.6702 Y1.7739
N14530 X4.645 Y1.8036
N14535 X4.6188 Y1.8325
N14540 X4.5917 Y1.8605
N14545 X4.5636 Y1.8875
N14550 X4.5344 Y1.9135
N14555 X4.5044 Y1.9383
N14560 X4.4733 Y1.9619
N14565 X4.4414 Y1.9843
N14570 X4.4086 Y2.0053
N14575 X4.3749 Y2.0249
N14580 X4.3404 Y2.0431
N14585 X4.3051 Y2.0596
N14590 X4.269 Y2.0744
N14595 X4.2321 Y2.0872
N14600 X4.1947 Y2.0979
N14605 X4.1697 Y2.1036
N14610 X4.1655 Y2.1044
N14615 X4.1612 Y2.1048
N14620 X4.1568 Y2.105
N14625 X4.0203
N14630 X4.0106 Y2.1048
N14635 X4.0026 Y2.1044
N14640 X3.9849 Y2.1024
N14645 X3.9761 Y2.1011
N14650 X3.9672 Y2.0981
N14655 X3.9584 Y2.095
N14660 X3.9539 Y2.0931
N14665 X3.9495 Y2.0904
N14670 X3.9407 Y2.0849
N14675 X3.9363 Y2.0821
N14680 X3.9318 Y2.0781
N14685 X3.9229 Y2.0692
N14690 X3.9189 Y2.0649
N14695 X3.9159 Y2.0606
N14700 X3.9076 Y2.0473
N14705 X3.9064 Y2.0451
N14710 X3.9054 Y2.0429
N14715 X3.8993 Y2.0252
N14720 X3.8983 Y2.0208
N14725 X3.8958 Y1.9987
N14730 X3.8951 Y1.9898
N14735 X3.895 Y1.9633
N14740 Y1.9534
N14745 G3 X3.9126 Y1.9304 I0.025 J0.0009
N14750 G1 X3.9164 Y1.9292 Z-0.3934
N14755 X3.92 Y1.9281 Z-0.3925
N14760 X3.9235 Y1.9271 Z-0.391
N14765 X3.9267 Y1.9261 Z-0.3889
N14770 X3.9295 Y1.9252 Z-0.3864
N14775 X3.9319 Y1.9244 Z-0.3834
N14780 X3.9339 Y1.9238 Z-0.3801
N14785 X3.9353 Y1.9234 Z-0.3764
N14790 X3.9362 Y1.9231 Z-0.3726
N14795 X3.9365 Y1.923 Z-0.3687
N14800 G0 Z0.2
N14805 G1 X4.6687 Y0.6665 F500.
N14810 G0 Z-0.3437
N14815 G1 Z-0.3687 F22.8
N14820 X4.669 Y0.6663 Z-0.3726
N14825 X4.6697 Y0.6659 Z-0.3764
N14830 X4.671 Y0.6651 Z-0.3801
N14835 X4.6728 Y0.664 Z-0.3834
N14840 X4.675 Y0.6627 Z-0.3864
N14845 X4.6776 Y0.6612 Z-0.3889
N14850 X4.6804 Y0.6595 Z-0.391
N14855 X4.6835 Y0.6577 Z-0.3925
N14860 X4.6868 Y0.6557 Z-0.3934
N14865 X4.6902 Y0.6537 Z-0.3937
N14870 G3 X4.7198 Y0.645 I0.0318 J0.0536
N14875 G1 X4.8084
N14880 X4.8203 Y0.6456
N14885 X4.8293 Y0.6468
N14890 X4.8387 Y0.6488
N14895 X4.8497 Y0.6521
N14900 X4.8608 Y0.6564
N14905 X4.8734 Y0.6625
N14910 X4.8861 Y0.67
N14915 X4.9003 Y0.6799
N14920 X4.9143 Y0.6916
N14925 X4.9298 Y0.7067
N14930 X4.9447 Y0.7238
N14935 X4.9609 Y0.7457
N14940 X4.976 Y0.77
N14945 X4.991 Y0.7991
N14950 X5.0055 Y0.8337
N14955 X5.0176 Y0.8707
N14960 X5.027 Y0.9086
N14965 X5.0339 Y0.947
N14970 X5.0385 Y0.9857
N14975 X5.0412 Y1.0246
N14980 X5.0419 Y1.0636
N14985 X5.0408 Y1.1025
N14990 X5.0381 Y1.1414
N14995 X5.034 Y1.1802
N15000 X5.0283 Y1.2188
N15005 X5.0214 Y1.2572
N15010 X5.0131 Y1.2953
N15015 X5.0037 Y1.3331
N15020 X4.993 Y1.3706
N15025 X4.9812 Y1.4078
N15030 X4.9683 Y1.4445
N15035 X4.9543 Y1.4809
N15040 X4.9392 Y1.5169
N15045 X4.9231 Y1.5524
N15050 X4.906 Y1.5874
N15055 X4.8878 Y1.6219
N15060 X4.8687 Y1.6559
N15065 X4.8486 Y1.6893
N15070 X4.8276 Y1.7222
N15075 X4.8056 Y1.7544
N15080 X4.7828 Y1.786
N15085 X4.759 Y1.8169
N15090 X4.7343 Y1.8471
N15095 X4.7087 Y1.8765
N15100 X4.6823 Y1.9051
N15105 X4.6549 Y1.9329
N15110 X4.6266 Y1.9597
N15115 X4.5974 Y1.9855
N15120 X4.5673 Y2.0103
N15125 X4.5363 Y2.034
N15130 X4.5045 Y2.0566
N15135 X4.4719 Y2.078
N15140 X4.4409 Y2.0966
N15145 X4.4315 Y2.1012
N15150 X4.4213 Y2.104
N15155 X4.4108 Y2.105
N15160 X4.1568
N15165 G3 X4.1338 Y2.0874 I0.0009 J-0.025
N15170 G1 X4.1327 Y2.0836 Z-0.3934
N15175 X4.1315 Y2.08 Z-0.3925
N15180 X4.1305 Y2.0765 Z-0.391
N15185 X4.1295 Y2.0733 Z-0.3889
N15190 X4.1286 Y2.0705 Z-0.3864
N15195 X4.1279 Y2.0681 Z-0.3834
N15200 X4.1273 Y2.0661 Z-0.3801
N15205 X4.1268 Y2.0647 Z-0.3764
N15210 X4.1265 Y2.0638 Z-0.3726
N15215 Y2.0635 Z-0.3687
N15220 G0 Z0.2
N15225 G1 X4.7572 Y0.6665 F500.
N15230 G0 Z-0.3437
N15235 G1 Z-0.3687 F22.8
N15240 X4.7575 Y0.6663 Z-0.3726
N15245 X4.7583 Y0.6659 Z-0.3764
N15250 X4.7596 Y0.6651 Z-0.3801
N15255 X4.7613 Y0.664 Z-0.3834
N15260 X4.7635 Y0.6627 Z-0.3864
N15265 X4.7661 Y0.6612 Z-0.3889
N15270 X4.769 Y0.6595 Z-0.391
N15275 X4.7721 Y0.6577 Z-0.3925
N15280 X4.7754 Y0.6557 Z-0.3934
N15285 X4.7787 Y0.6537 Z-0.3937
N15290 G3 X4.8084 Y0.645 I0.0318 J0.0536
N15295 G1 X4.9018
N15300 X4.9098 Y0.6454
N15305 X4.9189 Y0.6466
N15310 X4.9284 Y0.6486
N15315 X4.9395 Y0.6519
N15320 X4.9507 Y0.6563
N15325 X4.9634 Y0.6625
N15330 X4.9763 Y0.6701
N15335 X4.9905 Y0.68
N15340 X5.0049 Y0.692
N15345 X5.0205 Y0.7072
N15350 X5.0358 Y0.7247
N15355 X5.0522 Y0.747
N15360 X5.0676 Y0.7716
N15365 X5.083 Y0.8015
N15370 X5.0978 Y0.837
N15375 X5.1099 Y0.8741
N15380 X5.1194 Y0.9119
N15385 X5.1265 Y0.9503
N15390 X5.1314 Y0.9889
N15395 X5.1344 Y1.0278
N15400 X5.1355 Y1.0668
N15405 X5.1349 Y1.1058
N15410 X5.1328 Y1.1447
N15415 X5.1291 Y1.1835
N15420 X5.1241 Y1.2222
N15425 X5.1178 Y1.2607
N15430 X5.1103 Y1.2989
N15435 X5.1016 Y1.3369
N15440 X5.0917 Y1.3747
N15445 X5.0807 Y1.4121
N15450 X5.0687 Y1.4492
N15455 X5.0556 Y1.4859
N15460 X5.0415 Y1.5222
N15465 X5.0263 Y1.5582
N15470 X5.0102 Y1.5937
N15475 X4.9932 Y1.6287
N15480 X4.9751 Y1.6633
N15485 X4.9562 Y1.6974
N15490 X4.9363 Y1.7309
N15495 X4.9155 Y1.7639
N15500 X4.8939 Y1.7964
N15505 X4.8714 Y1.8282
N15510 X4.848 Y1.8594
N15515 X4.8238 Y1.89
N15520 X4.7988 Y1.9199
N15525 X4.7729 Y1.949
N15530 X4.7462 Y1.9774
N15535 X4.7186 Y2.005
N15540 X4.6902 Y2.0317
N15545 X4.6609 Y2.0574
N15550 X4.6308 Y2.0823
N15555 X4.6171 Y2.0929
N15560 X4.6062 Y2.0995
N15565 X4.5941 Y2.1036
N15570 X4.5815 Y2.105
N15575 X4.4108
N15580 G3 X4.3878 Y2.0874 I0.0009 J-0.025
N15585 G1 X4.3867 Y2.0836 Z-0.3934
N15590 X4.3855 Y2.08 Z-0.3925
N15595 X4.3845 Y2.0765 Z-0.391
N15600 X4.3835 Y2.0733 Z-0.3889
N15605 X4.3826 Y2.0705 Z-0.3864
N15610 X4.3819 Y2.0681 Z-0.3834
N15615 X4.3813 Y2.0661 Z-0.3801
N15620 X4.3808 Y2.0647 Z-0.3764
N15625 X4.3805 Y2.0638 Z-0.3726
N15630 Y2.0635 Z-0.3687
N15635 G0 Z0.2
N15640 G1 X4.8507 Y0.6665 F500.
N15645 G0 Z-0.3437
N15650 G1 Z-0.3687 F22.8
N15655 X4.8509 Y0.6663 Z-0.3726
N15660 X4.8517 Y0.6659 Z-0.3764
N15665 X4.853 Y0.6651 Z-0.3801
N15670 X4.8548 Y0.664 Z-0.3834
N15675 X4.8569 Y0.6627 Z-0.3864
N15680 X4.8595 Y0.6612 Z-0.3889
N15685 X4.8624 Y0.6595 Z-0.391
N15690 X4.8655 Y0.6577 Z-0.3925
N15695 X4.8688 Y0.6557 Z-0.3934
N15700 X4.8721 Y0.6537 Z-0.3937
N15705 G3 X4.9018 Y0.645 I0.0318 J0.0536
N15710 G1 X4.9943
N15715 X5.0003 Y0.6453
N15720 X5.0096 Y0.6466
N15725 X5.0192 Y0.6486
N15730 X5.0304 Y0.652
N15735 X5.0418 Y0.6565
N15740 X5.0546 Y0.6628
N15745 X5.0677 Y0.6706
N15750 X5.082 Y0.6808
N15755 X5.0967 Y0.6931
N15760 X5.1124 Y0.7085
N15765 X5.1281 Y0.7266
N15770 X5.1447 Y0.7493
N15775 X5.1604 Y0.7746
N15780 X5.1761 Y0.8054
N15785 X5.191 Y0.8414
N15790 X5.203 Y0.8785
N15795 X5.2125 Y0.9164
N15800 X5.2196 Y0.9547
N15805 X5.2247 Y0.9934
N15810 X5.2279 Y1.0322
N15815 X5.2294 Y1.0712
N15820 X5.2292 Y1.1102
N15825 X5.2274 Y1.1491
N15830 X5.2243 Y1.188
N15835 X5.2198 Y1.2267
N15840 X5.214 Y1.2653
N15845 X5.2071 Y1.3036
N15850 X5.199 Y1.3418
N15855 X5.1898 Y1.3797
N15860 X5.1795 Y1.4173
N15865 X5.1682 Y1.4546
N15870 X5.1559 Y1.4916
N15875 X5.1426 Y1.5283
N15880 X5.1284 Y1.5646
N15885 X5.1132 Y1.6005
N15890 X5.0971 Y1.636
N15895 X5.08 Y1.671
N15900 X5.0621 Y1.7056
N15905 X5.0432 Y1.7398
N15910 X5.0236 Y1.7734
N15915 X5.003 Y1.8066
N15920 X4.9816 Y1.8392
N15925 X4.9595 Y1.8713
N15930 X4.9365 Y1.9027
N15935 X4.9127 Y1.9336
N15940 X4.8881 Y1.9639
N15945 X4.8627 Y1.9935
N15950 X4.8365 Y2.0224
N15955 X4.8095 Y2.0505
N15960 X4.7818 Y2.0779
N15965 X4.7695 Y2.0894
N15970 X4.7608 Y2.096
N15975 X4.7511 Y2.1009
N15980 X4.7406 Y2.104
N15985 X4.7297 Y2.105
N15990 X4.5815
N15995 G3 X4.5584 Y2.0874 I0.0009 J-0.025
N16000 G1 X4.5573 Y2.0836 Z-0.3934
N16005 X4.5562 Y2.08 Z-0.3925
N16010 X4.5551 Y2.0765 Z-0.391
N16015 X4.5541 Y2.0733 Z-0.3889
N16020 X4.5532 Y2.0705 Z-0.3864
N16025 X4.5525 Y2.0681 Z-0.3834
N16030 X4.5519 Y2.0661 Z-0.3801
N16035 X4.5514 Y2.0647 Z-0.3764
N16040 X4.5512 Y2.0638 Z-0.3726
N16045 X4.5511 Y2.0635 Z-0.3687
N16050 G0 Z0.2
N16055 G1 X4.9432 Y0.6665 F500.
N16060 G0 Z-0.3437
N16065 G1 Z-0.3687 F22.8
N16070 X4.9434 Y0.6663 Z-0.3726
N16075 X4.9442 Y0.6659 Z-0.3764
N16080 X4.9455 Y0.6651 Z-0.3801
N16085 X4.9473 Y0.664 Z-0.3834
N16090 X4.9495 Y0.6627 Z-0.3864
N16095 X4.952 Y0.6612 Z-0.3889
N16100 X4.9549 Y0.6595 Z-0.391
N16105 X4.958 Y0.6577 Z-0.3925
N16110 X4.9613 Y0.6557 Z-0.3934
N16115 X4.9647 Y0.6537 Z-0.3937
N16120 G3 X4.9943 Y0.645 I0.0318 J0.0536
N16125 G1 X5.0829
N16130 X5.0908 Y0.6454
N16135 X5.1001 Y0.6466
N16140 X5.1097 Y0.6487
N16145 X5.1207 Y0.652
N16150 X5.1324 Y0.6565
N16155 X5.145 Y0.6626
N16160 X5.1585 Y0.6706
N16165 X5.1725 Y0.6805
N16170 X5.1878 Y0.6931
N16175 X5.2031 Y0.7081
N16180 X5.2193 Y0.7267
N16185 X5.2359 Y0.7491
N16190 X5.2519 Y0.7747
N16195 X5.268 Y0.806
N16200 X5.283 Y0.842
N16205 X5.2953 Y0.879
N16210 X5.305 Y0.9167
N16215 X5.3125 Y0.955
N16220 X5.3179 Y0.9936
N16225 X5.3215 Y1.0324
N16230 X5.3234 Y1.0714
N16235 X5.3237 Y1.1104
N16240 X5.3224 Y1.1494
N16245 X5.3198 Y1.1883
N16250 X5.316 Y1.2271
N16255 X5.3108 Y1.2657
N16260 X5.3046 Y1.3042
N16265 X5.2972 Y1.3425
N16270 X5.2887 Y1.3805
N16275 X5.2792 Y1.4183
N16280 X5.2687 Y1.4559
N16285 X5.2572 Y1.4932
N16290 X5.2448 Y1.5301
N16295 X5.2314 Y1.5667
N16300 X5.2171 Y1.603
N16305 X5.202 Y1.6389
N16310 X5.1859 Y1.6745
N16315 X5.169 Y1.7096
N16320 X5.1512 Y1.7443
N16325 X5.1325 Y1.7785
N16330 X5.1131 Y1.8123
N16335 X5.0928 Y1.8457
N16340 X5.0718 Y1.8785
N16345 X5.05 Y1.9108
N16350 X5.0274 Y1.9426
N16355 X5.004 Y1.9738
N16360 X4.9799 Y2.0044
N16365 X4.9551 Y2.0345
N16370 X4.9295 Y2.0639
N16375 X4.9091 Y2.0861
N16380 X4.9001 Y2.0941
N16385 X4.8896 Y2.1001
N16390 X4.8781 Y2.1038
N16395 X4.8661 Y2.105
N16400 X4.7297
N16405 G3 X4.7067 Y2.0874 I0.0009 J-0.025
N16410 G1 X4.7055 Y2.0836 Z-0.3934
N16415 X4.7044 Y2.08 Z-0.3925
N16420 X4.7033 Y2.0765 Z-0.391
N16425 X4.7024 Y2.0733 Z-0.3889
N16430 X4.7015 Y2.0705 Z-0.3864
N16435 X4.7007 Y2.0681 Z-0.3834
N16440 X4.7001 Y2.0661 Z-0.3801
N16445 X4.6997 Y2.0647 Z-0.3764
N16450 X4.6994 Y2.0638 Z-0.3726
N16455 X4.6993 Y2.0635 Z-0.3687
N16460 G0 Z0.2
N16465 G1 X5.0317 Y0.6665 F500.
N16470 G0 Z-0.3437
N16475 G1 Z-0.3687 F22.8
N16480 X5.032 Y0.6663 Z-0.3726
N16485 X5.0328 Y0.6659 Z-0.3764
N16490 X5.0341 Y0.6651 Z-0.3801
N16495 X5.0358 Y0.664 Z-0.3834
N16500 X5.038 Y0.6627 Z-0.3864
N16505 X5.0406 Y0.6612 Z-0.3889
N16510 X5.0435 Y0.6595 Z-0.391
N16515 X5.0466 Y0.6577 Z-0.3925
N16520 X5.0499 Y0.6557 Z-0.3934
N16525 X5.0532 Y0.6537 Z-0.3937
N16530 G3 X5.0829 Y0.645 I0.0318 J0.0536
N16535 G1 X5.1714
N16540 X5.182 Y0.6455
N16545 X5.1914 Y0.6468
N16550 X5.201 Y0.6488
N16555 X5.2122 Y0.6521
N16560 X5.2238 Y0.6567
N16565 X5.2365 Y0.6629
N16570 X5.2501 Y0.6709
N16575 X5.2643 Y0.6808
N16580 X5.2796 Y0.6936
N16585 X5.2952 Y0.7087
N16590 X5.3115 Y0.7274
N16595 X5.3284 Y0.7503
N16600 X5.3446 Y0.7762
N16605 X5.361 Y0.8081
N16610 X5.376 Y0.844
N16615 X5.3883 Y0.881
N16620 X5.3981 Y0.9188
N16625 X5.4058 Y0.957
N16630 X5.4115 Y0.9956
N16635 X5.4154 Y1.0344
N16640 X5.4176 Y1.0733
N16645 X5.4183 Y1.1123
N16650 X5.4175 Y1.1513
N16655 X5.4153 Y1.1902
N16660 X5.4119 Y1.229
N16665 X5.4073 Y1.2678
N16670 X5.4016 Y1.3063
N16675 X5.3948 Y1.3447
N16680 X5.3869 Y1.3829
N16685 X5.3781 Y1.4209
N16690 X5.3682 Y1.4586
N16695 X5.3575 Y1.4961
N16700 X5.3458 Y1.5333
N16705 X5.3332 Y1.5702
N16710 X5.3197 Y1.6068
N16715 X5.3054 Y1.643
N16720 X5.2902 Y1.6789
N16725 X5.2742 Y1.7145
N16730 X5.2573 Y1.7496
N16735 X5.2396 Y1.7844
N16740 X5.2211 Y1.8187
N16745 X5.2019 Y1.8526
N16750 X5.1819 Y1.8861
N16755 X5.1611 Y1.9191
N16760 X5.1396 Y1.9516
N16765 X5.1173 Y1.9836
N16770 X5.0943 Y2.0151
N16775 X5.0706 Y2.0461
N16780 X5.0462 Y2.0765
N16785 X5.0391 Y2.0847
N16790 X5.03 Y2.0933
N16795 X5.0192 Y2.0997
N16800 X5.0074 Y2.1037
N16805 X4.9949 Y2.105
N16810 X4.8661
N16815 G3 X4.8431 Y2.0874 I0.0009 J-0.025
N16820 G1 X4.8419 Y2.0836 Z-0.3934
N16825 X4.8408 Y2.08 Z-0.3925
N16830 X4.8397 Y2.0765 Z-0.391
N16835 X4.8388 Y2.0733 Z-0.3889
N16840 X4.8379 Y2.0705 Z-0.3864
N16845 X4.8371 Y2.0681 Z-0.3834
N16850 X4.8365 Y2.0661 Z-0.3801
N16855 X4.8361 Y2.0647 Z-0.3764
N16860 X4.8358 Y2.0638 Z-0.3726
N16865 X4.8357 Y2.0635 Z-0.3687
N16870 G0 Z0.2
N16875 G1 X5.1203 Y0.6665 F500.
N16880 G0 Z-0.3437
N16885 G1 Z-0.3687 F22.8
N16890 X5.1205 Y0.6663 Z-0.3726
N16895 X5.1213 Y0.6659 Z-0.3764
N16900 X5.1226 Y0.6651 Z-0.3801
N16905 X5.1244 Y0.664 Z-0.3834
N16910 X5.1266 Y0.6627 Z-0.3864
N16915 X5.1291 Y0.6612 Z-0.3889
N16920 X5.132 Y0.6595 Z-0.391
N16925 X5.1351 Y0.6577 Z-0.3925
N16930 X5.1384 Y0.6557 Z-0.3934
N16935 X5.1418 Y0.6537 Z-0.3937
N16940 G3 X5.1714 Y0.645 I0.0318 J0.0536
N16945 G1 X5.2246
N16950 X5.2334 Y0.6451
N16955 X5.2423 Y0.6452
N16960 X5.2511 Y0.6455
N16965 X5.2737 Y0.6471
N16970 X5.2833 Y0.6482
N16975 X5.2927 Y0.6502
N16980 X5.3036 Y0.6533
N16985 X5.3153 Y0.6578
N16990 X5.3278 Y0.6637
N16995 X5.3414 Y0.6715
N17000 X5.3554 Y0.6812
N17005 X5.3709 Y0.6938
N17010 X5.3861 Y0.7084
N17015 X5.4027 Y0.7271
N17020 X5.4194 Y0.7492
N17025 X5.4358 Y0.7751
N17030 X5.4526 Y0.8068
N17035 X5.4679 Y0.8427
N17040 X5.4805 Y0.8796
N17045 X5.4907 Y0.9172
N17050 X5.4988 Y0.9554
N17055 X5.5049 Y0.9939
N17060 X5.5092 Y1.0326
N17065 X5.5118 Y1.0715
N17070 X5.513 Y1.1105
N17075 X5.5127 Y1.1495
N17080 X5.5111 Y1.1885
N17085 X5.5082 Y1.2273
N17090 X5.5042 Y1.2661
N17095 X5.4991 Y1.3048
N17100 X5.4929 Y1.3433
N17105 X5.4857 Y1.3816
N17110 X5.4776 Y1.4197
N17115 X5.4684 Y1.4576
N17120 X5.4584 Y1.4953
N17125 X5.4475 Y1.5327
N17130 X5.4357 Y1.5699
N17135 X5.4231 Y1.6068
N17140 X5.4096 Y1.6434
N17145 X5.3953 Y1.6796
N17150 X5.3801 Y1.7156
N17155 X5.3642 Y1.7512
N17160 X5.3474 Y1.7864
N17165 X5.3299 Y1.8212
N17170 X5.3116 Y1.8556
N17175 X5.2926 Y1.8897
N17180 X5.2729 Y1.9233
N17185 X5.2524 Y1.9565
N17190 X5.2312 Y1.9892
N17195 X5.2094 Y2.0215
N17200 X5.1868 Y2.0533
N17205 X5.1658 Y2.0815
N17210 X5.1585 Y2.0896
N17215 X5.1499 Y2.0961
N17220 X5.1402 Y2.101
N17225 X5.1298 Y2.104
N17230 X5.119 Y2.105
N17235 X4.9949
N17240 G3 X4.9719 Y2.0874 I0.0009 J-0.025
N17245 G1 X4.9707 Y2.0836 Z-0.3934
N17250 X4.9696 Y2.08 Z-0.3925
N17255 X4.9686 Y2.0765 Z-0.391
N17260 X4.9676 Y2.0733 Z-0.3889
N17265 X4.9667 Y2.0705 Z-0.3864
N17270 X4.9659 Y2.0681 Z-0.3834
N17275 X4.9653 Y2.0661 Z-0.3801
N17280 X4.9649 Y2.0647 Z-0.3764
N17285 X4.9646 Y2.0638 Z-0.3726
N17290 X4.9645 Y2.0635 Z-0.3687
N17295 G0 Z0.2
N17300 G1 X5.2211 Y0.6649 F500.
N17305 G0 Z-0.3437
N17310 G1 Z-0.3687 F22.8
N17315 X5.2214 Y0.6647 Z-0.3726
N17320 X5.2222 Y0.6643 Z-0.3764
N17325 X5.2236 Y0.6636 Z-0.3801
N17330 X5.2254 Y0.6627 Z-0.3834
N17335 X5.2277 Y0.6616 Z-0.3864
N17340 X5.2304 Y0.6602 Z-0.3889
N17345 X5.2333 Y0.6587 Z-0.391
N17350 X5.2366 Y0.6571 Z-0.3925
N17355 X5.24 Y0.6554 Z-0.3934
N17360 X5.2435 Y0.6536 Z-0.3937
N17365 G3 X5.2737 Y0.6471 I0.0279 J0.0557
N17370 G1 X5.3131 Y0.6499
N17375 X5.322 Y0.6506
N17380 X5.3485 Y0.6545
N17385 X5.3574 Y0.6562
N17390 X5.3882 Y0.6629
N17395 X5.4027 Y0.6668
N17400 X5.4132 Y0.6706
N17405 X5.4253 Y0.676
N17410 X5.4372 Y0.6826
N17415 X5.451 Y0.6917
N17420 X5.4647 Y0.7026
N17425 X5.4799 Y0.7166
N17430 X5.4951 Y0.7331
N17435 X5.5116 Y0.7542
N17440 X5.5274 Y0.7781
N17445 X5.5437 Y0.8078
N17450 X5.5597 Y0.8434
N17455 X5.5729 Y0.8801
N17460 X5.5835 Y0.9176
N17465 X5.5919 Y0.9557
N17470 X5.5984 Y0.9941
N17475 X5.6031 Y1.0328
N17480 X5.6061 Y1.0717
N17485 X5.6077 Y1.1107
N17490 X5.6078 Y1.1496
N17495 X5.6067 Y1.1886
N17500 X5.6043 Y1.2275
N17505 X5.6008 Y1.2664
N17510 X5.5962 Y1.3051
N17515 X5.5905 Y1.3437
N17520 X5.5839 Y1.3821
N17525 X5.5763 Y1.4203
N17530 X5.5678 Y1.4584
N17535 X5.5584 Y1.4962
N17540 X5.5482 Y1.5339
N17545 X5.5371 Y1.5712
N17550 X5.5251 Y1.6083
N17555 X5.5124 Y1.6452
N17560 X5.4988 Y1.6818
N17565 X5.4845 Y1.718
N17570 X5.4694 Y1.7539
N17575 X5.4535 Y1.7896
N17580 X5.4368 Y1.8248
N17585 X5.4194 Y1.8597
N17590 X5.4013 Y1.8942
N17595 X5.3825 Y1.9284
N17600 X5.363 Y1.9621
N17605 X5.3428 Y1.9955
N17610 X5.3219 Y2.0284
N17615 X5.3003 Y2.0609
N17620 X5.2864 Y2.0803
N17625 X5.2793 Y2.0886
N17630 X5.2707 Y2.0954
N17635 X5.2611 Y2.1005
N17640 X5.2506 Y2.1037
N17645 X5.2398 Y2.1048
N17650 X5.2334 Y2.1049
N17655 X5.2246 Y2.105
N17660 X5.119
N17665 G3 X5.096 Y2.0874 I0.0009 J-0.025
N17670 G1 X5.0948 Y2.0836 Z-0.3934
N17675 X5.0937 Y2.08 Z-0.3925
N17680 X5.0926 Y2.0765 Z-0.391
N17685 X5.0917 Y2.0733 Z-0.3889
N17690 X5.0908 Y2.0705 Z-0.3864
N17695 X5.09 Y2.0681 Z-0.3834
N17700 X5.0894 Y2.0661 Z-0.3801
N17705 X5.089 Y2.0647 Z-0.3764
N17710 X5.0887 Y2.0638 Z-0.3726
N17715 X5.0886 Y2.0635 Z-0.3687
N17720 G0 Z0.2
N17725 G1 X5.3337 Y0.673 F500.
N17730 G0 Z-0.3437
N17735 G1 Z-0.3687 F22.8
N17740 X5.334 Y0.6729 Z-0.3726
N17745 X5.3348 Y0.6726 Z-0.3764
N17750 X5.3362 Y0.6721 Z-0.3801
N17755 X5.3382 Y0.6715 Z-0.3834
N17760 X5.3406 Y0.6707 Z-0.3864
N17765 X5.3434 Y0.6697 Z-0.3889
N17770 X5.3466 Y0.6687 Z-0.391
N17775 X5.35 Y0.6675 Z-0.3925
N17780 X5.3537 Y0.6663 Z-0.3934
N17785 X5.3574 Y0.6651 Z-0.3937
N17790 G3 X5.3882 Y0.6629 I0.0197 J0.0591
N17795 G1 X5.4105 Y0.6677
N17800 X5.4194 Y0.6704
N17805 X5.4371 Y0.6761
N17810 X5.4728 Y0.6894
N17815 X5.499 Y0.6998
N17820 X5.5079 Y0.7037
N17825 X5.5433 Y0.723
N17830 X5.5558 Y0.7307
N17835 X5.568 Y0.7396
N17840 X5.58 Y0.7499
N17845 X5.5938 Y0.7638
N17850 X5.607 Y0.7796
N17855 X5.6216 Y0.8001
N17860 X5.6361 Y0.8243
N17865 X5.6507 Y0.8539
N17870 X5.6651 Y0.8901
N17875 X5.6766 Y0.9274
N17880 X5.6855 Y0.9653
N17885 X5.6924 Y1.0037
N17890 X5.6973 Y1.0424
N17895 X5.7006 Y1.0812
N17900 X5.7023 Y1.1202
N17905 X5.7027 Y1.1592
N17910 X5.7018 Y1.1981
N17915 X5.6996 Y1.2371
N17920 X5.6964 Y1.2759
N17925 X5.692 Y1.3147
N17930 X5.6867 Y1.3533
N17935 X5.6804 Y1.3918
N17940 X5.6731 Y1.4301
N17945 X5.665 Y1.4682
N17950 X5.656 Y1.5061
N17955 X5.6461 Y1.5439
N17960 X5.6354 Y1.5814
N17965 X5.6239 Y1.6186
N17970 X5.6117 Y1.6556
N17975 X5.5986 Y1.6924
N17980 X5.5848 Y1.7289
N17985 X5.5703 Y1.765
N17990 X5.555 Y1.8009
N17995 X5.539 Y1.8364
N18000 X5.5223 Y1.8717
N18005 X5.5048 Y1.9065
N18010 X5.4867 Y1.9411
N18015 X5.4679 Y1.9752
N18020 X5.4484 Y2.009
N18025 X5.4283 Y2.0424
N18030 X5.4147 Y2.0637
N18035 X5.4076 Y2.0728
N18040 X5.3988 Y2.0802
N18045 X5.3888 Y2.0858
N18050 X5.3779 Y2.0894
N18055 X5.3574 Y2.0938
N18060 X5.3485 Y2.0955
N18065 X5.322 Y2.0994
N18070 X5.3131 Y2.1001
N18075 X5.2511 Y2.1045
N18080 X5.2413 Y2.1048
N18085 X5.2398
N18090 G3 X5.2165 Y2.0876 I0.0005 J-0.025
N18095 G1 X5.2153 Y2.0838 Z-0.3934
N18100 X5.2141 Y2.0802 Z-0.3925
N18105 X5.213 Y2.0768 Z-0.391
N18110 X5.212 Y2.0736 Z-0.3889
N18115 X5.211 Y2.0708 Z-0.3864
N18120 X5.2103 Y2.0683 Z-0.3834
N18125 X5.2096 Y2.0664 Z-0.3801
N18130 X5.2092 Y2.065 Z-0.3764
N18135 X5.2089 Y2.0641 Z-0.3726
N18140 X5.2088 Y2.0638 Z-0.3687
N18145 G0 Z0.2
N18150 G1 X5.4881 Y0.7174 F500.
N18155 G0 Z-0.3437
N18160 G1 Z-0.3687 F22.8
N18165 X5.4884 Z-0.3726
N18170 X5.4893 Y0.7173 Z-0.3764
N18175 X5.4908 Z-0.3801
N18180 X5.4929 Y0.7172 Z-0.3834
N18185 X5.4954 Y0.7171 Z-0.3864
N18190 X5.4984 Y0.717 Z-0.3889
N18195 X5.5018 Y0.7169 Z-0.391
N18200 X5.5054 Y0.7167 Z-0.3925
N18205 X5.5092 Y0.7166 Z-0.3934
N18210 X5.5131 Y0.7164 Z-0.3937
N18215 G3 X5.5433 Y0.723 I0.0023 J0.0623
N18220 G1 X5.5628 Y0.7336
N18225 X5.5699 Y0.7377
N18230 X5.5964 Y0.7561
N18235 X5.602 Y0.7602
N18240 X5.6257 Y0.7779
N18245 X5.6319 Y0.7827
N18250 X5.6496 Y0.797
N18255 X5.6573 Y0.8044
N18260 X5.685 Y0.8321
N18265 X5.6925 Y0.8398
N18270 X5.7027 Y0.8507
N18275 X5.7091 Y0.8575
N18280 X5.7116 Y0.8602
N18285 X5.7334 Y0.8925
N18290 X5.7445 Y0.9118
N18295 X5.756 Y0.9362
N18300 X5.7675 Y0.9666
N18305 X5.7784 Y1.0041
N18310 X5.7862 Y1.0423
N18315 X5.7915 Y1.0809
N18320 X5.7948 Y1.1198
N18325 X5.7963 Y1.1587
N18330 Y1.1977
N18335 X5.795 Y1.2367
N18340 X5.7924 Y1.2756
N18345 X5.7887 Y1.3144
N18350 X5.784 Y1.3531
N18355 X5.7783 Y1.3917
N18360 X5.7716 Y1.4301
N18365 X5.764 Y1.4684
N18370 X5.7556 Y1.5064
N18375 X5.7463 Y1.5443
N18380 X5.7363 Y1.582
N18385 X5.7254 Y1.6194
N18390 X5.7138 Y1.6566
N18395 X5.7015 Y1.6936
N18400 X5.6884 Y1.7303
N18405 X5.6745 Y1.7668
N18410 X5.66 Y1.803
N18415 X5.6447 Y1.8389
N18420 X5.6288 Y1.8744
N18425 X5.6121 Y1.9097
N18430 X5.5948 Y1.9446
N18435 X5.5768 Y1.9792
N18440 X5.5623 Y2.006
N18445 X5.556 Y2.0152
N18450 X5.5482 Y2.0231
N18455 X5.539 Y2.0293
N18460 X5.5079 Y2.0463
N18465 X5.499 Y2.0502
N18470 X5.4728 Y2.0606
N18475 X5.4371 Y2.0739
N18480 X5.4194 Y2.0796
N18485 X5.4105 Y2.0823
N18490 X5.3779 Y2.0894
N18495 G3 X5.3517 Y2.077 I-0.0045 J-0.0246
N18500 G1 X5.3497 Y2.0736 Z-0.3934
N18505 X5.3479 Y2.0703 Z-0.3925
N18510 X5.3461 Y2.0672 Z-0.391
N18515 X5.3444 Y2.0642 Z-0.3889
N18520 X5.343 Y2.0616 Z-0.3864
N18525 X5.3417 Y2.0594 Z-0.3834
N18530 X5.3407 Y2.0576 Z-0.3801
N18535 X5.34 Y2.0563 Z-0.3764
N18540 X5.3395 Y2.0555 Z-0.3726
N18545 X5.3394 Y2.0553 Z-0.3687
N18550 G0 Z0.2
N18555 G1 X5.6706 Y0.8413 F500.
N18560 G0 Z-0.3437
N18565 G1 Z-0.3687 F22.8
N18570 X5.6709 Y0.8414 Z-0.3726
N18575 X5.6717 Y0.8418 Z-0.3764
N18580 X5.6731 Y0.8424 Z-0.3801
N18585 X5.675 Y0.8431 Z-0.3834
N18590 X5.6773 Y0.8441 Z-0.3864
N18595 X5.6801 Y0.8453 Z-0.3889
N18600 X5.6832 Y0.8465 Z-0.391
N18605 X5.6865 Y0.8479 Z-0.3925
N18610 X5.6901 Y0.8494 Z-0.3934
N18615 X5.6937 Y0.8509 Z-0.3937
N18620 G3 X5.7184 Y0.8694 I-0.0238 J0.0576
N18625 G1 X5.7559 Y0.9194
N18630 X5.7611 Y0.9283
N18635 X5.7735 Y0.9504
N18640 X5.7904 Y0.9813
N18645 X5.7912 Y0.983
N18650 X5.8029 Y1.0079
N18655 X5.8066 Y1.0167
N18660 X5.8267 Y1.0704
N18665 X5.8292 Y1.0786
N18670 X5.8357 Y1.1052
N18675 X5.8444 Y1.1452
N18680 X5.847 Y1.1583
N18685 X5.8487 Y1.1671
N18690 X5.8532 Y1.2306
N18695 X5.8549 Y1.2556
N18700 X5.855 Y1.2644
N18705 Y1.406
N18710 X5.8531 Y1.4449
N18715 X5.8502 Y1.4838
N18720 X5.845 Y1.5224
N18725 X5.8379 Y1.5608
N18730 X5.8295 Y1.5988
N18735 X5.8198 Y1.6366
N18740 X5.809 Y1.6741
N18745 X5.7974 Y1.7113
N18750 X5.7848 Y1.7482
N18755 X5.7715 Y1.7849
N18760 X5.7575 Y1.8212
N18765 X5.7537 Y1.8303
N18770 X5.7517 Y1.8348
N18775 X5.7492 Y1.8391
N18780 X5.7464 Y1.8432
N18785 X5.7116 Y1.8898
N18790 X5.7091 Y1.8925
N18795 X5.6925 Y1.9102
N18800 X5.6838 Y1.919
N18805 X5.6573 Y1.9456
N18810 X5.6496 Y1.953
N18815 X5.6319 Y1.9673
N18820 X5.6257 Y1.9721
N18825 X5.602 Y1.9898
N18830 X5.5964 Y1.9939
N18835 X5.5699 Y2.0123
N18840 X5.5628 Y2.0164
N18845 X5.539 Y2.0293
N18850 G3 X5.5054 Y1.9958 I-0.0112 J-0.0223
N18855 G1 X5.8077 Y1.3956
N18860 G3 X5.855 Y1.406 I0.0223 J0.0112
N18865 G1 Y1.4856
N18870 X5.8549 Y1.4944
N18875 X5.8525 Y1.5298
N18880 X5.8487 Y1.5829
N18885 X5.847 Y1.5917
N18890 X5.8444 Y1.6048
N18895 X5.8357 Y1.6448
N18900 X5.8292 Y1.6714
N18905 X5.8267 Y1.6796
N18910 X5.8066 Y1.7333
N18915 X5.8029 Y1.7421
N18920 X5.7912 Y1.767
N18925 X5.7904 Y1.7687
N18930 X5.7735 Y1.7996
N18935 X5.7611 Y1.8217
N18940 X5.7558 Y1.8307
N18945 X5.7464 Y1.8432
N18950 G3 X5.7185 Y1.8511 I-0.0195 J-0.0157
N18955 G1 X5.7149 Y1.8497 Z-0.3934
N18960 X5.7113 Y1.8485 Z-0.3925
N18965 X5.7079 Y1.8472 Z-0.391
N18970 X5.7047 Y1.8461 Z-0.3889
N18975 X5.7019 Y1.8451 Z-0.3864
N18980 X5.6995 Y1.8442 Z-0.3834
N18985 X5.6976 Y1.8435 Z-0.3801
N18990 X5.6962 Y1.843 Z-0.3764
N18995 X5.6953 Y1.8427 Z-0.3726
N19000 X5.695 Y1.8426 Z-0.3687
N19005 G0 Z0.2
N19010 G1 X5.5005 Y2.6412 F500.
N19015 G0 Z-0.3437
N19020 G1 Z-0.3687 F22.8
N19025 X5.5007 Y2.641 Z-0.3726
N19030 X5.5014 Y2.6403 Z-0.3764
N19035 X5.5024 Y2.6392 Z-0.3801
N19040 X5.5038 Y2.6377 Z-0.3834
N19045 X5.5055 Y2.6358 Z-0.3864
N19050 X5.5075 Y2.6336 Z-0.3889
N19055 X5.5098 Y2.6312 Z-0.391
N19060 X5.5122 Y2.6285 Z-0.3925
N19065 X5.5148 Y2.6257 Z-0.3934
N19070 X5.5174 Y2.6228 Z-0.3937
N19075 G3 X5.5433 Y2.6059 I0.0459 J0.0421
N19080 G1 X5.5522 Y2.6032
N19085 X5.6319 Y2.5784
N19090 X5.6407 Y2.5754
N19095 X5.6584 Y2.5693
N19100 X5.6673 Y2.5658
N19105 X5.7558 Y2.526
N19110 X5.7647 Y2.5219
N19115 X5.7934 Y2.5106
N19120 X5.8237 Y2.5013
N19125 X5.8618 Y2.4929
N19130 X5.9004 Y2.4873
N19135 X5.9392 Y2.4834
N19140 X5.9781 Y2.4808
N19145 X6.017 Y2.479
N19150 X6.056 Y2.4771
N19155 X6.0924 Y2.4633
N19160 X6.1234 Y2.4396
N19165 X6.1483 Y2.4096
N19170 X6.1678 Y2.3758
N19175 X6.1826 Y2.3397
N19180 X6.1938 Y2.3024
N19185 X6.2021 Y2.2643
N19190 X6.2083 Y2.2258
N19195 X6.2128 Y2.1871
N19200 X6.2161 Y2.1482
N19205 X6.2178 Y2.1216
N19210 X6.2191 Y2.1124
N19215 X6.2219 Y2.1035
N19220 X6.2261 Y2.0951
N19225 X6.2605 Y2.0381
N19230 X6.2694 Y2.0204
N19235 X6.311 Y1.9279
N19240 X6.3137 Y1.9219
N19245 X6.3225 Y1.8995
N19250 X6.3251 Y1.8925
N19255 X6.3272 Y1.8856
N19260 G3 X6.3509 Y1.8688 I0.0236 J0.0083
N19265 G1 X6.3548 Z-0.3934
N19270 X6.3586 Y1.8689 Z-0.3925
N19275 X6.3623 Z-0.391
N19280 X6.3656 Z-0.3889
N19285 X6.3686 Z-0.3864
N19290 X6.3711 Z-0.3834
N19295 X6.3732 Z-0.3801
N19300 X6.3747 Z-0.3764
N19305 X6.3756 Z-0.3726
N19310 X6.3759 Z-0.3687
N19315 G0 Z0.2
N19320 G1 X5.727 Y2.5627 F500.
N19325 G0 Z-0.3437
N19330 G1 Z-0.3687 F22.8
N19335 X5.7272 Y2.5624 Z-0.3726
N19340 X5.7277 Y2.5617 Z-0.3764
N19345 X5.7286 Y2.5604 Z-0.3801
N19350 X5.7297 Y2.5588 Z-0.3834
N19355 X5.7312 Y2.5567 Z-0.3864
N19360 X5.7329 Y2.5542 Z-0.3889
N19365 X5.7348 Y2.5515 Z-0.391
N19370 X5.7369 Y2.5485 Z-0.3925
N19375 X5.739 Y2.5454 Z-0.3934
N19380 X5.7413 Y2.5421 Z-0.3937
N19385 G3 X5.7647 Y2.5219 I0.0512 J0.0356
N19390 G1 X5.7735 Y2.5179
N19395 X5.7824 Y2.5134
N19400 X5.8005 Y2.5029
N19405 X5.809 Y2.4979
N19410 X5.8886 Y2.4497
N19415 X5.8975 Y2.4442
N19420 X5.9023 Y2.441
N19425 X5.9094 Y2.4362
N19430 X5.9253 Y2.4273
N19435 X5.9607 Y2.411
N19440 X5.994 Y2.3907
N19445 X6.0227 Y2.3643
N19450 X6.0463 Y2.3332
N19455 X6.0581 Y2.3118
N19460 X6.061 Y2.3072
N19465 X6.0643 Y2.3028
N19470 X6.0679 Y2.2987
N19475 G3 X6.1013 Y2.336 I0.017 J0.0183
N19480 G1 X5.9346 Y2.4792
N19485 G3 X5.9023 Y2.441 I-0.0163 J-0.019
N19490 G1 X5.9252 Y2.4233
N19495 X5.9816 Y2.3791
N19500 X6.0038 Y2.3614
N19505 X6.0126 Y2.3539
N19510 X6.023 Y2.3437
N19515 X6.0938 Y2.2729
N19520 X6.1012 Y2.2653
N19525 X6.1104 Y2.2552
N19530 X6.1189 Y2.2446
N19535 X6.1808 Y2.1655
N19540 X6.1897 Y2.1541
N19545 X6.1929 Y2.149
N19550 X6.2074 Y2.126
N19555 X6.2261 Y2.0951
N19560 G3 X6.2531 Y2.0845 I0.0209 J0.0137
N19565 G1 X6.2569 Y2.0855 Z-0.3934
N19570 X6.2606 Y2.0864 Z-0.3925
N19575 X6.2641 Y2.0873 Z-0.391
N19580 X6.2673 Y2.0881 Z-0.3889
N19585 X6.2702 Y2.0888 Z-0.3864
N19590 X6.2727 Y2.0894 Z-0.3834
N19595 X6.2747 Y2.0899 Z-0.3801
N19600 X6.2761 Y2.0903 Z-0.3764
N19605 X6.277 Y2.0905 Z-0.3726
N19610 X6.2773 Y2.0906 Z-0.3687
N19615 G0 Z0.2
N19620 G1 X6.3936 Y1.0055 F500.
N19625 G0 Z-0.3437
N19630 G1 Z-0.3687 F22.8
N19635 X6.3934 Y1.0053 Z-0.3726
N19640 X6.3927 Y1.0046 Z-0.3764
N19645 X6.3916 Y1.0036 Z-0.3801
N19650 X6.3901 Y1.0023 Z-0.3834
N19655 X6.3882 Y1.0006 Z-0.3864
N19660 X6.386 Y0.9986 Z-0.3889
N19665 X6.3835 Y0.9963 Z-0.391
N19670 X6.3808 Y0.9939 Z-0.3925
N19675 X6.3779 Y0.9913 Z-0.3934
N19680 X6.375 Y0.9887 Z-0.3937
N19685 G3 X6.3579 Y0.963 I0.0417 J-0.0463
N19690 G1 X6.3251 Y0.8575
N19695 X6.3225 Y0.8505
N19700 X6.3137 Y0.8281
N19705 X6.311 Y0.8221
N19710 X6.2712 Y0.7336
N19715 X6.2605 Y0.7065
N19720 X6.2512 Y0.6761
N19725 X6.2429 Y0.638
N19730 X6.2373 Y0.5994
N19735 X6.2334 Y0.5606
N19740 X6.2308 Y0.5217
N19745 X6.229 Y0.4827
N19750 X6.2273 Y0.4438
N19755 X6.2135 Y0.4073
N19760 X6.1899 Y0.3763
N19765 X6.1598 Y0.3514
N19770 X6.126 Y0.3321
N19775 X6.0899 Y0.3173
N19780 X6.0525 Y0.3062
N19785 X6.0144 Y0.2979
N19790 X5.9759 Y0.2917
N19795 X5.9372 Y0.2872
N19800 X5.8984 Y0.2839
N19805 X5.8716 Y0.2822
N19810 X5.8624 Y0.2809
N19815 X5.8534 Y0.2781
N19820 X5.8451 Y0.2739
N19825 X5.809 Y0.2521
N19830 X5.8001 Y0.2469
N19835 X5.7824 Y0.2366
N19840 X5.7735 Y0.2321
N19845 X5.7481 Y0.2206
N19850 X5.6673 Y0.1842
N19855 X5.6584 Y0.1807
N19860 X5.6407 Y0.1746
N19865 X5.6342 Y0.1724
N19870 G0 Z0.2
N19875 G1 X6.312 Y0.7713 F500.
N19880 G0 Z-0.3437
N19885 G1 Z-0.3687 F22.8
N19890 X6.3117 Y0.7712 Z-0.3726
N19895 X6.311 Y0.7706 Z-0.3764
N19900 X6.3097 Y0.7698 Z-0.3801
N19905 X6.308 Y0.7686 Z-0.3834
N19910 X6.3059 Y0.7672 Z-0.3864
N19915 X6.3035 Y0.7655 Z-0.3889
N19920 X6.3008 Y0.7635 Z-0.391
N19925 X6.2978 Y0.7615 Z-0.3925
N19930 X6.2946 Y0.7593 Z-0.3934
N19935 X6.2914 Y0.7571 Z-0.3937
N19940 G3 X6.2712 Y0.7336 I0.0356 J-0.0511
N19945 G1 X6.2694 Y0.7296
N19950 X6.2605 Y0.7119
N19955 X6.2251 Y0.6533
N19960 X6.2074 Y0.624
N19965 X6.1929 Y0.601
N19970 X6.1897 Y0.5959
N19975 X6.184 Y0.5871
N19980 X6.1656 Y0.5527
N19985 X6.1481 Y0.5179
N19990 X6.124 Y0.4872
N19995 X6.0945 Y0.4617
N20000 X6.0614 Y0.4412
N20005 X6.0565 Y0.4383
N20010 X6.052 Y0.4349
N20015 X6.0478 Y0.4311
N20020 G3 X6.085 Y0.3977 I0.0183 J-0.0171
N20025 G1 X6.2279 Y0.5637
N20030 G3 X6.1897 Y0.5959 I-0.0189 J0.0163
N20035 G1 X6.1799 Y0.5833
N20040 X6.1175 Y0.5036
N20045 X6.1104 Y0.4948
N20050 X6.1012 Y0.4847
N20055 X6.0938 Y0.4771
N20060 X6.023 Y0.4063
N20065 X6.0126 Y0.3961
N20070 X6.0038 Y0.3886
N20075 X5.9816 Y0.3709
N20080 X5.9241 Y0.3259
N20085 X5.9023 Y0.309
N20090 X5.8975 Y0.3058
N20095 X5.8885 Y0.3002
N20100 X5.8451 Y0.2739
N20105 X5.8427 Y0.2721
N20110 X5.8405 Y0.2701
N20115 X5.8389 Y0.2676 Z-0.3935
N20120 X5.8373 Y0.2651 Z-0.393
N20125 X5.8357 Y0.2628 Z-0.3921
N20130 X5.835 Y0.2596 Z-0.3906
N20135 X5.8344 Y0.2568 Z-0.3887
N20140 X5.8338 Y0.2542 Z-0.3864
N20145 X5.8337 Y0.253 Z-0.3851
N20150 X5.834 Y0.2509 Z-0.3822
N20155 X5.8342 Y0.2492 Z-0.3791
N20160 X5.8344 Y0.2479 Z-0.3758
N20165 X5.8345 Y0.2472 Z-0.3723
N20170 Y0.2469 Z-0.3687
N20175 G0 Z0.2
N20180 G1 X-0.0196 Y-0.2647 F500.
N20185 G0 Z-0.6463
N20190 G1 Z-0.6713 F22.8
N20195 Z-0.75
N20200 G3 X0. Y-0.1286 I-0.6183 J0.1584
N20205 G1 Y-0.1226
N20210 X-0.0078 Y-0.0844
N20215 X-0.0132 Y-0.0458
N20220 X-0.0169 Y-0.007
N20225 X-0.0195 Y0.0319
N20230 X-0.0212 Y0.0709
N20235 X-0.0224 Y0.1098
N20240 X-0.0232 Y0.1488
N20245 X-0.0238 Y0.1878
N20250 X-0.0242 Y0.2268
N20255 X-0.0244 Y0.2658
N20260 X-0.0246 Y0.3048
N20265 X-0.0248 Y0.3828
N20270 X-0.0249 Y0.4997
N20275 X-0.025 Y0.8117
N20280 Y1.8644
N20285 Y2.6345
N20290 X-0.0218 Y2.6537
N20295 X-0.0126 Y2.6709
N20300 X0.0121 Y2.7011
N20305 X0.0442 Y2.7232
N20310 X0.0798 Y2.739
N20315 X0.1172 Y2.7501
N20320 X0.1554 Y2.7579
N20325 X0.194 Y2.7633
N20330 X0.2328 Y2.767
N20335 X0.2717 Y2.7695
N20340 X0.3107 Y2.7712
N20345 X0.3497 Y2.7724
N20350 X0.3887 Y2.7733
N20355 X0.4276 Y2.7738
N20360 X0.4666 Y2.7742
N20365 X0.5056 Y2.7744
N20370 X0.5446 Y2.7746
N20375 X0.6226 Y2.7748
N20380 X0.7396 Y2.7749
N20385 X1.0515 Y2.775
N20390 X1.1295
N20395 X3.118
N20400 X5.1065
N20405 X6.3932
N20410 X6.4116 Y2.7684
N20415 X6.4441 Y2.7469
N20420 X6.4682 Y2.7162
N20425 X6.4854 Y2.6813
