%
O01001 (Course 2 challange)
(Using high feed G1 F500. instead of G0.)
(Machine)
(  vendor: HAAS)
(  model: VM-3 TR2105BX)
(T1 D=0.3125 CR=0. TAPER=118deg - ZMIN=-1.5939 - drill)
(T2 D=0.5 CR=0. - ZMIN=-1.55 - flat end mill)
(T3 D=0.25 CR=0. - ZMIN=-1.06 - flat end mill)
(T4 D=0.25 CR=0.125 - ZMIN=-1.1187 - ball end mill)
N10 G90 G94 G17
N15 G20
N20 G53 G0 Z0.

(Faceing)
N25 T2 M6
N30 S1140 M3
N35 G54
N40 M11
N45 M13
N50 G0 A0. B0.
N55 M10
N60 M12
N65 M8
N70 G0 X4.075 Y-2.5364
N75 G43 Z0.5 H2
N80 T1
N85 G0 Z0.2
N90 G1 Z-0.07 F22.8
N95 G18 G3 X4.025 Z-0.12 I-0.05 K0.
N100 G1 X3.75
N105 X0.
N110 G17 G2 Y-2.0776 I0. J0.2294
N115 G1 X3.75
N120 G3 Y-1.6187 I0. J0.2294
N125 G1 X0.
N130 G2 Y-1.1599 I0. J0.2294
N135 G1 X3.75
N140 G3 Y-0.7011 I0. J0.2294
N145 G1 X0.
N150 G2 Y-0.2423 I0. J0.2294
N155 G1 X3.75
N160 G18 G2 X3.8 Z-0.07 I0. K0.05
N165 G0 Z0.2
N170 G1 X4.075 Y-2.5364 F500.
N175 Z-0.22 F22.8
N180 G3 X4.025 Z-0.27 I-0.05 K0.
N185 G1 X3.75
N190 X0.
N195 G17 G2 Y-2.0776 I0. J0.2294
N200 G1 X3.75
N205 G3 Y-1.6187 I0. J0.2294
N210 G1 X0.
N215 G2 Y-1.1599 I0. J0.2294
N220 G1 X3.75
N225 G3 Y-0.7011 I0. J0.2294
N230 G1 X0.
N235 G2 Y-0.2423 I0. J0.2294
N240 G1 X3.75
N245 G18 G2 X3.8 Z-0.22 I0. K0.05
N250 G0 Z0.2
N255 G1 X4.075 Y-2.5364 F500.
N260 Z-0.25 F22.8
N265 G3 X4.025 Z-0.3 I-0.05 K0.
N270 G1 X3.75
N275 X0.
N280 G17 G2 Y-2.0776 I0. J0.2294
N285 G1 X3.75
N290 G3 Y-1.6187 I0. J0.2294
N295 G1 X0.
N300 G2 Y-1.1599 I0. J0.2294
N305 G1 X3.75
N310 G3 Y-0.7011 I0. J0.2294
N315 G1 X0.
N320 G2 Y-0.2423 I0. J0.2294
N325 G1 X3.75
N330 G18 G2 X3.8 Z-0.25 I0. K0.05
N335 G0 Z0.5

(Adaptive Cleaning)
N340 G1 X-0.0775 Y-3.2661 F500.
N345 G0 Z0.3
N350 Z-0.4013
N355 G1 Z-0.53 F22.8
N360 G17 G3 X0. Y-3.0022 I-0.4763 J0.2832
N365 G1 Y-2.9962
N370 G2 X-0.0309 Y-2.7855 I1.4964 J0.3267
N375 X-0.0463 Y-2.4129 I5.1431 J0.3997
N380 G1 X-0.0479 Y-2.2743
N385 X-0.049 Y-2.1358
N390 X-0.0498 Y-1.9972
N395 X-0.05 Y-1.8586
N400 X-0.0499 Y-1.7201
N405 X-0.05 Y-1.4003
N410 Y-1.0273
N415 Y-0.2279
N420 X-0.0441 Y-0.2019
N425 X-0.022 Y-0.1535
N430 X0.0127 Y-0.113
N435 X0.0545 Y-0.0799
N440 X0.1005 Y-0.0531
N445 X0.1493 Y-0.0316
N450 X0.1997 Y-0.0144
N455 X0.2513 Y-0.0008
N460 G2 X0.4619 Y0.0306 I0.3267 J-1.4729
N465 X0.8346 Y0.0462 I0.3997 J-5.0635
N470 G1 X0.8878 Y0.0473
N475 X0.9411 Y0.0479
N480 X0.9902 Y0.0483
N485 G3 X1.0503 Y0.0657 I-0.001 J0.1158
N490 G2 X1.1252 Y0.1029 I0.2309 J-0.3715
N495 G1 X1.1552 Y0.1147
N500 G2 X1.2452 Y0.1368 I0.1232 J-0.3065
N505 X1.3502 Y0.145 I0.0989 J-0.594
N510 G1 X2.3998
N515 G2 X2.5497 Y0.1292 I-0.0014 J-0.7347
N520 G1 X2.5798 Y0.1202
N525 X2.5948 Y0.1147
N530 X2.6141 Y0.1081
N535 X2.6658 Y0.0952
N540 G3 X2.8769 Y0.0668 I0.3131 J1.5289
N545 X3.2496 Y0.0532 I0.395 J5.7295
N550 X3.5161 Y0.0509 I0.291 J18.3188
N555 G1 X3.5292 Y0.0488
N560 X3.5549 Y0.0416
N565 X3.6023 Y0.0172
N570 X3.6417 Y-0.0186
N575 X3.674 Y-0.061
N580 X3.7 Y-0.1075
N585 X3.7209 Y-0.1566
N590 X3.7376 Y-0.2072
N595 X3.7508 Y-0.2588
N600 G2 X3.7812 Y-0.4696 I-1.5213 J-0.3268
N605 X3.7964 Y-0.8423 I-5.2275 J-0.3997
N610 G1 X3.7973 Y-0.8956
N615 X3.7986 Y-1.0554
N620 X3.7995 Y-1.2153
N625 X3.7999 Y-1.3752
N630 Y-1.5351
N635 X3.8 Y-1.8548
N640 Y-2.5209
N645 X3.7944 Y-2.547
N650 X3.7726 Y-2.5956
N655 X3.7381 Y-2.6362
N660 X3.6965 Y-2.6695
N665 X3.6505 Y-2.6964
N670 X3.6017 Y-2.718
N675 X3.5513 Y-2.7353
N680 X3.4998 Y-2.749
N685 G2 X3.2892 Y-2.7805 I-0.3267 J1.4655
N690 X2.9166 Y-2.7962 I-0.3997 J5.0385
N695 G1 X2.8633 Y-2.7972
N700 X2.81 Y-2.7978
N705 X2.7598 Y-2.7983
N710 G3 X2.6997 Y-2.8157 I0.001 J-0.1158
N715 G2 X2.6248 Y-2.8529 I-0.2309 J0.3714
N720 G1 X2.5948 Y-2.8647
N725 G2 X2.5048 Y-2.8868 I-0.1232 J0.3066
N730 X2.3998 Y-2.895 I-0.0989 J0.5939
N735 G1 X1.3502
N740 G2 X1.2003 Y-2.8792 I0.0014 J0.7347
N745 G1 X1.1702 Y-2.8702
N750 X1.1552 Y-2.8647
N755 X1.1359 Y-2.8581
N760 X1.0842 Y-2.8452
N765 G3 X0.8731 Y-2.8168 I-0.3131 J-1.5291
N770 X0.5004 Y-2.8032 I-0.395 J-5.7302
N775 G1 X0.4471 Y-2.8023
N780 X0.4208 Y-2.7978
N785 X0.3712 Y-2.7783
N790 X0.329 Y-2.7457
N795 X0.2941 Y-2.7055
N800 X0.2654 Y-2.6606
N805 X0.2422 Y-2.6126
N810 X0.2234 Y-2.5627
N815 X0.2084 Y-2.5116
N820 G2 X0.1731 Y-2.3016 I1.3479 J0.3343
N825 X0.1547 Y-1.9291 I4.4585 J0.4072
N830 X0.1511 Y-1.6094 I16.0727 J0.3386
N835 G1 X0.1504 Y-1.3962
N840 X0.1502 Y-1.1831
N845 X0.15 Y-0.9166
N850 Y-0.4903
N855 X0.1612 Y-0.4382
N860 X0.1854 Y-0.3907
N865 X0.2188 Y-0.3491
N870 X0.2585 Y-0.3137
N875 X0.3027 Y-0.2838
N880 X0.3498 Y-0.259
N885 X0.399 Y-0.2385
N890 X0.4496 Y-0.2216
N895 G2 X0.6585 Y-0.1803 I0.354 J-1.2403
N900 G1 X0.6931 Y-0.1763
N905 G3 X0.7611 Y-0.1443 I-0.013 J0.1159
N910 G1 X0.7733 Y-0.1326
N915 X0.7804 Y-0.126
N920 G2 X0.9302 Y-0.0089 I2.7014 J-3.3017
N925 G1 X0.9453 Y0.0005
N930 X1.0503 Y0.0657
N935 X1.051 Y0.0664
N940 G2 X1.239 Y0.2501 I0.7919 J-0.6222
N945 X1.2674 Y0.2601 I0.03 J-0.04
N950 G1 X2.3654 Y0.295
N955 G2 X2.3944 Y0.2869 I0.0016 J-0.05
N960 X2.5937 Y0.1155 I-0.5515 J-0.8427
N965 G1 X2.5948 Y0.1147
N970 X2.6247 Y0.1028
N975 G2 X2.6997 Y0.0657 I-0.1549 J-0.4067
N980 G1 X2.8047 Y0.0005
N985 X2.8197 Y-0.009
N990 X2.8252 Y-0.0128
N995 X2.8467 Y-0.0274
N1000 X2.8765 Y-0.0444
N1005 X2.9148 Y-0.0623
N1010 X2.9647 Y-0.0809
N1015 X3.0159 Y-0.0955
N1020 G3 X3.2263 Y-0.1286 I0.3252 J1.3833
N1025 G1 X3.2794 Y-0.1336
N1030 X3.3295 Y-0.1516
N1035 X3.3745 Y-0.1803
N1040 X3.4135 Y-0.2166
N1045 X3.4467 Y-0.2582
N1050 X3.4746 Y-0.3036
N1055 X3.4978 Y-0.3516
N1060 X3.517 Y-0.4013
N1065 X3.5327 Y-0.4523
N1070 G2 X3.5714 Y-0.6617 I-1.3397 J-0.3561
N1075 X3.5937 Y-1.0339 I-3.9887 J-0.4249
N1080 X3.5993 Y-1.5668 I-22.9964 J-0.5097
N1085 G1 X3.5996 Y-1.6734
N1090 X3.5998 Y-1.8332
N1095 X3.5999 Y-2.0997
N1100 X3.6 Y-2.2596
N1105 X3.5888 Y-2.3117
N1110 X3.5647 Y-2.3592
N1115 X3.5313 Y-2.4007
N1120 X3.4916 Y-2.4362
N1125 X3.4474 Y-2.4661
N1130 X3.4003 Y-2.4909
N1135 X3.3511 Y-2.5115
N1140 X3.3005 Y-2.5283
N1145 G2 X3.0917 Y-2.5697 I-0.354 J1.2394
N1150 G1 X3.0569 Y-2.5737
N1155 G3 X2.9889 Y-2.6057 I0.013 J-0.1159
N1160 G1 X2.9767 Y-2.6174
N1165 X2.9696 Y-2.624
N1170 G2 X2.8198 Y-2.7411 I-2.7012 J3.3014
N1175 G1 X2.8047 Y-2.7505
N1180 X2.6997 Y-2.8157
N1185 X2.699 Y-2.8164
N1190 G2 X2.511 Y-3.0001 I-0.7919 J0.6222
N1195 X2.4826 Y-3.0101 I-0.03 J0.04
N1200 G1 X1.3846 Y-3.045
N1205 G2 X1.3556 Y-3.0369 I-0.0016 J0.05
N1210 X1.1563 Y-2.8655 I0.5515 J0.8427
N1215 G1 X1.1552 Y-2.8647
N1220 X1.1253 Y-2.8528
N1225 G2 X1.0503 Y-2.8157 I0.1549 J0.4067
N1230 G1 X0.9453 Y-2.7505
N1235 X0.9303 Y-2.741
N1240 X0.9248 Y-2.7372
N1245 X0.9033 Y-2.7226
N1250 X0.8735 Y-2.7056
N1255 X0.8353 Y-2.6877
N1260 X0.7853 Y-2.6691
N1265 X0.7341 Y-2.6545
N1270 X0.682 Y-2.643
N1275 X0.6322 Y-2.6242
N1280 X0.587 Y-2.5958
N1285 X0.5475 Y-2.5602
N1290 X0.5134 Y-2.5191
N1295 X0.4846 Y-2.4743
N1300 X0.4604 Y-2.4269
N1305 X0.4402 Y-2.3775
N1310 X0.4235 Y-2.3269
N1315 G2 X0.3819 Y-2.1181 I1.2751 J0.3628
N1320 G1 X0.3795 Y-2.1046
N1325 X0.3759 Y-2.0913
N1330 X0.3709 Y-2.0786
N1335 X0.3641 Y-2.0636
N1340 X0.3576 Y-2.0486
N1345 X0.3513 Y-2.0336
N1350 X0.3102 Y-1.9289
N1355 X0.3046 Y-1.9139
N1360 X0.2944 Y-1.884
N1365 X0.2902 Y-1.869
N1370 X0.2615 Y-1.7642
N1375 X0.2537 Y-1.7343
N1380 X0.2504 Y-1.7193
N1385 X0.2453 Y-1.6894
N1390 X0.2259 Y-1.5696
N1395 X0.2256 Y-1.5663
N1400 X0.2228 Y-1.5397
N1405 G2 X0.2141 Y-1.375 I5.2121 J0.3588
N1410 X0.2227 Y-1.2103 I5.69 J-0.2157
N1415 G1 X0.2256 Y-1.1837
N1420 X0.2259 Y-1.1804
N1425 X0.2453 Y-1.0606
N1430 X0.2504 Y-1.0307
N1435 X0.2537 Y-1.0157
N1440 X0.2615 Y-0.9858
N1445 X0.2902 Y-0.881
N1450 X0.3021 Y-0.8291
N1455 X0.3127 Y-0.7769
N1460 X0.321 Y-0.7242
N1465 X0.3342 Y-0.6726
N1470 X0.3573 Y-0.6245
N1475 X0.3886 Y-0.5814
N1480 X0.4262 Y-0.5436
N1485 G3 X0.457 Y-0.5114 I-0.0706 J0.0983
N1490 G1 X0.46 Y-0.5068
N1495 X0.5298 Y-0.402
N1500 G2 X0.5638 Y-0.3571 I0.3875 J-0.2583
N1505 G1 X0.6385 Y-0.2673
N1510 X0.6454 Y-0.2592
N1515 X0.6513 Y-0.2523
N1520 X0.6604 Y-0.2421
N1525 X0.6959 Y-0.2074
N1530 X0.7611 Y-0.1443
N1535 G3 X0.7745 Y-0.1171 I-0.036 J0.0347
N1540 G1 X0.7754 Y-0.1115 Z-0.5297
N1545 X0.7762 Y-0.1061 Z-0.5287
N1550 X0.777 Y-0.1007 Z-0.5272
N1555 X0.7778 Y-0.0956 Z-0.525
N1560 X0.7785 Y-0.0908 Z-0.5223
N1565 X0.7792 Y-0.0862 Z-0.5191
N1570 X0.7798 Y-0.0821 Z-0.5154
N1575 X0.7804 Y-0.0784 Z-0.5112
N1580 X0.7809 Y-0.0752 Z-0.5066
N1585 X0.7813 Y-0.0725 Z-0.5017
N1590 X0.7816 Y-0.0704 Z-0.4965
N1595 X0.7818 Y-0.0689 Z-0.4911
N1600 X0.782 Y-0.0679 Z-0.4856
N1605 Y-0.0676 Z-0.48
N1610 G0 Z0.
N1615 G1 X0.2374 Y-0.9416 F500.
N1620 G0 Z-0.43
N1625 G1 Z-0.48 F22.8
N1630 X0.2377 Y-0.9414 Z-0.4856
N1635 X0.2383 Y-0.9407 Z-0.4911
N1640 X0.2395 Y-0.9397 Z-0.4965
N1645 X0.241 Y-0.9382 Z-0.5017
N1650 X0.243 Y-0.9363 Z-0.5066
N1655 X0.2454 Y-0.9341 Z-0.5112
N1660 X0.2481 Y-0.9315 Z-0.5154
N1665 X0.2511 Y-0.9286 Z-0.5191
N1670 X0.2544 Y-0.9255 Z-0.5223
N1675 X0.258 Y-0.9221 Z-0.525
N1680 X0.2617 Y-0.9186 Z-0.5272
N1685 X0.2656 Y-0.9148 Z-0.5287
N1690 X0.2697 Y-0.911 Z-0.5297
N1695 X0.2737 Y-0.9072 Z-0.53
N1700 G3 X0.2902 Y-0.881 I-0.0429 J0.0452
N1705 G1 X0.2944 Y-0.866
N1710 X0.3046 Y-0.8361
N1715 X0.3102 Y-0.8211
N1720 X0.3513 Y-0.7164
N1725 X0.3576 Y-0.7014
N1730 X0.3641 Y-0.6864
N1735 X0.3709 Y-0.6714
N1740 X0.4255 Y-0.5667
N1745 X0.4335 Y-0.5517
N1750 X0.4505 Y-0.5215
N1755 X0.457 Y-0.5114
N1760 G3 X0.4639 Y-0.4817 I-0.043 J0.0256
N1765 G1 X0.4635 Y-0.4761 Z-0.5297
N1770 X0.463 Y-0.4706 Z-0.5287
N1775 X0.4626 Y-0.4652 Z-0.5272
N1780 X0.4622 Y-0.4601 Z-0.525
N1785 X0.4618 Y-0.4552 Z-0.5223
N1790 X0.4614 Y-0.4506 Z-0.5191
N1795 X0.4611 Y-0.4465 Z-0.5154
N1800 X0.4608 Y-0.4427 Z-0.5112
N1805 X0.4605 Y-0.4395 Z-0.5066
N1810 X0.4603 Y-0.4368 Z-0.5017
N1815 X0.4601 Y-0.4347 Z-0.4965
N1820 X0.46 Y-0.4331 Z-0.4911
N1825 X0.4599 Y-0.4322 Z-0.4856
N1830 Y-0.4319 Z-0.48
N1835 G0 Z0.
N1840 G1 X0.962 Y-2.8084 F500.
N1845 G0 Z-0.43
N1850 G1 Z-0.48 F22.8
N1855 X0.9619 Y-2.8081 Z-0.4856
N1860 X0.9615 Y-2.8072 Z-0.4911
N1865 X0.9609 Y-2.8058 Z-0.4965
N1870 X0.9601 Y-2.8038 Z-0.5017
N1875 X0.9591 Y-2.8013 Z-0.5066
N1880 X0.9579 Y-2.7983 Z-0.5112
N1885 X0.9565 Y-2.7948 Z-0.5154
N1890 X0.9549 Y-2.7909 Z-0.5191
N1895 X0.9532 Y-2.7867 Z-0.5223
N1900 X0.9513 Y-2.7822 Z-0.525
N1905 X0.9494 Y-2.7774 Z-0.5272
N1910 X0.9473 Y-2.7724 Z-0.5287
N1915 X0.9453 Y-2.7672 Z-0.5297
N1920 X0.9432 Y-2.7621 Z-0.53
N1925 G3 X0.9248 Y-2.7372 I-0.0577 J-0.0235
N1930 G1 X0.9003 Y-2.7187
N1935 G2 X0.7731 Y-2.6176 I2.0792 J2.7478
N1940 G1 X0.7504 Y-2.5953
N1945 X0.6959 Y-2.5426
N1950 X0.6604 Y-2.5079
N1955 X0.6513 Y-2.4977
N1960 G2 X0.5515 Y-2.3779 I4.2608 J3.6532
N1965 G1 X0.5405 Y-2.3635
N1970 X0.5298 Y-2.348
N1975 X0.46 Y-2.2432
N1980 X0.4504 Y-2.2282
N1985 X0.4335 Y-2.1983
N1990 X0.4255 Y-2.1833
N1995 X0.3709 Y-2.0786
N2000 G3 X0.3485 Y-2.0579 I-0.0435 J-0.0246
N2005 G1 X0.3434 Y-2.0555 Z-0.5297
N2010 X0.3384 Y-2.0532 Z-0.5287
N2015 X0.3336 Y-2.0509 Z-0.5272
N2020 X0.3289 Y-2.0487 Z-0.525
N2025 X0.3244 Y-2.0466 Z-0.5223
N2030 X0.3203 Y-2.0447 Z-0.5191
N2035 X0.3165 Y-2.0429 Z-0.5154
N2040 X0.3131 Y-2.0414 Z-0.5112
N2045 X0.3102 Y-2.04 Z-0.5066
N2050 X0.3077 Y-2.0388 Z-0.5017
N2055 X0.3058 Y-2.0379 Z-0.4965
N2060 X0.3044 Y-2.0373 Z-0.4911
N2065 X0.3035 Y-2.0369 Z-0.4856
N2070 X0.3032 Y-2.0367 Z-0.48
N2075 G0 Z0.
N2080 G1 X2.788 Y0.0584 F500.
N2085 G0 Z-0.43
N2090 G1 Z-0.48 F22.8
N2095 X2.7881 Y0.0581 Z-0.4856
N2100 X2.7885 Y0.0572 Z-0.4911
N2105 X2.7891 Y0.0558 Z-0.4965
N2110 X2.7899 Y0.0538 Z-0.5017
N2115 X2.7909 Y0.0513 Z-0.5066
N2120 X2.7921 Y0.0483 Z-0.5112
N2125 X2.7935 Y0.0448 Z-0.5154
N2130 X2.7951 Y0.0409 Z-0.5191
N2135 X2.7968 Y0.0367 Z-0.5223
N2140 X2.7987 Y0.0322 Z-0.525
N2145 X2.8006 Y0.0274 Z-0.5272
N2150 X2.8027 Y0.0224 Z-0.5287
N2155 X2.8047 Y0.0172 Z-0.5297
N2160 X2.8069 Y0.0121 Z-0.53
N2165 G3 X2.8252 Y-0.0128 I0.0577 J0.0235
N2170 G1 X2.8497 Y-0.0313
N2175 G2 X2.9769 Y-0.1324 I-2.0789 J-2.7474
N2180 G1 X2.9996 Y-0.1547
N2185 X3.0146 Y-0.1692
N2190 X3.0404 Y-0.1917
N2195 X3.0831 Y-0.2235
N2200 X3.1255 Y-0.2558
N2205 X3.1646 Y-0.2921
N2210 X3.1998 Y-0.3321
N2215 X3.2308 Y-0.3754
N2220 X3.2578 Y-0.4214
N2225 X3.2811 Y-0.4693
N2230 G3 X3.3071 Y-0.5346 I12.8486 J5.0823
N2235 G1 X3.3106 Y-0.5412
N2240 X3.3165 Y-0.5517
N2245 X3.3245 Y-0.5667
N2250 X3.3791 Y-0.6714
N2255 X3.3859 Y-0.6864
N2260 X3.3924 Y-0.7014
N2265 X3.3987 Y-0.7164
N2270 X3.4398 Y-0.8211
N2275 X3.4454 Y-0.8361
N2280 X3.4556 Y-0.866
N2285 X3.4598 Y-0.881
N2290 X3.4885 Y-0.9858
N2295 X3.4963 Y-1.0157
N2300 X3.4996 Y-1.0307
N2305 X3.5047 Y-1.0606
N2310 X3.5241 Y-1.1804
N2315 X3.5244 Y-1.1837
N2320 X3.5272 Y-1.2103
N2325 G2 X3.5359 Y-1.375 I-5.2111 J-0.3587
N2330 X3.5273 Y-1.5397 I-5.689 J0.2157
N2335 G1 X3.5244 Y-1.5663
N2340 X3.5241 Y-1.5696
N2345 X3.5047 Y-1.6894
N2350 X3.4996 Y-1.7193
N2355 X3.4963 Y-1.7343
N2360 X3.4885 Y-1.7642
N2365 X3.4598 Y-1.869
N2370 X3.4479 Y-1.9209
N2375 X3.4372 Y-1.9731
N2380 X3.429 Y-2.0258
N2385 X3.4158 Y-2.0774
N2390 X3.3927 Y-2.1255
N2395 X3.3614 Y-2.1686
N2400 X3.3238 Y-2.2064
N2405 G3 X3.293 Y-2.2386 I0.0706 J-0.0983
N2410 G1 X3.29 Y-2.2432
N2415 X3.2202 Y-2.348
N2420 G2 X3.1862 Y-2.3929 I-0.3876 J0.2583
N2425 G1 X3.1115 Y-2.4827
N2430 X3.1046 Y-2.4908
N2435 X3.0987 Y-2.4977
N2440 X3.0896 Y-2.5079
N2445 X3.0541 Y-2.5426
N2450 X2.9889 Y-2.6057
N2455 G3 X2.9755 Y-2.6329 I0.036 J-0.0347
N2460 G1 X2.9746 Y-2.6385 Z-0.5297
N2465 X2.9738 Y-2.6439 Z-0.5287
N2470 X2.973 Y-2.6493 Z-0.5272
N2475 X2.9722 Y-2.6544 Z-0.525
N2480 X2.9715 Y-2.6592 Z-0.5223
N2485 X2.9708 Y-2.6638 Z-0.5191
N2490 X2.9702 Y-2.6679 Z-0.5154
N2495 X2.9696 Y-2.6716 Z-0.5112
N2500 X2.9691 Y-2.6748 Z-0.5066
N2505 X2.9687 Y-2.6775 Z-0.5017
N2510 X2.9684 Y-2.6796 Z-0.4965
N2515 X2.9682 Y-2.6811 Z-0.4911
N2520 X2.968 Y-2.6821 Z-0.4856
N2525 Y-2.6824 Z-0.48
N2530 G0 Z0.
N2535 G1 X3.5126 Y-1.8084 F500.
N2540 G0 Z-0.43
N2545 G1 Z-0.48 F22.8
N2550 X3.5123 Y-1.8086 Z-0.4856
N2555 X3.5117 Y-1.8093 Z-0.4911
N2560 X3.5105 Y-1.8103 Z-0.4965
N2565 X3.509 Y-1.8118 Z-0.5017
N2570 X3.507 Y-1.8137 Z-0.5066
N2575 X3.5046 Y-1.8159 Z-0.5112
N2580 X3.5019 Y-1.8185 Z-0.5154
N2585 X3.4989 Y-1.8214 Z-0.5191
N2590 X3.4956 Y-1.8245 Z-0.5223
N2595 X3.492 Y-1.8279 Z-0.525
N2600 X3.4883 Y-1.8314 Z-0.5272
N2605 X3.4844 Y-1.8352 Z-0.5287
N2610 X3.4803 Y-1.839 Z-0.5297
N2615 X3.4763 Y-1.8428 Z-0.53
N2620 G3 X3.4598 Y-1.869 I0.0429 J-0.0452
N2625 G1 X3.4556 Y-1.884
N2630 X3.4454 Y-1.9139
N2635 X3.4398 Y-1.9289
N2640 X3.3987 Y-2.0336
N2645 X3.3924 Y-2.0486
N2650 X3.3859 Y-2.0636
N2655 X3.3791 Y-2.0786
N2660 X3.3245 Y-2.1833
N2665 X3.3165 Y-2.1983
N2670 X3.2995 Y-2.2285
N2675 X3.293 Y-2.2386
N2680 G3 X3.2861 Y-2.2683 I0.043 J-0.0256
N2685 G1 X3.2865 Y-2.2739 Z-0.5297
N2690 X3.287 Y-2.2794 Z-0.5287
N2695 X3.2874 Y-2.2847 Z-0.5272
N2700 X3.2878 Y-2.2899 Z-0.525
N2705 X3.2882 Y-2.2948 Z-0.5223
N2710 X3.2886 Y-2.2993 Z-0.5191
N2715 X3.289 Y-2.3035 Z-0.5154
N2720 X3.2893 Y-2.3072 Z-0.5112
N2725 X3.2895 Y-2.3105 Z-0.5066
N2730 X3.2897 Y-2.3132 Z-0.5017
N2735 X3.2899 Y-2.3153 Z-0.4965
N2740 X3.29 Y-2.3169 Z-0.4911
N2745 X3.2901 Y-2.3178 Z-0.4856
N2750 Y-2.3181 Z-0.48
N2755 G0 Z0.
N2760 G1 X2.9863 Y-0.094 F500.
N2765 G0 Z-0.43
N2770 G1 Z-0.48 F22.8
N2775 X2.9864 Y-0.0943 Z-0.4856
N2780 X2.9866 Y-0.0952 Z-0.4911
N2785 X2.987 Y-0.0967 Z-0.4965
N2790 X2.9876 Y-0.0988 Z-0.5017
N2795 X2.9883 Y-0.1014 Z-0.5066
N2800 X2.9891 Y-0.1046 Z-0.5112
N2805 X2.9901 Y-0.1082 Z-0.5154
N2810 X2.9912 Y-0.1122 Z-0.5191
N2815 X2.9924 Y-0.1166 Z-0.5223
N2820 X2.9937 Y-0.1214 Z-0.525
N2825 X2.995 Y-0.1264 Z-0.5272
N2830 X2.9965 Y-0.1316 Z-0.5287
N2835 X2.9979 Y-0.1369 Z-0.5297
N2840 X2.9994 Y-0.1423 Z-0.53
N2845 G3 X3.0146 Y-0.1692 I0.0601 J0.0163
N2850 G1 X3.0541 Y-0.2074
N2855 X3.0896 Y-0.2421
N2860 X3.0987 Y-0.2523
N2865 G2 X3.1985 Y-0.3721 I-4.2603 J-3.6527
N2870 G1 X3.2095 Y-0.3865
N2875 X3.2202 Y-0.402
N2880 X3.29 Y-0.5068
N2885 X3.2996 Y-0.5218
N2890 X3.3106 Y-0.5412
N2895 X3.3133 Y-0.5446 Z-0.5297
N2900 X3.3159 Y-0.5479 Z-0.5288
N2905 X3.3184 Y-0.551 Z-0.5273
N2910 X3.3213 Y-0.5532 Z-0.5255
N2915 X3.3239 Y-0.5552 Z-0.5231
N2920 X3.3263 Y-0.557 Z-0.5203
N2925 X3.3284 Y-0.5585 Z-0.5172
N2930 X3.3302 Y-0.5595 Z-0.5139
N2935 X3.3317 Y-0.5602 Z-0.5104
N2940 X3.3327 Y-0.5607 Z-0.5067
N2945 X3.3334 Y-0.5611 Z-0.5029
N2950 X3.3336 Y-0.5612 Z-0.4991
N2955 G0 Z0.
N2960 G1 X-0.0775 Y-3.2661 F500.
N2965 G0 Z-0.7013
N2970 G1 Z-0.83 F22.8
N2975 G3 X0. Y-3.0022 I-0.4763 J0.2832
N2980 G1 Y-2.9962
N2985 G2 X-0.0309 Y-2.7855 I1.4964 J0.3267
N2990 X-0.0463 Y-2.4129 I5.1431 J0.3997
N2995 G1 X-0.0479 Y-2.2743
N3000 X-0.049 Y-2.1358
N3005 X-0.0498 Y-1.9972
N3010 X-0.05 Y-1.8586
N3015 X-0.0499 Y-1.7201
N3020 X-0.05 Y-1.4003
N3025 Y-1.0273
N3030 Y-0.2279
N3035 X-0.0441 Y-0.2019
N3040 X-0.022 Y-0.1535
N3045 X0.0127 Y-0.113
N3050 X0.0545 Y-0.0799
N3055 X0.1005 Y-0.0531
N3060 X0.1493 Y-0.0316
N3065 X0.1997 Y-0.0144
N3070 X0.2513 Y-0.0008
N3075 G2 X0.4619 Y0.0306 I0.3267 J-1.4729
N3080 X0.8346 Y0.0462 I0.3997 J-5.0635
N3085 G1 X0.8878 Y0.0473
N3090 X0.9411 Y0.0479
N3095 X0.9902 Y0.0483
N3100 G3 X1.0503 Y0.0657 I-0.001 J0.1158
N3105 G2 X1.1252 Y0.1029 I0.2309 J-0.3715
N3110 G1 X1.1552 Y0.1147
N3115 G2 X1.2452 Y0.1368 I0.1232 J-0.3065
N3120 X1.3502 Y0.145 I0.0989 J-0.594
N3125 G1 X2.3998
N3130 G2 X2.5497 Y0.1292 I-0.0014 J-0.7347
N3135 G1 X2.5798 Y0.1202
N3140 X2.5948 Y0.1147
N3145 X2.6141 Y0.1081
N3150 X2.6658 Y0.0952
N3155 G3 X2.8769 Y0.0668 I0.3131 J1.5289
N3160 X3.2496 Y0.0532 I0.395 J5.7295
N3165 X3.5161 Y0.0509 I0.291 J18.3188
N3170 G1 X3.5292 Y0.0488
N3175 X3.5549 Y0.0416
N3180 X3.6023 Y0.0172
N3185 X3.6417 Y-0.0186
N3190 X3.674 Y-0.061
N3195 X3.7 Y-0.1075
N3200 X3.7209 Y-0.1566
N3205 X3.7376 Y-0.2072
N3210 X3.7508 Y-0.2588
N3215 G2 X3.7812 Y-0.4696 I-1.5213 J-0.3268
N3220 X3.7964 Y-0.8423 I-5.2275 J-0.3997
N3225 G1 X3.7973 Y-0.8956
N3230 X3.7986 Y-1.0554
N3235 X3.7995 Y-1.2153
N3240 X3.7999 Y-1.3752
N3245 Y-1.5351
N3250 X3.8 Y-1.8548
N3255 Y-2.5209
N3260 X3.7944 Y-2.547
N3265 X3.7726 Y-2.5956
N3270 X3.7381 Y-2.6362
N3275 X3.6965 Y-2.6695
N3280 X3.6505 Y-2.6964
N3285 X3.6017 Y-2.718
N3290 X3.5513 Y-2.7353
N3295 X3.4998 Y-2.749
N3300 G2 X3.2892 Y-2.7805 I-0.3267 J1.4655
N3305 X2.9166 Y-2.7962 I-0.3997 J5.0385
N3310 G1 X2.8633 Y-2.7972
N3315 X2.81 Y-2.7978
N3320 X2.7598 Y-2.7983
N3325 G3 X2.6997 Y-2.8157 I0.001 J-0.1158
N3330 G2 X2.6248 Y-2.8529 I-0.2309 J0.3714
N3335 G1 X2.5948 Y-2.8647
N3340 G2 X2.5048 Y-2.8868 I-0.1232 J0.3066
N3345 X2.3998 Y-2.895 I-0.0989 J0.5939
N3350 G1 X1.3502
N3355 G2 X1.2003 Y-2.8792 I0.0014 J0.7347
N3360 G1 X1.1702 Y-2.8702
N3365 X1.1552 Y-2.8647
N3370 X1.1359 Y-2.8581
N3375 X1.0842 Y-2.8452
N3380 G3 X0.8731 Y-2.8168 I-0.3131 J-1.5291
N3385 X0.5004 Y-2.8032 I-0.395 J-5.7302
N3390 G1 X0.4471 Y-2.8023
N3395 X0.4208 Y-2.7978
N3400 X0.3712 Y-2.7783
N3405 X0.329 Y-2.7457
N3410 X0.2941 Y-2.7055
N3415 X0.2654 Y-2.6606
N3420 X0.2422 Y-2.6126
N3425 X0.2234 Y-2.5627
N3430 X0.2084 Y-2.5116
N3435 G2 X0.1731 Y-2.3016 I1.3479 J0.3343
N3440 X0.1547 Y-1.9291 I4.4585 J0.4072
N3445 X0.1511 Y-1.6094 I16.0727 J0.3386
N3450 G1 X0.1504 Y-1.3962
N3455 X0.1502 Y-1.1831
N3460 X0.15 Y-0.9166
N3465 Y-0.4903
N3470 X0.1612 Y-0.4382
N3475 X0.1854 Y-0.3907
N3480 X0.2188 Y-0.3491
N3485 X0.2585 Y-0.3137
N3490 X0.3027 Y-0.2838
N3495 X0.3498 Y-0.259
N3500 X0.399 Y-0.2385
N3505 X0.4496 Y-0.2216
N3510 G2 X0.6585 Y-0.1803 I0.354 J-1.2403
N3515 G1 X0.6931 Y-0.1763
N3520 G3 X0.7611 Y-0.1443 I-0.013 J0.1159
N3525 G1 X0.7733 Y-0.1326
N3530 X0.7804 Y-0.126
N3535 G2 X0.9302 Y-0.0089 I2.7014 J-3.3017
N3540 G1 X0.9453 Y0.0005
N3545 X1.0503 Y0.0657
N3550 X1.051 Y0.0664
N3555 G2 X1.239 Y0.2501 I0.7919 J-0.6222
N3560 X1.2674 Y0.2601 I0.03 J-0.04
N3565 G1 X2.3654 Y0.295
N3570 G2 X2.3944 Y0.2869 I0.0016 J-0.05
N3575 X2.5937 Y0.1155 I-0.5515 J-0.8427
N3580 G1 X2.5948 Y0.1147
N3585 X2.6247 Y0.1028
N3590 G2 X2.6997 Y0.0657 I-0.1549 J-0.4067
N3595 G1 X2.8047 Y0.0005
N3600 X2.8197 Y-0.009
N3605 X2.8252 Y-0.0128
N3610 X2.8467 Y-0.0274
N3615 X2.8765 Y-0.0444
N3620 X2.9148 Y-0.0623
N3625 X2.9647 Y-0.0809
N3630 X3.0159 Y-0.0955
N3635 G3 X3.2263 Y-0.1286 I0.3252 J1.3833
N3640 G1 X3.2794 Y-0.1336
N3645 X3.3295 Y-0.1516
N3650 X3.3745 Y-0.1803
N3655 X3.4135 Y-0.2166
N3660 X3.4467 Y-0.2582
N3665 X3.4746 Y-0.3036
N3670 X3.4978 Y-0.3516
N3675 X3.517 Y-0.4013
N3680 X3.5327 Y-0.4523
N3685 G2 X3.5714 Y-0.6617 I-1.3397 J-0.3561
N3690 X3.5937 Y-1.0339 I-3.9887 J-0.4249
N3695 X3.5993 Y-1.5668 I-22.9964 J-0.5097
N3700 G1 X3.5996 Y-1.6734
N3705 X3.5998 Y-1.8332
N3710 X3.5999 Y-2.0997
N3715 X3.6 Y-2.2596
N3720 X3.5888 Y-2.3117
N3725 X3.5647 Y-2.3592
N3730 X3.5313 Y-2.4007
N3735 X3.4916 Y-2.4362
N3740 X3.4474 Y-2.4661
N3745 X3.4003 Y-2.4909
N3750 X3.3511 Y-2.5115
N3755 X3.3005 Y-2.5283
N3760 G2 X3.0917 Y-2.5697 I-0.354 J1.2394
N3765 G1 X3.0569 Y-2.5737
N3770 G3 X2.9889 Y-2.6057 I0.013 J-0.1159
N3775 G1 X2.9767 Y-2.6174
N3780 X2.9696 Y-2.624
N3785 G2 X2.8198 Y-2.7411 I-2.7012 J3.3014
N3790 G1 X2.8047 Y-2.7505
N3795 X2.6997 Y-2.8157
N3800 X2.699 Y-2.8164
N3805 G2 X2.511 Y-3.0001 I-0.7919 J0.6222
N3810 X2.4826 Y-3.0101 I-0.03 J0.04
N3815 G1 X1.3846 Y-3.045
N3820 G2 X1.3556 Y-3.0369 I-0.0016 J0.05
N3825 X1.1563 Y-2.8655 I0.5515 J0.8427
N3830 G1 X1.1552 Y-2.8647
N3835 X1.1253 Y-2.8528
N3840 G2 X1.0503 Y-2.8157 I0.1549 J0.4067
N3845 G1 X0.9453 Y-2.7505
N3850 X0.9303 Y-2.741
N3855 X0.9248 Y-2.7372
N3860 X0.9033 Y-2.7226
N3865 X0.8735 Y-2.7056
N3870 X0.8353 Y-2.6877
N3875 X0.7853 Y-2.6691
N3880 X0.7341 Y-2.6545
N3885 X0.682 Y-2.643
N3890 X0.6322 Y-2.6242
N3895 X0.587 Y-2.5958
N3900 X0.5475 Y-2.5602
N3905 X0.5134 Y-2.5191
N3910 X0.4846 Y-2.4743
N3915 X0.4604 Y-2.4269
N3920 X0.4402 Y-2.3775
N3925 X0.4235 Y-2.3269
N3930 G2 X0.3819 Y-2.1181 I1.2751 J0.3628
N3935 G1 X0.3795 Y-2.1046
N3940 X0.3759 Y-2.0913
N3945 X0.3709 Y-2.0786
N3950 X0.3641 Y-2.0636
N3955 X0.3576 Y-2.0486
N3960 X0.3513 Y-2.0336
N3965 X0.3102 Y-1.9289
N3970 X0.3046 Y-1.9139
N3975 X0.2944 Y-1.884
N3980 X0.2902 Y-1.869
N3985 X0.2615 Y-1.7642
N3990 X0.2537 Y-1.7343
N3995 X0.2504 Y-1.7193
N4000 X0.2453 Y-1.6894
N4005 X0.2259 Y-1.5696
N4010 X0.2256 Y-1.5663
N4015 X0.2228 Y-1.5397
N4020 G2 X0.2141 Y-1.375 I5.2121 J0.3588
N4025 X0.2227 Y-1.2103 I5.69 J-0.2157
N4030 G1 X0.2256 Y-1.1837
N4035 X0.2259 Y-1.1804
N4040 X0.2453 Y-1.0606
N4045 X0.2504 Y-1.0307
N4050 X0.2537 Y-1.0157
N4055 X0.2615 Y-0.9858
N4060 X0.2902 Y-0.881
N4065 X0.3021 Y-0.8291
N4070 X0.3127 Y-0.7769
N4075 X0.321 Y-0.7242
N4080 X0.3342 Y-0.6726
N4085 X0.3573 Y-0.6245
N4090 X0.3886 Y-0.5814
N4095 X0.4262 Y-0.5436
N4100 G3 X0.457 Y-0.5114 I-0.0706 J0.0983
N4105 G1 X0.46 Y-0.5068
N4110 X0.5298 Y-0.402
N4115 G2 X0.5638 Y-0.3571 I0.3875 J-0.2583
N4120 G1 X0.6385 Y-0.2673
N4125 X0.6454 Y-0.2592
N4130 X0.6513 Y-0.2523
N4135 X0.6604 Y-0.2421
N4140 X0.6959 Y-0.2074
N4145 X0.7611 Y-0.1443
N4150 G3 X0.7745 Y-0.1171 I-0.036 J0.0347
N4155 G1 X0.7754 Y-0.1115 Z-0.8297
N4160 X0.7762 Y-0.1061 Z-0.8287
N4165 X0.777 Y-0.1007 Z-0.8272
N4170 X0.7778 Y-0.0956 Z-0.825
N4175 X0.7785 Y-0.0908 Z-0.8223
N4180 X0.7792 Y-0.0862 Z-0.8191
N4185 X0.7798 Y-0.0821 Z-0.8154
N4190 X0.7804 Y-0.0784 Z-0.8112
N4195 X0.7809 Y-0.0752 Z-0.8066
N4200 X0.7813 Y-0.0725 Z-0.8017
N4205 X0.7816 Y-0.0704 Z-0.7965
N4210 X0.7818 Y-0.0689 Z-0.7911
N4215 X0.782 Y-0.0679 Z-0.7856
N4220 Y-0.0676 Z-0.78
N4225 G0 Z0.
N4230 G1 X0.2374 Y-0.9416 F500.
N4235 G0 Z-0.73
N4240 G1 Z-0.78 F22.8
N4245 X0.2377 Y-0.9414 Z-0.7856
N4250 X0.2383 Y-0.9407 Z-0.7911
N4255 X0.2395 Y-0.9397 Z-0.7965
N4260 X0.241 Y-0.9382 Z-0.8017
N4265 X0.243 Y-0.9363 Z-0.8066
N4270 X0.2454 Y-0.9341 Z-0.8112
N4275 X0.2481 Y-0.9315 Z-0.8154
N4280 X0.2511 Y-0.9286 Z-0.8191
N4285 X0.2544 Y-0.9255 Z-0.8223
N4290 X0.258 Y-0.9221 Z-0.825
N4295 X0.2617 Y-0.9186 Z-0.8272
N4300 X0.2656 Y-0.9148 Z-0.8287
N4305 X0.2697 Y-0.911 Z-0.8297
N4310 X0.2737 Y-0.9072 Z-0.83
N4315 G3 X0.2902 Y-0.881 I-0.0429 J0.0452
N4320 G1 X0.2944 Y-0.866
N4325 X0.3046 Y-0.8361
N4330 X0.3102 Y-0.8211
N4335 X0.3513 Y-0.7164
N4340 X0.3576 Y-0.7014
N4345 X0.3641 Y-0.6864
N4350 X0.3709 Y-0.6714
N4355 X0.4255 Y-0.5667
N4360 X0.4335 Y-0.5517
N4365 X0.4505 Y-0.5215
N4370 X0.457 Y-0.5114
N4375 G3 X0.4639 Y-0.4817 I-0.043 J0.0256
N4380 G1 X0.4635 Y-0.4761 Z-0.8297
N4385 X0.463 Y-0.4706 Z-0.8287
N4390 X0.4626 Y-0.4652 Z-0.8272
N4395 X0.4622 Y-0.4601 Z-0.825
N4400 X0.4618 Y-0.4552 Z-0.8223
N4405 X0.4614 Y-0.4506 Z-0.8191
N4410 X0.4611 Y-0.4465 Z-0.8154
N4415 X0.4608 Y-0.4427 Z-0.8112
N4420 X0.4605 Y-0.4395 Z-0.8066
N4425 X0.4603 Y-0.4368 Z-0.8017
N4430 X0.4601 Y-0.4347 Z-0.7965
N4435 X0.46 Y-0.4331 Z-0.7911
N4440 X0.4599 Y-0.4322 Z-0.7856
N4445 Y-0.4319 Z-0.78
N4450 G0 Z0.
N4455 G1 X0.962 Y-2.8084 F500.
N4460 G0 Z-0.73
N4465 G1 Z-0.78 F22.8
N4470 X0.9619 Y-2.8081 Z-0.7856
N4475 X0.9615 Y-2.8072 Z-0.7911
N4480 X0.9609 Y-2.8058 Z-0.7965
N4485 X0.9601 Y-2.8038 Z-0.8017
N4490 X0.9591 Y-2.8013 Z-0.8066
N4495 X0.9579 Y-2.7983 Z-0.8112
N4500 X0.9565 Y-2.7948 Z-0.8154
N4505 X0.9549 Y-2.7909 Z-0.8191
N4510 X0.9532 Y-2.7867 Z-0.8223
N4515 X0.9513 Y-2.7822 Z-0.825
N4520 X0.9494 Y-2.7774 Z-0.8272
N4525 X0.9473 Y-2.7724 Z-0.8287
N4530 X0.9453 Y-2.7672 Z-0.8297
N4535 X0.9432 Y-2.7621 Z-0.83
N4540 G3 X0.9248 Y-2.7372 I-0.0577 J-0.0235
N4545 G1 X0.9003 Y-2.7187
N4550 G2 X0.7731 Y-2.6176 I2.0792 J2.7478
N4555 G1 X0.7504 Y-2.5953
N4560 X0.6959 Y-2.5426
N4565 X0.6604 Y-2.5079
N4570 X0.6513 Y-2.4977
N4575 G2 X0.5515 Y-2.3779 I4.2608 J3.6532
N4580 G1 X0.5405 Y-2.3635
N4585 X0.5298 Y-2.348
N4590 X0.46 Y-2.2432
N4595 X0.4504 Y-2.2282
N4600 X0.4335 Y-2.1983
N4605 X0.4255 Y-2.1833
N4610 X0.3709 Y-2.0786
N4615 G3 X0.3485 Y-2.0579 I-0.0435 J-0.0246
N4620 G1 X0.3434 Y-2.0555 Z-0.8297
N4625 X0.3384 Y-2.0532 Z-0.8287
N4630 X0.3336 Y-2.0509 Z-0.8272
N4635 X0.3289 Y-2.0487 Z-0.825
N4640 X0.3244 Y-2.0466 Z-0.8223
N4645 X0.3203 Y-2.0447 Z-0.8191
N4650 X0.3165 Y-2.0429 Z-0.8154
N4655 X0.3131 Y-2.0414 Z-0.8112
N4660 X0.3102 Y-2.04 Z-0.8066
N4665 X0.3077 Y-2.0388 Z-0.8017
N4670 X0.3058 Y-2.0379 Z-0.7965
N4675 X0.3044 Y-2.0373 Z-0.7911
N4680 X0.3035 Y-2.0369 Z-0.7856
N4685 X0.3032 Y-2.0367 Z-0.78
N4690 G0 Z0.
N4695 G1 X2.788 Y0.0584 F500.
N4700 G0 Z-0.73
N4705 G1 Z-0.78 F22.8
N4710 X2.7881 Y0.0581 Z-0.7856
N4715 X2.7885 Y0.0572 Z-0.7911
N4720 X2.7891 Y0.0558 Z-0.7965
N4725 X2.7899 Y0.0538 Z-0.8017
N4730 X2.7909 Y0.0513 Z-0.8066
N4735 X2.7921 Y0.0483 Z-0.8112
N4740 X2.7935 Y0.0448 Z-0.8154
N4745 X2.7951 Y0.0409 Z-0.8191
N4750 X2.7968 Y0.0367 Z-0.8223
N4755 X2.7987 Y0.0322 Z-0.825
N4760 X2.8006 Y0.0274 Z-0.8272
N4765 X2.8027 Y0.0224 Z-0.8287
N4770 X2.8047 Y0.0172 Z-0.8297
N4775 X2.8069 Y0.0121 Z-0.83
N4780 G3 X2.8252 Y-0.0128 I0.0577 J0.0235
N4785 G1 X2.8497 Y-0.0313
N4790 G2 X2.9769 Y-0.1324 I-2.0789 J-2.7474
N4795 G1 X2.9996 Y-0.1547
N4800 X3.0146 Y-0.1692
N4805 X3.0404 Y-0.1917
N4810 X3.0831 Y-0.2235
N4815 X3.1255 Y-0.2558
N4820 X3.1646 Y-0.2921
N4825 X3.1998 Y-0.3321
N4830 X3.2308 Y-0.3754
N4835 X3.2578 Y-0.4214
N4840 X3.2811 Y-0.4693
N4845 G3 X3.3071 Y-0.5346 I12.8486 J5.0823
N4850 G1 X3.3106 Y-0.5412
N4855 X3.3165 Y-0.5517
N4860 X3.3245 Y-0.5667
N4865 X3.3791 Y-0.6714
N4870 X3.3859 Y-0.6864
N4875 X3.3924 Y-0.7014
N4880 X3.3987 Y-0.7164
N4885 X3.4398 Y-0.8211
N4890 X3.4454 Y-0.8361
N4895 X3.4556 Y-0.866
N4900 X3.4598 Y-0.881
N4905 X3.4885 Y-0.9858
N4910 X3.4963 Y-1.0157
N4915 X3.4996 Y-1.0307
N4920 X3.5047 Y-1.0606
N4925 X3.5241 Y-1.1804
N4930 X3.5244 Y-1.1837
N4935 X3.5272 Y-1.2103
N4940 G2 X3.5359 Y-1.375 I-5.2111 J-0.3587
N4945 X3.5273 Y-1.5397 I-5.689 J0.2157
N4950 G1 X3.5244 Y-1.5663
N4955 X3.5241 Y-1.5696
N4960 X3.5047 Y-1.6894
N4965 X3.4996 Y-1.7193
N4970 X3.4963 Y-1.7343
N4975 X3.4885 Y-1.7642
N4980 X3.4598 Y-1.869
N4985 X3.4479 Y-1.9209
N4990 X3.4372 Y-1.9731
N4995 X3.429 Y-2.0258
N5000 X3.4158 Y-2.0774
N5005 X3.3927 Y-2.1255
N5010 X3.3614 Y-2.1686
N5015 X3.3238 Y-2.2064
N5020 G3 X3.293 Y-2.2386 I0.0706 J-0.0983
N5025 G1 X3.29 Y-2.2432
N5030 X3.2202 Y-2.348
N5035 G2 X3.1862 Y-2.3929 I-0.3876 J0.2583
N5040 G1 X3.1115 Y-2.4827
N5045 X3.1046 Y-2.4908
N5050 X3.0987 Y-2.4977
N5055 X3.0896 Y-2.5079
N5060 X3.0541 Y-2.5426
N5065 X2.9889 Y-2.6057
N5070 G3 X2.9755 Y-2.6329 I0.036 J-0.0347
N5075 G1 X2.9746 Y-2.6385 Z-0.8297
N5080 X2.9738 Y-2.6439 Z-0.8287
N5085 X2.973 Y-2.6493 Z-0.8272
N5090 X2.9722 Y-2.6544 Z-0.825
N5095 X2.9715 Y-2.6592 Z-0.8223
N5100 X2.9708 Y-2.6638 Z-0.8191
N5105 X2.9702 Y-2.6679 Z-0.8154
N5110 X2.9696 Y-2.6716 Z-0.8112
N5115 X2.9691 Y-2.6748 Z-0.8066
N5120 X2.9687 Y-2.6775 Z-0.8017
N5125 X2.9684 Y-2.6796 Z-0.7965
N5130 X2.9682 Y-2.6811 Z-0.7911
N5135 X2.968 Y-2.6821 Z-0.7856
N5140 Y-2.6824 Z-0.78
N5145 G0 Z0.
N5150 G1 X3.5126 Y-1.8084 F500.
N5155 G0 Z-0.73
N5160 G1 Z-0.78 F22.8
N5165 X3.5123 Y-1.8086 Z-0.7856
N5170 X3.5117 Y-1.8093 Z-0.7911
N5175 X3.5105 Y-1.8103 Z-0.7965
N5180 X3.509 Y-1.8118 Z-0.8017
N5185 X3.507 Y-1.8137 Z-0.8066
N5190 X3.5046 Y-1.8159 Z-0.8112
N5195 X3.5019 Y-1.8185 Z-0.8154
N5200 X3.4989 Y-1.8214 Z-0.8191
N5205 X3.4956 Y-1.8245 Z-0.8223
N5210 X3.492 Y-1.8279 Z-0.825
N5215 X3.4883 Y-1.8314 Z-0.8272
N5220 X3.4844 Y-1.8352 Z-0.8287
N5225 X3.4803 Y-1.839 Z-0.8297
N5230 X3.4763 Y-1.8428 Z-0.83
N5235 G3 X3.4598 Y-1.869 I0.0429 J-0.0452
N5240 G1 X3.4556 Y-1.884
N5245 X3.4454 Y-1.9139
N5250 X3.4398 Y-1.9289
N5255 X3.3987 Y-2.0336
N5260 X3.3924 Y-2.0486
N5265 X3.3859 Y-2.0636
N5270 X3.3791 Y-2.0786
N5275 X3.3245 Y-2.1833
N5280 X3.3165 Y-2.1983
N5285 X3.2995 Y-2.2285
N5290 X3.293 Y-2.2386
N5295 G3 X3.2861 Y-2.2683 I0.043 J-0.0256
N5300 G1 X3.2865 Y-2.2739 Z-0.8297
N5305 X3.287 Y-2.2794 Z-0.8287
N5310 X3.2874 Y-2.2847 Z-0.8272
N5315 X3.2878 Y-2.2899 Z-0.825
N5320 X3.2882 Y-2.2948 Z-0.8223
N5325 X3.2886 Y-2.2993 Z-0.8191
N5330 X3.289 Y-2.3035 Z-0.8154
N5335 X3.2893 Y-2.3072 Z-0.8112
N5340 X3.2895 Y-2.3105 Z-0.8066
N5345 X3.2897 Y-2.3132 Z-0.8017
N5350 X3.2899 Y-2.3153 Z-0.7965
N5355 X3.29 Y-2.3169 Z-0.7911
N5360 X3.2901 Y-2.3178 Z-0.7856
N5365 Y-2.3181 Z-0.78
N5370 G0 Z0.
N5375 G1 X2.9863 Y-0.094 F500.
N5380 G0 Z-0.73
N5385 G1 Z-0.78 F22.8
N5390 X2.9864 Y-0.0943 Z-0.7856
N5395 X2.9866 Y-0.0952 Z-0.7911
N5400 X2.987 Y-0.0967 Z-0.7965
N5405 X2.9876 Y-0.0988 Z-0.8017
N5410 X2.9883 Y-0.1014 Z-0.8066
N5415 X2.9891 Y-0.1046 Z-0.8112
N5420 X2.9901 Y-0.1082 Z-0.8154
N5425 X2.9912 Y-0.1122 Z-0.8191
N5430 X2.9924 Y-0.1166 Z-0.8223
N5435 X2.9937 Y-0.1214 Z-0.825
N5440 X2.995 Y-0.1264 Z-0.8272
N5445 X2.9965 Y-0.1316 Z-0.8287
N5450 X2.9979 Y-0.1369 Z-0.8297
N5455 X2.9994 Y-0.1423 Z-0.83
N5460 G3 X3.0146 Y-0.1692 I0.0601 J0.0163
N5465 G1 X3.0541 Y-0.2074
N5470 X3.0896 Y-0.2421
N5475 X3.0987 Y-0.2523
N5480 G2 X3.1985 Y-0.3721 I-4.2603 J-3.6527
N5485 G1 X3.2095 Y-0.3865
N5490 X3.2202 Y-0.402
N5495 X3.29 Y-0.5068
N5500 X3.2996 Y-0.5218
N5505 X3.3106 Y-0.5412
N5510 X3.3133 Y-0.5446 Z-0.8297
N5515 X3.3159 Y-0.5479 Z-0.8288
N5520 X3.3184 Y-0.551 Z-0.8274
N5525 X3.3213 Y-0.5532 Z-0.8255
N5530 X3.3239 Y-0.5552 Z-0.8231
N5535 X3.3263 Y-0.557 Z-0.8203
N5540 X3.3284 Y-0.5585 Z-0.8172
N5545 X3.3302 Y-0.5595 Z-0.8139
N5550 X3.3317 Y-0.5602 Z-0.8104
N5555 X3.3327 Y-0.5607 Z-0.8067
N5560 X3.3334 Y-0.5611 Z-0.8029
N5565 X3.3336 Y-0.5612 Z-0.7991
N5570 G0 Z0.
N5575 G1 X-0.0775 Y-3.2661 F500.
N5580 G0 Z-0.8713
N5585 G1 Z-1. F22.8
N5590 G3 X0. Y-3.0022 I-0.4763 J0.2832
N5595 G1 Y-2.9962
N5600 G2 X-0.0309 Y-2.7855 I1.4964 J0.3267
N5605 X-0.0463 Y-2.4129 I5.1431 J0.3997
N5610 G1 X-0.0479 Y-2.2743
N5615 X-0.049 Y-2.1358
N5620 X-0.0498 Y-1.9972
N5625 X-0.05 Y-1.8586
N5630 X-0.0499 Y-1.7201
N5635 X-0.05 Y-1.4003
N5640 Y-1.0273
N5645 Y-0.2279
N5650 X-0.0441 Y-0.2019
N5655 X-0.022 Y-0.1535
N5660 X0.0127 Y-0.113
N5665 X0.0545 Y-0.0799
N5670 X0.1005 Y-0.0531
N5675 X0.1493 Y-0.0316
N5680 X0.1997 Y-0.0144
N5685 X0.2513 Y-0.0008
N5690 G2 X0.4619 Y0.0306 I0.3267 J-1.4729
N5695 X0.8346 Y0.0462 I0.3997 J-5.0635
N5700 G1 X0.8878 Y0.0473
N5705 X0.9411 Y0.0479
N5710 X0.9902 Y0.0483
N5715 G3 X1.0503 Y0.0657 I-0.001 J0.1158
N5720 G2 X1.1252 Y0.1029 I0.2309 J-0.3715
N5725 G1 X1.1552 Y0.1147
N5730 G2 X1.2452 Y0.1368 I0.1232 J-0.3065
N5735 X1.3502 Y0.145 I0.0989 J-0.594
N5740 G1 X2.3998
N5745 G2 X2.5497 Y0.1292 I-0.0014 J-0.7347
N5750 G1 X2.5798 Y0.1202
N5755 X2.5948 Y0.1147
N5760 X2.6141 Y0.1081
N5765 X2.6658 Y0.0952
N5770 G3 X2.8769 Y0.0668 I0.3131 J1.5289
N5775 X3.2496 Y0.0532 I0.395 J5.7295
N5780 X3.5161 Y0.0509 I0.291 J18.3188
N5785 G1 X3.5292 Y0.0488
N5790 X3.5549 Y0.0416
N5795 X3.6023 Y0.0172
N5800 X3.6417 Y-0.0186
N5805 X3.674 Y-0.061
N5810 X3.7 Y-0.1075
N5815 X3.7209 Y-0.1566
N5820 X3.7376 Y-0.2072
N5825 X3.7508 Y-0.2588
N5830 G2 X3.7812 Y-0.4696 I-1.5213 J-0.3268
N5835 X3.7964 Y-0.8423 I-5.2275 J-0.3997
N5840 G1 X3.7973 Y-0.8956
N5845 X3.7986 Y-1.0554
N5850 X3.7995 Y-1.2153
N5855 X3.7999 Y-1.3752
N5860 Y-1.5351
N5865 X3.8 Y-1.8548
N5870 Y-2.5209
N5875 X3.7944 Y-2.547
N5880 X3.7726 Y-2.5956
N5885 X3.7381 Y-2.6362
N5890 X3.6965 Y-2.6695
N5895 X3.6505 Y-2.6964
N5900 X3.6017 Y-2.718
N5905 X3.5513 Y-2.7353
N5910 X3.4998 Y-2.749
N5915 G2 X3.2892 Y-2.7805 I-0.3267 J1.4655
N5920 X2.9166 Y-2.7962 I-0.3997 J5.0385
N5925 G1 X2.8633 Y-2.7972
N5930 X2.81 Y-2.7978
N5935 X2.7598 Y-2.7983
N5940 G3 X2.6997 Y-2.8157 I0.001 J-0.1158
N5945 G2 X2.6248 Y-2.8529 I-0.2309 J0.3714
N5950 G1 X2.5948 Y-2.8647
N5955 G2 X2.5048 Y-2.8868 I-0.1232 J0.3066
N5960 X2.3998 Y-2.895 I-0.0989 J0.5939
N5965 G1 X1.3502
N5970 G2 X1.2003 Y-2.8792 I0.0014 J0.7347
N5975 G1 X1.1702 Y-2.8702
N5980 X1.1552 Y-2.8647
N5985 X1.1359 Y-2.8581
N5990 X1.0842 Y-2.8452
N5995 G3 X0.8731 Y-2.8168 I-0.3131 J-1.5291
N6000 X0.5004 Y-2.8032 I-0.395 J-5.7302
N6005 G1 X0.4471 Y-2.8023
N6010 X0.4208 Y-2.7978
N6015 X0.3712 Y-2.7783
N6020 X0.329 Y-2.7457
N6025 X0.2941 Y-2.7055
N6030 X0.2654 Y-2.6606
N6035 X0.2422 Y-2.6126
N6040 X0.2234 Y-2.5627
N6045 X0.2084 Y-2.5116
N6050 G2 X0.1731 Y-2.3016 I1.3479 J0.3343
N6055 X0.1547 Y-1.9291 I4.4585 J0.4072
N6060 X0.1511 Y-1.6094 I16.0727 J0.3386
N6065 G1 X0.1504 Y-1.3962
N6070 X0.1502 Y-1.1831
N6075 X0.15 Y-0.9166
N6080 Y-0.4903
N6085 X0.1612 Y-0.4382
N6090 X0.1854 Y-0.3907
N6095 X0.2188 Y-0.3491
N6100 X0.2585 Y-0.3137
N6105 X0.3027 Y-0.2838
N6110 X0.3498 Y-0.259
N6115 X0.399 Y-0.2385
N6120 X0.4496 Y-0.2216
N6125 G2 X0.6585 Y-0.1803 I0.354 J-1.2403
N6130 G1 X0.6931 Y-0.1763
N6135 G3 X0.7611 Y-0.1443 I-0.013 J0.1159
N6140 G1 X0.7733 Y-0.1326
N6145 X0.7804 Y-0.126
N6150 G2 X0.9302 Y-0.0089 I2.7014 J-3.3017
N6155 G1 X0.9453 Y0.0005
N6160 X1.0503 Y0.0657
N6165 X1.051 Y0.0664
N6170 G2 X1.239 Y0.2501 I0.7919 J-0.6222
N6175 X1.2674 Y0.2601 I0.03 J-0.04
N6180 G1 X2.3654 Y0.295
N6185 G2 X2.3944 Y0.2869 I0.0016 J-0.05
N6190 X2.5937 Y0.1155 I-0.5515 J-0.8427
N6195 G1 X2.5948 Y0.1147
N6200 X2.6247 Y0.1028
N6205 G2 X2.6997 Y0.0657 I-0.1549 J-0.4067
N6210 G1 X2.8047 Y0.0005
N6215 X2.8197 Y-0.009
N6220 X2.8252 Y-0.0128
N6225 X2.8467 Y-0.0274
N6230 X2.8765 Y-0.0444
N6235 X2.9148 Y-0.0623
N6240 X2.9647 Y-0.0809
N6245 X3.0159 Y-0.0955
N6250 G3 X3.2263 Y-0.1286 I0.3252 J1.3833
N6255 G1 X3.2794 Y-0.1336
N6260 X3.3295 Y-0.1516
N6265 X3.3745 Y-0.1803
N6270 X3.4135 Y-0.2166
N6275 X3.4467 Y-0.2582
N6280 X3.4746 Y-0.3036
N6285 X3.4978 Y-0.3516
N6290 X3.517 Y-0.4013
N6295 X3.5327 Y-0.4523
N6300 G2 X3.5714 Y-0.6617 I-1.3397 J-0.3561
N6305 X3.5937 Y-1.0339 I-3.9887 J-0.4249
N6310 X3.5993 Y-1.5668 I-22.9964 J-0.5097
N6315 G1 X3.5996 Y-1.6734
N6320 X3.5998 Y-1.8332
N6325 X3.5999 Y-2.0997
N6330 X3.6 Y-2.2596
N6335 X3.5888 Y-2.3117
N6340 X3.5647 Y-2.3592
N6345 X3.5313 Y-2.4007
N6350 X3.4916 Y-2.4362
N6355 X3.4474 Y-2.4661
N6360 X3.4003 Y-2.4909
N6365 X3.3511 Y-2.5115
N6370 X3.3005 Y-2.5283
N6375 G2 X3.0917 Y-2.5697 I-0.354 J1.2394
N6380 G1 X3.0569 Y-2.5737
N6385 G3 X2.9889 Y-2.6057 I0.013 J-0.1159
N6390 G1 X2.9767 Y-2.6174
N6395 X2.9696 Y-2.624
N6400 G2 X2.8198 Y-2.7411 I-2.7012 J3.3014
N6405 G1 X2.8047 Y-2.7505
N6410 X2.6997 Y-2.8157
N6415 X2.699 Y-2.8164
N6420 G2 X2.511 Y-3.0001 I-0.7919 J0.6222
N6425 X2.4826 Y-3.0101 I-0.03 J0.04
N6430 G1 X1.3846 Y-3.045
N6435 G2 X1.3556 Y-3.0369 I-0.0016 J0.05
N6440 X1.1563 Y-2.8655 I0.5515 J0.8427
N6445 G1 X1.1552 Y-2.8647
N6450 X1.1253 Y-2.8528
N6455 G2 X1.0503 Y-2.8157 I0.1549 J0.4067
N6460 G1 X0.9453 Y-2.7505
N6465 X0.9303 Y-2.741
N6470 X0.9248 Y-2.7372
N6475 X0.9033 Y-2.7226
N6480 X0.8735 Y-2.7056
N6485 X0.8353 Y-2.6877
N6490 X0.7853 Y-2.6691
N6495 X0.7341 Y-2.6545
N6500 X0.682 Y-2.643
N6505 X0.6322 Y-2.6242
N6510 X0.587 Y-2.5958
N6515 X0.5475 Y-2.5602
N6520 X0.5134 Y-2.5191
N6525 X0.4846 Y-2.4743
N6530 X0.4604 Y-2.4269
N6535 X0.4402 Y-2.3775
N6540 X0.4235 Y-2.3269
N6545 G2 X0.3819 Y-2.1181 I1.2751 J0.3628
N6550 G1 X0.3795 Y-2.1046
N6555 X0.3759 Y-2.0913
N6560 X0.3709 Y-2.0786
N6565 X0.3641 Y-2.0636
N6570 X0.3576 Y-2.0486
N6575 X0.3513 Y-2.0336
N6580 X0.3102 Y-1.9289
N6585 X0.3046 Y-1.9139
N6590 X0.2944 Y-1.884
N6595 X0.2902 Y-1.869
N6600 X0.2615 Y-1.7642
N6605 X0.2537 Y-1.7343
N6610 X0.2504 Y-1.7193
N6615 X0.2453 Y-1.6894
N6620 X0.2259 Y-1.5696
N6625 X0.2256 Y-1.5663
N6630 X0.2228 Y-1.5397
N6635 G2 X0.2141 Y-1.375 I5.2121 J0.3588
N6640 X0.2227 Y-1.2103 I5.69 J-0.2157
N6645 G1 X0.2256 Y-1.1837
N6650 X0.2259 Y-1.1804
N6655 X0.2453 Y-1.0606
N6660 X0.2504 Y-1.0307
N6665 X0.2537 Y-1.0157
N6670 X0.2615 Y-0.9858
N6675 X0.2902 Y-0.881
N6680 X0.3021 Y-0.8291
N6685 X0.3127 Y-0.7769
N6690 X0.321 Y-0.7242
N6695 X0.3342 Y-0.6726
N6700 X0.3573 Y-0.6245
N6705 X0.3886 Y-0.5814
N6710 X0.4262 Y-0.5436
N6715 G3 X0.457 Y-0.5114 I-0.0706 J0.0983
N6720 G1 X0.46 Y-0.5068
N6725 X0.5298 Y-0.402
N6730 G2 X0.5638 Y-0.3571 I0.3875 J-0.2583
N6735 G1 X0.6385 Y-0.2673
N6740 X0.6454 Y-0.2592
N6745 X0.6513 Y-0.2523
N6750 X0.6604 Y-0.2421
N6755 X0.6959 Y-0.2074
N6760 X0.7611 Y-0.1443
N6765 G3 X0.7745 Y-0.1171 I-0.036 J0.0347
N6770 G1 X0.7754 Y-0.1115 Z-0.9997
N6775 X0.7762 Y-0.1061 Z-0.9987
N6780 X0.777 Y-0.1007 Z-0.9972
N6785 X0.7778 Y-0.0956 Z-0.995
N6790 X0.7785 Y-0.0908 Z-0.9923
N6795 X0.7792 Y-0.0862 Z-0.9891
N6800 X0.7798 Y-0.0821 Z-0.9854
N6805 X0.7804 Y-0.0784 Z-0.9812
N6810 X0.7809 Y-0.0752 Z-0.9766
N6815 X0.7813 Y-0.0725 Z-0.9717
N6820 X0.7816 Y-0.0704 Z-0.9665
N6825 X0.7818 Y-0.0689 Z-0.9611
N6830 X0.782 Y-0.0679 Z-0.9556
N6835 Y-0.0676 Z-0.95
N6840 G0 Z0.
N6845 G1 X0.2374 Y-0.9416 F500.
N6850 G0 Z-0.9
N6855 G1 Z-0.95 F22.8
N6860 X0.2377 Y-0.9414 Z-0.9556
N6865 X0.2383 Y-0.9407 Z-0.9611
N6870 X0.2395 Y-0.9397 Z-0.9665
N6875 X0.241 Y-0.9382 Z-0.9717
N6880 X0.243 Y-0.9363 Z-0.9766
N6885 X0.2454 Y-0.9341 Z-0.9812
N6890 X0.2481 Y-0.9315 Z-0.9854
N6895 X0.2511 Y-0.9286 Z-0.9891
N6900 X0.2544 Y-0.9255 Z-0.9923
N6905 X0.258 Y-0.9221 Z-0.995
N6910 X0.2617 Y-0.9186 Z-0.9972
N6915 X0.2656 Y-0.9148 Z-0.9987
N6920 X0.2697 Y-0.911 Z-0.9997
N6925 X0.2737 Y-0.9072 Z-1.
N6930 G3 X0.2902 Y-0.881 I-0.0429 J0.0452
N6935 G1 X0.2944 Y-0.866
N6940 X0.3046 Y-0.8361
N6945 X0.3102 Y-0.8211
N6950 X0.3513 Y-0.7164
N6955 X0.3576 Y-0.7014
N6960 X0.3641 Y-0.6864
N6965 X0.3709 Y-0.6714
N6970 X0.4255 Y-0.5667
N6975 X0.4335 Y-0.5517
N6980 X0.4505 Y-0.5215
N6985 X0.457 Y-0.5114
N6990 G3 X0.4639 Y-0.4817 I-0.043 J0.0256
N6995 G1 X0.4635 Y-0.4761 Z-0.9997
N7000 X0.463 Y-0.4706 Z-0.9987
N7005 X0.4626 Y-0.4652 Z-0.9972
N7010 X0.4622 Y-0.4601 Z-0.995
N7015 X0.4618 Y-0.4552 Z-0.9923
N7020 X0.4614 Y-0.4506 Z-0.9891
N7025 X0.4611 Y-0.4465 Z-0.9854
N7030 X0.4608 Y-0.4427 Z-0.9812
N7035 X0.4605 Y-0.4395 Z-0.9766
N7040 X0.4603 Y-0.4368 Z-0.9717
N7045 X0.4601 Y-0.4347 Z-0.9665
N7050 X0.46 Y-0.4331 Z-0.9611
N7055 X0.4599 Y-0.4322 Z-0.9556
N7060 Y-0.4319 Z-0.95
N7065 G0 Z0.
N7070 G1 X0.962 Y-2.8084 F500.
N7075 G0 Z-0.9
N7080 G1 Z-0.95 F22.8
N7085 X0.9619 Y-2.8081 Z-0.9556
N7090 X0.9615 Y-2.8072 Z-0.9611
N7095 X0.9609 Y-2.8058 Z-0.9665
N7100 X0.9601 Y-2.8038 Z-0.9717
N7105 X0.9591 Y-2.8013 Z-0.9766
N7110 X0.9579 Y-2.7983 Z-0.9812
N7115 X0.9565 Y-2.7948 Z-0.9854
N7120 X0.9549 Y-2.7909 Z-0.9891
N7125 X0.9532 Y-2.7867 Z-0.9923
N7130 X0.9513 Y-2.7822 Z-0.995
N7135 X0.9494 Y-2.7774 Z-0.9972
N7140 X0.9473 Y-2.7724 Z-0.9987
N7145 X0.9453 Y-2.7672 Z-0.9997
N7150 X0.9432 Y-2.7621 Z-1.
N7155 G3 X0.9248 Y-2.7372 I-0.0577 J-0.0235
N7160 G1 X0.9003 Y-2.7187
N7165 G2 X0.7731 Y-2.6176 I2.0792 J2.7478
N7170 G1 X0.7504 Y-2.5953
N7175 X0.6959 Y-2.5426
N7180 X0.6604 Y-2.5079
N7185 X0.6513 Y-2.4977
N7190 G2 X0.5515 Y-2.3779 I4.2608 J3.6532
N7195 G1 X0.5405 Y-2.3635
N7200 X0.5298 Y-2.348
N7205 X0.46 Y-2.2432
N7210 X0.4504 Y-2.2282
N7215 X0.4335 Y-2.1983
N7220 X0.4255 Y-2.1833
N7225 X0.3709 Y-2.0786
N7230 G3 X0.3485 Y-2.0579 I-0.0435 J-0.0246
N7235 G1 X0.3434 Y-2.0555 Z-0.9997
N7240 X0.3384 Y-2.0532 Z-0.9987
N7245 X0.3336 Y-2.0509 Z-0.9972
N7250 X0.3289 Y-2.0487 Z-0.995
N7255 X0.3244 Y-2.0466 Z-0.9923
N7260 X0.3203 Y-2.0447 Z-0.9891
N7265 X0.3165 Y-2.0429 Z-0.9854
N7270 X0.3131 Y-2.0414 Z-0.9812
N7275 X0.3102 Y-2.04 Z-0.9766
N7280 X0.3077 Y-2.0388 Z-0.9717
N7285 X0.3058 Y-2.0379 Z-0.9665
N7290 X0.3044 Y-2.0373 Z-0.9611
N7295 X0.3035 Y-2.0369 Z-0.9556
N7300 X0.3032 Y-2.0367 Z-0.95
N7305 G0 Z0.
N7310 G1 X2.788 Y0.0584 F500.
N7315 G0 Z-0.9
N7320 G1 Z-0.95 F22.8
N7325 X2.7881 Y0.0581 Z-0.9556
N7330 X2.7885 Y0.0572 Z-0.9611
N7335 X2.7891 Y0.0558 Z-0.9665
N7340 X2.7899 Y0.0538 Z-0.9717
N7345 X2.7909 Y0.0513 Z-0.9766
N7350 X2.7921 Y0.0483 Z-0.9812
N7355 X2.7935 Y0.0448 Z-0.9854
N7360 X2.7951 Y0.0409 Z-0.9891
N7365 X2.7968 Y0.0367 Z-0.9923
N7370 X2.7987 Y0.0322 Z-0.995
N7375 X2.8006 Y0.0274 Z-0.9972
N7380 X2.8027 Y0.0224 Z-0.9987
N7385 X2.8047 Y0.0172 Z-0.9997
N7390 X2.8069 Y0.0121 Z-1.
N7395 G3 X2.8252 Y-0.0128 I0.0577 J0.0235
N7400 G1 X2.8497 Y-0.0313
N7405 G2 X2.9769 Y-0.1324 I-2.0789 J-2.7474
N7410 G1 X2.9996 Y-0.1547
N7415 X3.0146 Y-0.1692
N7420 X3.0404 Y-0.1917
N7425 X3.0831 Y-0.2235
N7430 X3.1255 Y-0.2558
N7435 X3.1646 Y-0.2921
N7440 X3.1998 Y-0.3321
N7445 X3.2308 Y-0.3754
N7450 X3.2578 Y-0.4214
N7455 X3.2811 Y-0.4693
N7460 G3 X3.3071 Y-0.5346 I12.8486 J5.0823
N7465 G1 X3.3106 Y-0.5412
N7470 X3.3165 Y-0.5517
N7475 X3.3245 Y-0.5667
N7480 X3.3791 Y-0.6714
N7485 X3.3859 Y-0.6864
N7490 X3.3924 Y-0.7014
N7495 X3.3987 Y-0.7164
N7500 X3.4398 Y-0.8211
N7505 X3.4454 Y-0.8361
N7510 X3.4556 Y-0.866
N7515 X3.4598 Y-0.881
N7520 X3.4885 Y-0.9858
N7525 X3.4963 Y-1.0157
N7530 X3.4996 Y-1.0307
N7535 X3.5047 Y-1.0606
N7540 X3.5241 Y-1.1804
N7545 X3.5244 Y-1.1837
N7550 X3.5272 Y-1.2103
N7555 G2 X3.5359 Y-1.375 I-5.2111 J-0.3587
N7560 X3.5273 Y-1.5397 I-5.689 J0.2157
N7565 G1 X3.5244 Y-1.5663
N7570 X3.5241 Y-1.5696
N7575 X3.5047 Y-1.6894
N7580 X3.4996 Y-1.7193
N7585 X3.4963 Y-1.7343
N7590 X3.4885 Y-1.7642
N7595 X3.4598 Y-1.869
N7600 X3.4479 Y-1.9209
N7605 X3.4372 Y-1.9731
N7610 X3.429 Y-2.0258
N7615 X3.4158 Y-2.0774
N7620 X3.3927 Y-2.1255
N7625 X3.3614 Y-2.1686
N7630 X3.3238 Y-2.2064
N7635 G3 X3.293 Y-2.2386 I0.0706 J-0.0983
N7640 G1 X3.29 Y-2.2432
N7645 X3.2202 Y-2.348
N7650 G2 X3.1862 Y-2.3929 I-0.3876 J0.2583
N7655 G1 X3.1115 Y-2.4827
N7660 X3.1046 Y-2.4908
N7665 X3.0987 Y-2.4977
N7670 X3.0896 Y-2.5079
N7675 X3.0541 Y-2.5426
N7680 X2.9889 Y-2.6057
N7685 G3 X2.9755 Y-2.6329 I0.036 J-0.0347
N7690 G1 X2.9746 Y-2.6385 Z-0.9997
N7695 X2.9738 Y-2.6439 Z-0.9987
N7700 X2.973 Y-2.6493 Z-0.9972
N7705 X2.9722 Y-2.6544 Z-0.995
N7710 X2.9715 Y-2.6592 Z-0.9923
N7715 X2.9708 Y-2.6638 Z-0.9891
N7720 X2.9702 Y-2.6679 Z-0.9854
N7725 X2.9696 Y-2.6716 Z-0.9812
N7730 X2.9691 Y-2.6748 Z-0.9766
N7735 X2.9687 Y-2.6775 Z-0.9717
N7740 X2.9684 Y-2.6796 Z-0.9665
N7745 X2.9682 Y-2.6811 Z-0.9611
N7750 X2.968 Y-2.6821 Z-0.9556
N7755 Y-2.6824 Z-0.95
N7760 G0 Z0.
N7765 G1 X3.5126 Y-1.8084 F500.
N7770 G0 Z-0.9
N7775 G1 Z-0.95 F22.8
N7780 X3.5123 Y-1.8086 Z-0.9556
N7785 X3.5117 Y-1.8093 Z-0.9611
N7790 X3.5105 Y-1.8103 Z-0.9665
N7795 X3.509 Y-1.8118 Z-0.9717
N7800 X3.507 Y-1.8137 Z-0.9766
N7805 X3.5046 Y-1.8159 Z-0.9812
N7810 X3.5019 Y-1.8185 Z-0.9854
N7815 X3.4989 Y-1.8214 Z-0.9891
N7820 X3.4956 Y-1.8245 Z-0.9923
N7825 X3.492 Y-1.8279 Z-0.995
N7830 X3.4883 Y-1.8314 Z-0.9972
N7835 X3.4844 Y-1.8352 Z-0.9987
N7840 X3.4803 Y-1.839 Z-0.9997
N7845 X3.4763 Y-1.8428 Z-1.
N7850 G3 X3.4598 Y-1.869 I0.0429 J-0.0452
N7855 G1 X3.4556 Y-1.884
N7860 X3.4454 Y-1.9139
N7865 X3.4398 Y-1.9289
N7870 X3.3987 Y-2.0336
N7875 X3.3924 Y-2.0486
N7880 X3.3859 Y-2.0636
N7885 X3.3791 Y-2.0786
N7890 X3.3245 Y-2.1833
N7895 X3.3165 Y-2.1983
N7900 X3.2995 Y-2.2285
N7905 X3.293 Y-2.2386
N7910 G3 X3.2861 Y-2.2683 I0.043 J-0.0256
N7915 G1 X3.2865 Y-2.2739 Z-0.9997
N7920 X3.287 Y-2.2794 Z-0.9987
N7925 X3.2874 Y-2.2847 Z-0.9972
N7930 X3.2878 Y-2.2899 Z-0.995
N7935 X3.2882 Y-2.2948 Z-0.9923
N7940 X3.2886 Y-2.2993 Z-0.9891
N7945 X3.289 Y-2.3035 Z-0.9854
N7950 X3.2893 Y-2.3072 Z-0.9812
N7955 X3.2895 Y-2.3105 Z-0.9766
N7960 X3.2897 Y-2.3132 Z-0.9717
N7965 X3.2899 Y-2.3153 Z-0.9665
N7970 X3.29 Y-2.3169 Z-0.9611
N7975 X3.2901 Y-2.3178 Z-0.9556
N7980 Y-2.3181 Z-0.95
N7985 G0 Z0.
N7990 G1 X2.9863 Y-0.094 F500.
N7995 G0 Z-0.9
N8000 G1 Z-0.95 F22.8
N8005 X2.9864 Y-0.0943 Z-0.9556
N8010 X2.9866 Y-0.0952 Z-0.9611
N8015 X2.987 Y-0.0967 Z-0.9665
N8020 X2.9876 Y-0.0988 Z-0.9717
N8025 X2.9883 Y-0.1014 Z-0.9766
N8030 X2.9891 Y-0.1046 Z-0.9812
N8035 X2.9901 Y-0.1082 Z-0.9854
N8040 X2.9912 Y-0.1122 Z-0.9891
N8045 X2.9924 Y-0.1166 Z-0.9923
N8050 X2.9937 Y-0.1214 Z-0.995
N8055 X2.995 Y-0.1264 Z-0.9972
N8060 X2.9965 Y-0.1316 Z-0.9987
N8065 X2.9979 Y-0.1369 Z-0.9997
N8070 X2.9994 Y-0.1423 Z-1.
N8075 G3 X3.0146 Y-0.1692 I0.0601 J0.0163
N8080 G1 X3.0541 Y-0.2074
N8085 X3.0896 Y-0.2421
N8090 X3.0987 Y-0.2523
N8095 G2 X3.1985 Y-0.3721 I-4.2603 J-3.6527
N8100 G1 X3.2095 Y-0.3865
N8105 X3.2202 Y-0.402
N8110 X3.29 Y-0.5068
N8115 X3.2996 Y-0.5218
N8120 X3.3106 Y-0.5412
N8125 G3 X3.3336 Y-0.5612 I0.0427 J0.026
N8130 G1 X3.3387 Y-0.5634 Z-0.9997
N8135 X3.3438 Y-0.5655 Z-0.9987
N8140 X3.3488 Y-0.5677 Z-0.9972
N8145 X3.3535 Y-0.5697 Z-0.995
N8150 X3.358 Y-0.5716 Z-0.9923
N8155 X3.3623 Y-0.5734 Z-0.9891
N8160 X3.3661 Y-0.5751 Z-0.9854
N8165 X3.3695 Y-0.5766 Z-0.9812
N8170 X3.3725 Y-0.5778 Z-0.9766
N8175 X3.375 Y-0.5789 Z-0.9717
N8180 X3.377 Y-0.5798 Z-0.9665
N8185 X3.3784 Y-0.5804 Z-0.9611
N8190 X3.3793 Y-0.5807 Z-0.9556
N8195 X3.3796 Y-0.5809 Z-0.95
N8200 G0 Z0.3

(Roughing Contour)
N8205 Z0.6
N8210 G1 X0.0374 Y-3.406 F500.
N8215 G0 Z0.6
N8220 Z-0.75
N8225 G1 Z-1.2 F22.8
N8230 X0.0376 Y-3.4057 Z-1.2056
N8235 X0.038 Y-3.4048 Z-1.2111
N8240 X0.0387 Y-3.4035 Z-1.2165
N8245 X0.0396 Y-3.4015 Z-1.2217
N8250 X0.0409 Y-3.3991 Z-1.2266
N8255 X0.0423 Y-3.3962 Z-1.2312
N8260 X0.044 Y-3.3929 Z-1.2354
N8265 X0.0459 Y-3.3891 Z-1.2391
N8270 X0.0479 Y-3.3851 Z-1.2423
N8275 X0.0501 Y-3.3807 Z-1.245
N8280 X0.0525 Y-3.376 Z-1.2472
N8285 X0.0549 Y-3.3712 Z-1.2487
N8290 X0.0574 Y-3.3663 Z-1.2497
N8295 X0.0599 Y-3.3613 Z-1.25
N8300 X0.3016 Y-2.8802
N8305 G3 X0.2793 Y-2.8131 I-0.0447 J0.0224
N8310 G2 X-0.145 Y-2.125 I0.3457 J0.6881
N8315 G1 Y-0.625
N8320 G2 X0.625 Y0.145 I0.77 J0.
N8325 G1 X3.125
N8330 G2 X3.895 Y-0.625 I0. J-0.77
N8335 G1 Y-2.125
N8340 G2 X3.125 Y-2.895 I-0.77 J0.
N8345 G1 X0.625
N8350 G2 X0.2793 Y-2.8131 I0. J0.77
N8355 G3 X0.2122 Y-2.8353 I-0.0224 J-0.0447
N8360 G1 X0.1898 Y-2.88
N8365 X0.1873 Y-2.885 Z-1.2497
N8370 X0.1848 Y-2.8899 Z-1.2487
N8375 X0.1824 Y-2.8947 Z-1.2472
N8380 X0.18 Y-2.8994 Z-1.245
N8385 X0.1778 Y-2.9037 Z-1.2423
N8390 X0.1758 Y-2.9078 Z-1.2391
N8395 X0.1739 Y-2.9116 Z-1.2354
N8400 X0.1722 Y-2.9149 Z-1.2312
N8405 X0.1708 Y-2.9178 Z-1.2266
N8410 X0.1695 Y-2.9202 Z-1.2217
N8415 X0.1686 Y-2.9221 Z-1.2165
N8420 X0.1679 Y-2.9235 Z-1.2111
N8425 X0.1675 Y-2.9244 Z-1.2056
N8430 X0.1673 Y-2.9246 Z-1.2
N8435 G0 Z0.2
N8440 G1 X0.0374 Y-3.406 F500.
N8445 G0 Z-0.75
N8450 G1 Z-1.5 F100.
N8455 X0.0376 Y-3.4057 Z-1.5056 F22.8
N8460 X0.038 Y-3.4048 Z-1.5111
N8465 X0.0387 Y-3.4035 Z-1.5165
N8470 X0.0396 Y-3.4015 Z-1.5217
N8475 X0.0409 Y-3.3991 Z-1.5266
N8480 X0.0423 Y-3.3962 Z-1.5312
N8485 X0.044 Y-3.3929 Z-1.5354
N8490 X0.0459 Y-3.3891 Z-1.5391
N8495 X0.0479 Y-3.3851 Z-1.5423
N8500 X0.0501 Y-3.3807 Z-1.545
N8505 X0.0525 Y-3.376 Z-1.5472
N8510 X0.0549 Y-3.3712 Z-1.5487
N8515 X0.0574 Y-3.3663 Z-1.5497
N8520 X0.0599 Y-3.3613 Z-1.55
N8525 X0.3016 Y-2.8802
N8530 G3 X0.2793 Y-2.8131 I-0.0447 J0.0224
N8535 G2 X-0.145 Y-2.125 I0.3457 J0.6881
N8540 G1 Y-0.625
N8545 G2 X0.625 Y0.145 I0.77 J0.
N8550 G1 X3.125
N8555 G2 X3.895 Y-0.625 I0. J-0.77
N8560 G1 Y-2.125
N8565 G2 X3.125 Y-2.895 I-0.77 J0.
N8570 G1 X0.625
N8575 G2 X0.2793 Y-2.8131 I0. J0.77
N8580 G3 X0.2122 Y-2.8353 I-0.0224 J-0.0447
N8585 G1 X0.1898 Y-2.88
N8590 X0.1873 Y-2.885 Z-1.5497
N8595 X0.1848 Y-2.8899 Z-1.5487
N8600 X0.1824 Y-2.8947 Z-1.5472
N8605 X0.18 Y-2.8994 Z-1.545
N8610 X0.1778 Y-2.9037 Z-1.5423
N8615 X0.1758 Y-2.9078 Z-1.5391
N8620 X0.1739 Y-2.9116 Z-1.5354
N8625 X0.1722 Y-2.9149 Z-1.5312
N8630 X0.1708 Y-2.9178 Z-1.5266
N8635 X0.1695 Y-2.9202 Z-1.5217
N8640 X0.1686 Y-2.9221 Z-1.5165
N8645 X0.1679 Y-2.9235 Z-1.5111
N8650 X0.1675 Y-2.9244 Z-1.5056
N8655 X0.1673 Y-2.9246 Z-1.5
N8660 G0 Z0.6

(Finishing Contour)
N8665 G1 X1.4256 Y-2.875 F500.
N8670 G0 Z0.6
N8675 Z0.2
N8680 G1 Z-0.95 F100.
N8685 G18 G3 X1.3756 Z-1. I-0.05 K0. F22.8
N8690 G1 X1.3256
N8695 G17 G2 X1.0848 Y-2.8132 I0. J0.5
N8700 Y0.0632 I0.7902 J1.4382
N8705 X1.3256 Y0.125 I0.2408 J-0.4382
N8710 G1 X1.3756
N8715 G18 G2 X1.4256 Z-0.95 I0. K0.05
N8720 G0 Z0.2
N8725 X2.3244
N8730 G1 Z-0.95 F100.
N8735 G2 X2.3744 Z-1. I0.05 K0. F22.8
N8740 G1 X2.4244
N8745 G17 G2 X2.6652 Y0.0632 I0. J-0.5
N8750 Y-2.8132 I-0.7902 J-1.4382
N8755 X2.4244 Y-2.875 I-0.2408 J0.4382
N8760 G1 X2.3744
N8765 G18 G3 X2.3244 Z-0.95 I0. K0.05
N8770 G0 Z0.6
N8775 G1 X0.525 Y0.125 F500.
N8780 G0 Z0.2
N8785 G1 Z-1.45 F100.
N8790 G2 X0.575 Z-1.5 I0.05 K0. F22.8
N8795 G1 X0.625
N8800 X3.125
N8805 G17 G2 X3.875 Y-0.625 I0. J-0.75
N8810 G1 Y-2.125
N8815 G2 X3.125 Y-2.875 I-0.75 J0.
N8820 G1 X0.625
N8825 G2 X-0.125 Y-2.125 I0. J0.75
N8830 G1 Y-0.625
N8835 G2 X0.625 Y0.125 I0.75 J0.
N8840 G1 X0.675
N8845 G18 G2 X0.725 Z-1.45 I0. K0.05
N8850 G0 Z0.6
N8855 M9
N8860 M5
N8865 G53 G0 Z0.

(Plunge Drill)
N8870 M1
N8875 T1 M6
N8880 S550 M3
N8885 G54
N8890 M11
N8895 M13
N8900 G0 A0. B0.
N8905 M10
N8910 M12
N8915 M8
N8920 G17
N8925 G0 X1.875 Y-1.375
N8930 G43 Z0.4 H1
N8935 T3
N8940 G0 Z0.2
N8945 G98 G81 X1.875 Y-1.375 Z-1.0626 R0. F2.
N8950 G80
N8955 G0 Z0.4

(Drilling)
N8960 Z0.6
N8965 G1 X3.25 Y-0.5 F500.
N8970 G0 Z0.6
N8975 Z0.2
N8980 G98 G81 X3.25 Y-0.5 Z-1.5939 R-0.8 F2.
N8985 Y-2.25
N8990 X0.5
N8995 Y-0.5
N9000 G80
N9005 G0 Z0.6
N9010 M9
N9015 M5
N9020 G53 G0 Z0.

(Pocket Roughing)
N9025 M1
N9030 T3 M6
N9035 S2280 M3
N9040 G54
N9045 M11
N9050 M13
N9055 G0 A0. B0.
N9060 M10
N9065 M12
N9070 M8
N9075 G0 X1.875 Y-1.375
N9080 G43 Z0.6 H3
N9085 T4
N9090 G0 Z-0.2034
N9095 G1 Z-0.2206 F100.
N9100 Z-0.36 F22.8
N9105 G3 X1.8628 Y-1.3622 I-0.0125 J0.0003
N9110 G1 X1.7716 Y-1.3603
N9115 G3 X1.7589 Y-1.3725 I-0.0003 J-0.0125
N9120 X1.9925 Y-1.3775 I0.1168 J-0.0025
N9125 X1.7589 Y-1.3725 I-0.1168 J0.0025
N9130 G2 X1.6874 Y-1.4987 I-0.1529 J0.0033
N9135 G3 X1.6829 Y-1.6436 I0.0465 J-0.074
N9140 X2.0685 Y-1.1064 I0.1928 J0.2686
N9145 X1.6829 Y-1.6436 I-0.1928 J-0.2686
N9150 G2 X1.7508 Y-1.7949 I-0.0962 J-0.134
N9155 G3 X1.8601 Y-1.9197 I0.1123 J-0.0118
N9160 X2.3021 Y-1.7138 I0.0149 J0.5456
N9165 X2.2779 Y-1.0073 I-0.4241 J0.3391
N9170 X1.4283 Y-1.0623 I-0.4028 J-0.3665
N9175 X1.368 Y-1.1793 I0.4118 J-0.2863
N9180 X1.3322 Y-1.3059 I0.909 J-0.326
N9185 X1.3953 Y-1.6515 I0.4536 J-0.0957
N9190 X1.6641 Y-1.8775 I0.4966 J0.3177
N9195 X1.8601 Y-1.9197 I0.2108 J0.5035
N9200 G2 X2.0059 Y-2.0134 I-0.0046 J-0.1674
N9205 G3 X2.1681 Y-2.0745 I0.1136 J0.0557
N9210 X2.2542 Y-2.0323 I-0.299 J0.7187
N9215 X2.5237 Y-1.7633 I-0.3572 J0.6275
N9220 X2.6447 Y-1.4023 I-0.8469 J0.4845
N9225 X2.6287 Y-1.223 I-0.4176 J0.0533
N9230 X2.5636 Y-1.0552 I-1.2909 J-0.4049
N9235 X1.6701 Y-0.644 I-0.6897 J-0.3223
N9240 X1.3095 Y-0.8719 I0.1924 J-0.7034
N9245 X1.1241 Y-1.2562 I0.6275 J-0.5395
N9250 X1.4408 Y-2.0058 I0.72 J-0.1375
N9255 X2.1681 Y-2.0745 I0.4283 J0.65
N9260 G2 X2.3526 Y-2.1032 I0.0688 J-0.1654
N9265 G3 X2.5394 Y-2.1015 I0.0924 J0.1092
N9270 G1 X2.5542 Y-2.0885
N9275 X2.6029 Y-2.0386
N9280 X2.6454 Y-1.9883
N9285 X2.6674 Y-1.9592
N9290 X2.693 Y-1.9237
N9295 X2.6991 Y-1.9143
N9300 X2.7305 Y-1.8631
N9305 X2.7435 Y-1.8387
N9310 X2.7681 Y-1.7905
N9315 X2.7934 Y-1.731
N9320 X2.7996 Y-1.7139
N9325 X2.8186 Y-1.658
N9330 X2.8241 Y-1.6384
N9335 X2.8373 Y-1.5873
N9340 X2.8476 Y-1.5356
N9345 X2.8478 Y-1.5348
N9350 X2.8518 Y-1.5156
N9355 X2.8578 Y-1.4829
N9360 X2.8584 Y-1.4799
N9365 X2.8645 Y-1.453
N9370 X2.8648 Y-1.4519
N9375 X2.8691 Y-1.4341
N9380 X2.8701 Y-1.4127
N9385 X2.8708 Y-1.3874
N9390 Y-1.3628
N9395 X2.8692 Y-1.317
N9400 X2.8678 Y-1.3098
N9405 X2.8585 Y-1.2709
N9410 X2.8578 Y-1.2673
N9415 X2.8503 Y-1.2275
N9420 X2.8374 Y-1.1628
N9425 X2.824 Y-1.1115
N9430 X2.8185 Y-1.0918
N9435 X2.7995 Y-1.0361
N9440 X2.7933 Y-1.0188
N9445 X2.7681 Y-0.9597
N9450 X2.7434 Y-0.9111
N9455 X2.7305 Y-0.8869
N9460 X2.6925 Y-0.8255
N9465 X2.6642 Y-0.7864
N9470 X2.6456 Y-0.7617
N9475 X2.6031 Y-0.7115
N9480 X2.5542 Y-0.6615
N9485 X2.4971 Y-0.6113
N9490 X2.441 Y-0.5688
N9495 X2.3904 Y-0.536
N9500 X2.3658 Y-0.5213
N9505 X2.3153 Y-0.4938
N9510 X2.2645 Y-0.4707
N9515 X2.24 Y-0.4603
N9520 X2.1886 Y-0.4414
N9525 X2.1728 Y-0.4361
N9530 X2.1135 Y-0.419
N9535 X2.063 Y-0.4075
N9540 X2.0374 Y-0.4028
N9545 X2.0355 Y-0.4024
N9550 X2.0163 Y-0.3983
N9555 X1.9836 Y-0.3924
N9560 X1.9801 Y-0.3917
N9565 X1.9463 Y-0.3838
N9570 X1.9341 Y-0.3809
N9575 X1.9128 Y-0.3799
N9580 X1.8875 Y-0.3792
N9585 X1.8627
N9590 X1.8179 Y-0.3807
N9595 X1.8169
N9600 X1.8102 Y-0.3821
N9605 X1.7703 Y-0.3916
N9610 X1.7672 Y-0.3923
N9615 X1.7135 Y-0.4026
N9620 X1.688 Y-0.4078
N9625 X1.6105 Y-0.4262
N9630 X1.5873 Y-0.4334
N9635 X1.4942 Y-0.4666
N9640 X1.398 Y-0.5134
N9645 X1.3062 Y-0.571
N9650 X1.2216 Y-0.638
N9655 X1.1451 Y-0.7137
N9660 X1.0819 Y-0.7915
N9665 X1.0675 Y-0.8115
N9670 X1.0504 Y-0.8369
N9675 X1.0345 Y-0.8616
N9680 X1.0056 Y-0.9118
N9685 X0.9809 Y-0.9622
N9690 X0.97 Y-0.9867
N9695 X0.9497 Y-1.0369
N9700 X0.9313 Y-1.0934
N9705 X0.9256 Y-1.1122
N9710 X0.9128 Y-1.1628
N9715 X0.9062 Y-1.1944
N9720 X0.9025 Y-1.2139
N9725 X0.9022 Y-1.2152
N9730 X0.8982 Y-1.2344
N9735 X0.8922 Y-1.2671
N9740 X0.8916 Y-1.2701
N9745 X0.8855 Y-1.297
N9750 X0.8852 Y-1.2981
N9755 X0.8809 Y-1.3159
N9760 X0.8799 Y-1.3373
N9765 X0.8792 Y-1.3626
N9770 Y-1.3873
N9775 X0.8806 Y-1.4297
N9780 X0.8808 Y-1.433
N9785 X0.8822 Y-1.4402
N9790 X0.8915 Y-1.4791
N9795 X0.8922 Y-1.4823
N9800 X0.9075 Y-1.5623
N9805 X0.9128 Y-1.5871
N9810 X0.9256 Y-1.6377
N9815 X0.9331 Y-1.6622
N9820 X0.9497 Y-1.713
N9825 X0.97 Y-1.7632
N9830 X0.9818 Y-1.7896
N9835 X1.0056 Y-1.8382
N9840 X1.0346 Y-1.8884
N9845 X1.0504 Y-1.9131
N9850 X1.0676 Y-1.9386
N9855 X1.0819 Y-1.9587
N9860 X1.147 Y-2.0385
N9865 X1.2233 Y-2.1136
N9870 X1.3061 Y-2.179
N9875 X1.3999 Y-2.2377
N9880 X1.4941 Y-2.2834
N9885 X1.5871 Y-2.3165
N9890 X1.6137 Y-2.3246
N9895 X1.6881 Y-2.3422
N9900 X1.7335 Y-2.3516
N9905 X1.7664 Y-2.3576
N9910 X1.7699 Y-2.3583
N9915 X1.8037 Y-2.3662
N9920 X1.8159 Y-2.3691
N9925 X1.8372 Y-2.3701
N9930 X1.8625 Y-2.3708
N9935 X1.8873
N9940 X1.9321 Y-2.3693
N9945 X1.9331
N9950 X1.9398 Y-2.3679
N9955 X1.9797 Y-2.3584
N9960 X1.983 Y-2.3577
N9965 X2.0628 Y-2.3425
N9970 X2.1134 Y-2.3311
N9975 X2.1728 Y-2.3138
N9980 X2.1887 Y-2.3086
N9985 X2.2423 Y-2.2888
N9990 X2.2643 Y-2.2794
N9995 X2.3152 Y-2.2562
N10000 X2.3658 Y-2.2284
N10005 X2.3905 Y-2.2138
N10010 X2.4411 Y-2.181
N10015 X2.497 Y-2.1387
N10020 X2.5394 Y-2.1015
N10025 G3 X2.5398 Y-2.0831 I-0.0082 J0.0094
N10030 G1 X2.1915 Y-1.75
N10035 X2.1901 Y-1.7485
N10040 X1.8914 Y-1.3777
N10045 G3 X1.875 Y-1.375 I-0.0097 J-0.0078
N10050 G1 Z-0.4
N10055 G3 X1.8742 Y-1.35 I0. J0.0125
N10060 G1 X1.7872 Y-1.3555
N10065 G3 X1.7755 Y-1.3669 I0.0008 J-0.0125
N10070 X1.9759 Y-1.3832 I0.1002 J-0.0081
N10075 X1.7755 Y-1.3669 I-0.1002 J0.0081
N10080 G2 X1.6959 Y-1.4925 I-0.1593 J0.0129
N10085 G3 X1.6895 Y-1.6411 I0.0439 J-0.0763
N10090 X1.7691 Y-1.6821 I0.1926 J0.2765
N10095 X2.0073 Y-1.6724 I0.1071 J0.301
N10100 X2.1897 Y-1.4587 I-0.135 J0.3
N10105 X2.1838 Y-1.2716 I-0.3082 J0.0839
N10110 X1.9862 Y-1.0689 I-0.3121 J-0.1066
N10115 X1.7688 Y-1.0681 I-0.1098 J-0.3
N10120 X1.6421 Y-1.1489 I0.1138 J-0.3184
N10125 X1.5642 Y-1.2774 I0.2301 J-0.2273
N10130 X1.5643 Y-1.4726 I0.3042 J-0.0975
N10135 X1.6422 Y-1.6013 I0.3088 J0.0991
N10140 X1.6895 Y-1.6411 I0.2399 J0.2367
N10145 G2 X1.7544 Y-1.792 I-0.089 J-0.1277
N10150 G3 X1.8593 Y-1.9186 I0.1089 J-0.0165
N10155 X1.9813 Y-1.9054 I0.0157 J0.426
N10160 X2.4036 Y-1.4868 I-0.1469 J0.5706
N10165 X2.4039 Y-1.2638 I-0.4113 J0.112
N10170 X1.9811 Y-0.8445 I-0.5723 J-0.1543
N10175 X1.7654 Y-0.8455 I-0.1059 J-0.4129
N10180 X1.3452 Y-1.267 I0.1524 J-0.5722
N10185 X1.346 Y-1.4862 I0.4124 J-0.1081
N10190 X1.7651 Y-1.9044 I0.5725 J0.1545
N10195 X1.8593 Y-1.9186 I0.11 J0.4119
N10200 G2 X2.0025 Y-2.0103 I-0.0062 J-0.1674
N10205 G3 X2.163 Y-2.0665 I0.1095 J0.0555
N10210 X2.3981 Y-1.9036 I-0.3354 J0.7353
N10215 X2.6109 Y-1.5394 I-0.5827 J0.5847
N10220 Y-1.2102 I-0.5939 J0.1646
N10225 X2.3981 Y-0.8461 I-0.7945 J-0.2202
N10230 X2.032 Y-0.6369 I-0.5703 J-0.5728
N10235 X1.7153 Y-0.6377 I-0.1569 J-0.6008
N10240 X1.138 Y-1.2146 I0.2097 J-0.7871
N10245 X1.1392 Y-1.54 I0.5961 J-0.1606
N10250 X1.7148 Y-2.1123 I0.7898 J0.2188
N10255 X2.0319 Y-2.1131 I0.1601 J0.5998
N10260 X2.163 Y-2.0665 I-0.2043 J0.7819
N10265 G2 X2.3452 Y-2.0912 I0.0715 J-0.1568
N10270 G3 X2.5291 Y-2.0889 I0.0906 J0.108
N10275 G1 X2.5408 Y-2.0786
N10280 X2.5911 Y-2.0272
N10285 X2.6251 Y-1.9871
N10290 X2.6413 Y-1.9674
N10295 X2.6808 Y-1.9127
N10300 X2.717 Y-1.8538
N10305 X2.7252 Y-1.8385
N10310 X2.7514 Y-1.7877
N10315 X2.773 Y-1.7371
N10320 X2.7827 Y-1.7128
N10325 X2.7998 Y-1.6625
N10330 X2.8068 Y-1.6378
N10335 X2.8179 Y-1.5971
N10340 X2.8185 Y-1.5949
N10345 X2.8303 Y-1.5567
N10350 X2.8403 Y-1.5187
N10355 X2.8422 Y-1.5128
N10360 X2.8461 Y-1.502
N10365 X2.8544 Y-1.4747
N10370 X2.8555 Y-1.4714
N10375 X2.8648 Y-1.4456
N10380 X2.8692 Y-1.432
N10385 X2.8708 Y-1.3872
N10390 Y-1.3628
N10395 X2.8692 Y-1.3177
N10400 X2.8641 Y-1.3019
N10405 X2.8609 Y-1.2938
N10410 X2.8593 Y-1.2891
N10415 X2.8554 Y-1.2766
N10420 X2.8463 Y-1.25
N10425 X2.8451 Y-1.2464
N10430 X2.8427 Y-1.2379
N10435 X2.8345 Y-1.2128
N10440 X2.8329 Y-1.2072
N10445 X2.8292 Y-1.1919
N10450 X2.8182 Y-1.1534
N10455 X2.8178 Y-1.1519
N10460 X2.8073 Y-1.1124
N10465 X2.8 Y-1.088
N10470 X2.7826 Y-1.0371
N10475 X2.773 Y-1.0128
N10480 X2.7515 Y-0.9625
N10485 X2.7167 Y-0.8956
N10490 X2.6808 Y-0.8373
N10495 X2.6414 Y-0.7827
N10500 X2.6162 Y-0.7522
N10505 X2.5912 Y-0.7227
N10510 X2.5409 Y-0.6714
N10515 X2.4907 Y-0.6273
N10520 X2.438 Y-0.587
N10525 X2.4156 Y-0.5717
N10530 X2.3898 Y-0.555
N10535 X2.3651 Y-0.5396
N10540 X2.3146 Y-0.512
N10545 X2.2901 Y-0.5002
N10550 X2.2393 Y-0.4774
N10555 X2.1886 Y-0.4589
N10560 X2.1639 Y-0.4506
N10565 X2.1125 Y-0.4356
N10570 X2.0866 Y-0.429
N10575 X2.083 Y-0.428
N10580 X2.0575 Y-0.42
N10585 X2.0202 Y-0.4102
N10590 X2.0147 Y-0.4085
N10595 X2.0009 Y-0.4036
N10600 X1.9753 Y-0.3958
N10605 X1.972 Y-0.3947
N10610 X1.9458 Y-0.3852
N10615 X1.9326 Y-0.3808
N10620 X1.9257 Y-0.3804
N10625 X1.8874 Y-0.3792
N10630 X1.8627
N10635 X1.8179 Y-0.3808
N10640 X1.8014 Y-0.3861
N10645 X1.7934 Y-0.3892
N10650 X1.7885 Y-0.3909
N10655 X1.776 Y-0.3948
N10660 X1.7499 Y-0.4037
N10665 X1.7458 Y-0.405
N10670 X1.7393 Y-0.4068
N10675 X1.7118 Y-0.4158
N10680 X1.7062 Y-0.4174
N10685 X1.691 Y-0.421
N10690 X1.6657 Y-0.4284
N10695 X1.6641 Y-0.4289
N10700 X1.6119 Y-0.4428
N10705 X1.5878 Y-0.4506
N10710 X1.4999 Y-0.482
N10715 X1.4054 Y-0.528
N10720 X1.3148 Y-0.5851
N10725 X1.234 Y-0.6489
N10730 X1.2218 Y-0.6607
N10735 X1.1572 Y-0.7247
N10740 X1.1054 Y-0.7885
N10745 X1.0864 Y-0.8128
N10750 X1.053 Y-0.8623
N10755 X1.0242 Y-0.9123
N10760 X1.0082 Y-0.9436
N10765 X0.9873 Y-0.9875
N10770 X0.9671 Y-1.0375
N10775 X0.958 Y-1.0642
N10780 X0.9423 Y-1.1129
N10785 X0.9306 Y-1.1581
N10790 X0.9297 Y-1.1614
N10795 X0.9197 Y-1.1934
N10800 X0.9097 Y-1.2313
N10805 X0.9078 Y-1.2372
N10810 X0.904 Y-1.248
N10815 X0.8956 Y-1.2753
N10820 X0.8945 Y-1.2786
N10825 X0.8852 Y-1.3044
N10830 X0.8808 Y-1.318
N10835 X0.8792 Y-1.3628
N10840 Y-1.3873
N10845 X0.8806 Y-1.429
N10850 X0.8808 Y-1.4321
N10855 X0.8859 Y-1.4481
N10860 X0.889 Y-1.4561
N10865 X0.8907 Y-1.4609
N10870 X0.8946 Y-1.4734
N10875 X0.9037 Y-1.5001
N10880 X0.9053 Y-1.5051
N10885 X0.9064 Y-1.5095
N10890 X0.9155 Y-1.5372
N10895 X0.9171 Y-1.5428
N10900 X0.9208 Y-1.5581
N10905 X0.9319 Y-1.5968
N10910 X0.9323 Y-1.5985
N10915 X0.9423 Y-1.637
N10920 X0.9587 Y-1.6881
N10925 X0.9671 Y-1.7125
N10930 X0.9874 Y-1.7627
N10935 X0.9989 Y-1.7873
N10940 X1.0114 Y-1.8129
N10945 X1.0241 Y-1.8376
N10950 X1.053 Y-1.8876
N10955 X1.0865 Y-1.9373
N10960 X1.1079 Y-1.9648
N10965 X1.1589 Y-2.0273
N10970 X1.2343 Y-2.1014
N10975 X1.3176 Y-2.1671
N10980 X1.4077 Y-2.2234
N10985 X1.5026 Y-2.2691
N10990 X1.5878 Y-2.2994
N10995 X1.612 Y-2.3073
N11000 X1.6641 Y-2.3212
N11005 X1.667 Y-2.322
N11010 X1.6925 Y-2.33
N11015 X1.7298 Y-2.3398
N11020 X1.7353 Y-2.3415
N11025 X1.7491 Y-2.3464
N11030 X1.7747 Y-2.3542
N11035 X1.778 Y-2.3553
N11040 X1.8042 Y-2.3648
N11045 X1.8174 Y-2.3692
N11050 X1.8243 Y-2.3696
N11055 X1.8626 Y-2.3708
N11060 X1.8873
N11065 X1.9321 Y-2.3692
N11070 X1.9486 Y-2.3639
N11075 X1.9567 Y-2.3608
N11080 X1.9614 Y-2.3591
N11085 X1.974 Y-2.3552
N11090 X2.0001 Y-2.3463
N11095 X2.0044 Y-2.3449
N11100 X2.0107 Y-2.3432
N11105 X2.0382 Y-2.3342
N11110 X2.0438 Y-2.3326
N11115 X2.059 Y-2.329
N11120 X2.0843 Y-2.3216
N11125 X2.0865 Y-2.321
N11130 X2.1169 Y-2.3132
N11135 X2.164 Y-2.2994
N11140 X2.1886 Y-2.2912
N11145 X2.2392 Y-2.2725
N11150 X2.2901 Y-2.2496
N11155 X2.3145 Y-2.2379
N11160 X2.3649 Y-2.2103
N11165 X2.401 Y-2.1876
N11170 X2.4155 Y-2.1781
N11175 X2.4403 Y-2.1612
N11180 X2.4907 Y-2.1228
N11185 X2.5291 Y-2.0889
N11190 G3 X2.53 Y-2.0709 I-0.0083 J0.0094
N11195 G1 X1.9453 Y-1.4495
N11200 X1.875 Y-1.375
N11205 Z-0.44
N11210 G3 Y-1.35 I0. J0.0125
N11215 G1 X1.8083
N11220 G3 X1.796 Y-1.3602 I0. J-0.0125
N11225 X1.9553 Y-1.3901 I0.0796 J-0.0149
N11230 X1.796 Y-1.3602 I-0.0796 J0.0149
N11235 G2 X1.7103 Y-1.4744 I-0.1586 J0.0298
N11240 G3 X1.6969 Y-1.6166 I0.0381 J-0.0753
N11245 X1.791 Y-1.669 I0.2219 J0.2883
N11250 X1.9585 Y-1.6692 I0.0841 J0.224
N11255 X2.1702 Y-1.4569 I-0.1251 J0.3364
N11260 X2.1701 Y-1.2927 I-0.2248 J0.082
N11265 X1.9572 Y-1.0805 I-0.334 J-0.1221
N11270 X1.791 Y-1.081 I-0.0823 J-0.2247
N11275 X1.6618 Y-1.1642 I0.1273 J-0.34
N11280 X1.5794 Y-1.2939 I0.2487 J-0.249
N11285 Y-1.4562 I0.2251 J-0.0811
N11290 X1.6618 Y-1.5858 I0.331 J0.1194
N11295 X1.6969 Y-1.6166 I0.257 J0.2575
N11300 G2 X1.7518 Y-1.7704 I-0.0921 J-0.1196
N11305 G3 X1.848 Y-1.9022 I0.1051 J-0.0244
N11310 X1.9787 Y-1.8865 I0.0269 J0.3261
N11315 X2.3869 Y-1.4772 I-0.2048 J0.6124
N11320 X2.3834 Y-1.2612 I-0.3129 J0.1029
N11325 X2.2263 Y-1.0158 I-0.629 J-0.2299
N11330 X1.9781 Y-0.8633 I-0.4488 J-0.452
N11335 X1.7713 Y-0.8635 I-0.1031 J-0.3106
N11340 X1.3628 Y-1.2735 I0.2048 J-0.6124
N11345 X1.3627 Y-1.4762 I0.3083 J-0.1014
N11350 X1.7719 Y-1.8867 I0.6121 J0.2009
N11355 X1.848 Y-1.9022 I0.103 J0.3106
N11360 G2 X1.9913 Y-1.9907 I-0.0153 J-0.185
N11365 G3 X2.1527 Y-2.0386 I0.1072 J0.0652
N11370 X2.2853 Y-1.9606 I-0.3946 J0.8224
N11375 X2.4627 Y-1.7821 I-0.4241 J0.5989
N11380 X2.5363 Y-1.6489 I-0.5944 J0.4155
N11385 G2 X2.5969 Y-1.5093 I7.1974 J-3.041
N11390 X2.6072 Y-1.488 I0.3703 J-0.165
N11395 G3 X2.6167 Y-1.4665 I-0.1698 J0.0878
N11400 X2.6148 Y-1.2785 I-0.2474 J0.0914
N11405 X2.436 Y-0.9406 I-1.5929 J-0.6261
N11410 X2.1357 Y-0.7039 I-0.5258 J-0.3585
N11415 G2 X2.0579 Y-0.6717 I0.4787 J1.2631
N11420 G3 X1.9804 Y-0.6386 I-0.7962 J-1.761
N11425 X1.9708 Y-0.6349 I-0.1415 J-0.3533
N11430 G1 X1.9664 Y-0.6333
N11435 G3 X1.7798 Y-0.6348 I-0.0912 J-0.2469
N11440 X1.7342 Y-0.6546 I0.2372 J-0.6102
N11445 G2 X1.6884 Y-0.6736 I-0.202 J0.4218
N11450 G3 X1.4049 Y-0.8339 I0.3136 J-0.8852
N11455 X1.2119 Y-1.0962 I0.4228 J-0.5134
N11460 X1.179 Y-1.1787 I5.2857 J-2.1553
N11465 G2 X1.1435 Y-1.2601 I-1.0598 J0.4131
N11470 G3 X1.1381 Y-1.2717 I0.3945 J-0.1905
N11475 X1.1333 Y-1.2835 I0.1751 J-0.0783
N11480 X1.1352 Y-1.4715 I0.2474 J-0.0914
N11485 X1.2231 Y-1.6734 I2.8546 J1.1219
N11490 X1.3461 Y-1.8562 I0.6826 J0.3266
N11495 X1.5434 Y-2.0078 I0.522 J0.4751
N11500 X1.7696 Y-2.1114 I1.1803 J2.2781
N11505 X1.7792 Y-2.1151 I0.1417 J0.3537
N11510 G1 X1.7836 Y-2.1167
N11515 G3 X1.9702 Y-2.1152 I0.0912 J0.2469
N11520 X2.0159 Y-2.0954 I-0.2372 J0.6103
N11525 G2 X2.0619 Y-2.0763 I0.2003 J-0.4182
N11530 G3 X2.1527 Y-2.0386 I-0.3037 J0.8601
N11535 G2 X2.3377 Y-2.0629 I0.0739 J-0.1539
N11540 G3 X2.524 Y-2.0559 I0.0894 J0.1044
N11545 G1 X2.5436 Y-2.0364
N11550 X2.568 Y-2.0114
N11555 X2.5896 Y-1.9864
N11560 X2.6147 Y-1.9565
N11565 X2.6401 Y-1.9218
N11570 X2.6476 Y-1.9114
N11575 X2.6648 Y-1.886
N11580 X2.6951 Y-1.8367
N11585 X2.7209 Y-1.7865
N11590 X2.7324 Y-1.7621
N11595 X2.754 Y-1.7113
N11600 X2.7823 Y-1.6335
N11605 X2.792 Y-1.6042
N11610 X2.7932 Y-1.6008
N11615 X2.7946 Y-1.5974
N11620 X2.7998 Y-1.5857
N11625 X2.8008 Y-1.5837
N11630 X2.8109 Y-1.5626
N11635 X2.8176 Y-1.5428
N11640 G2 X2.8215 Y-1.5337 I0.0687 J-0.0233
N11645 G1 X2.8351 Y-1.5064
N11650 X2.8453 Y-1.4813
N11655 X2.8475 Y-1.4762
N11660 X2.8602 Y-1.4507
N11665 X2.869 Y-1.4323
N11670 X2.8692 Y-1.4313
N11675 X2.8708 Y-1.3872
N11680 Y-1.3628
N11685 X2.8692 Y-1.3187
N11690 X2.869 Y-1.3175
N11695 X2.8594 Y-1.2969
N11700 X2.8551 Y-1.289
N11705 X2.8535 Y-1.2859
N11710 X2.852 Y-1.2827
N11715 X2.841 Y-1.2571
N11720 X2.8356 Y-1.246
N11725 X2.8292 Y-1.2335
N11730 X2.8269 Y-1.2285
N11735 X2.8155 Y-1.2016
N11740 X2.8141 Y-1.198
N11745 X2.8129 Y-1.1944
N11750 X2.8104 Y-1.1862
N11755 X2.8064 Y-1.1778
N11760 X2.8047 Y-1.1739
N11765 X2.7937 Y-1.1471
N11770 X2.7927 Y-1.1445
N11775 X2.754 Y-1.0388
N11780 X2.7323 Y-0.9879
N11785 X2.7209 Y-0.9634
N11790 X2.695 Y-0.9133
N11795 X2.6643 Y-0.8632
N11800 X2.6478 Y-0.8387
N11805 X2.6147 Y-0.7933
N11810 X2.5895 Y-0.7634
N11815 X2.5681 Y-0.7386
N11820 X2.5393 Y-0.7092
N11825 X2.5187 Y-0.6887
N11830 X2.4893 Y-0.6628
N11835 X2.4643 Y-0.6416
N11840 X2.4141 Y-0.6036
N11845 X2.3631 Y-0.5707
N11850 X2.3524 Y-0.5641
N11855 X2.3055 Y-0.5385
N11860 X2.2891 Y-0.5301
N11865 X2.2384 Y-0.5072
N11870 X2.2139 Y-0.4976
N11875 X2.1607 Y-0.4781
N11880 X2.1596 Y-0.4777
N11885 X2.1341 Y-0.4679
N11890 X2.102 Y-0.4572
N11895 X2.0979 Y-0.4557
N11900 X2.0939 Y-0.454
N11905 X2.0607 Y-0.4383
N11910 X2.0431 Y-0.4324
N11915 G2 X2.0339 Y-0.4287 I0.0229 J0.0688
N11920 G1 X2.0041 Y-0.414
N11925 X1.9828 Y-0.4055
N11930 X1.9776 Y-0.4031
N11935 X1.9513 Y-0.3901
N11940 X1.9319 Y-0.3808
N11945 X1.9315
N11950 X1.8873 Y-0.3792
N11955 X1.8627
N11960 X1.8183 Y-0.3808
N11965 X1.818
N11970 X1.7962 Y-0.391
N11975 X1.7879 Y-0.3955
N11980 X1.7848 Y-0.3971
N11985 X1.7815 Y-0.3985
N11990 X1.7631 Y-0.4063
N11995 X1.7451 Y-0.4148
N12000 X1.7325 Y-0.4213
N12005 X1.7279 Y-0.4234
N12010 X1.7041 Y-0.4336
N12015 X1.6978 Y-0.436
N12020 X1.6857 Y-0.4398
N12025 X1.6563 Y-0.4538
N12030 X1.6523 Y-0.4556
N12035 X1.6482 Y-0.4571
N12040 X1.6156 Y-0.468
N12045 X1.512 Y-0.5068
N12050 X1.4206 Y-0.5512
N12055 X1.3326 Y-0.6063
N12060 X1.2506 Y-0.6711
N12065 X1.1791 Y-0.7417
N12070 X1.1192 Y-0.8152
N12075 X1.11 Y-0.8271
N12080 X1.085 Y-0.8643
N12085 X1.0701 Y-0.888
N12090 X1.0414 Y-0.9384
N12095 X1.0172 Y-0.9882
N12100 X1.007 Y-1.0126
N12105 X0.9863 Y-1.0646
N12110 X0.9677 Y-1.1164
N12115 X0.958 Y-1.1458
N12120 X0.9568 Y-1.1492
N12125 X0.9554 Y-1.1526
N12130 X0.9502 Y-1.1643
N12135 X0.9492 Y-1.1663
N12140 X0.9391 Y-1.1874
N12145 X0.9324 Y-1.2072
N12150 G2 X0.9285 Y-1.2163 I-0.0687 J0.0233
N12155 G1 X0.9149 Y-1.2436
N12160 X0.9047 Y-1.2687
N12165 X0.9025 Y-1.2738
N12170 X0.8898 Y-1.2993
N12175 X0.881 Y-1.3177
N12180 X0.8808 Y-1.3187
N12185 X0.8792 Y-1.3628
N12190 Y-1.3873
N12195 X0.8806 Y-1.429
N12200 X0.8807 Y-1.4308
N12205 X0.881 Y-1.4325
N12210 X0.8906 Y-1.4531
N12215 X0.8949 Y-1.461
N12220 X0.8965 Y-1.4641
N12225 X0.898 Y-1.4673
N12230 X0.909 Y-1.4929
N12235 X0.9144 Y-1.504
N12240 X0.9208 Y-1.5165
N12245 X0.9231 Y-1.5215
N12250 X0.9345 Y-1.5484
N12255 X0.9359 Y-1.5519
N12260 X0.9371 Y-1.5555
N12265 X0.9396 Y-1.5636
N12270 X0.9521 Y-1.5896
N12275 X0.9545 Y-1.5952
N12280 X0.958 Y-1.6045
N12285 X0.9592 Y-1.6078
N12290 X0.9677 Y-1.6337
N12295 X0.9863 Y-1.6853
N12300 X1.007 Y-1.7374
N12305 X1.0172 Y-1.7618
N12310 X1.0416 Y-1.8117
N12315 X1.0602 Y-1.8448
N12320 X1.07 Y-1.8618
N12325 X1.0855 Y-1.8865
N12330 X1.1102 Y-1.923
N12335 X1.1193 Y-1.935
N12340 X1.179 Y-2.0083
N12345 X1.2509 Y-2.0792
N12350 X1.2587 Y-2.0855
N12355 X1.3326 Y-2.1439
N12360 X1.4206 Y-2.1989
N12365 X1.5119 Y-2.2432
N12370 X1.6156 Y-2.282
N12375 X1.648 Y-2.2928
N12380 X1.6521 Y-2.2943
N12385 X1.6561 Y-2.296
N12390 X1.6893 Y-2.3117
N12395 X1.7069 Y-2.3176
N12400 G2 X1.7161 Y-2.3213 I-0.0229 J-0.0688
N12405 G1 X1.7459 Y-2.336
N12410 X1.7672 Y-2.3445
N12415 X1.7724 Y-2.3469
N12420 X1.7987 Y-2.3599
N12425 X1.8181 Y-2.3692
N12430 X1.8185
N12435 X1.8627 Y-2.3708
N12440 X1.8873
N12445 X1.9317 Y-2.3692
N12450 X1.932
N12455 X1.9538 Y-2.359
N12460 X1.9621 Y-2.3546
N12465 X1.9652 Y-2.3529
N12470 X1.9685 Y-2.3515
N12475 X1.9869 Y-2.3437
N12480 X2.005 Y-2.3352
N12485 X2.0175 Y-2.3287
N12490 X2.022 Y-2.3266
N12495 X2.0459 Y-2.3164
N12500 X2.0522 Y-2.314
N12505 X2.0643 Y-2.3102
N12510 X2.0937 Y-2.2962
N12515 X2.0977 Y-2.2944
N12520 X2.1018 Y-2.2929
N12525 X2.1345 Y-2.282
N12530 X2.2138 Y-2.2524
N12535 X2.2384 Y-2.2428
N12540 X2.2891 Y-2.2197
N12545 X2.3053 Y-2.2114
N12550 X2.3521 Y-2.1858
N12555 X2.3633 Y-2.179
N12560 X2.4141 Y-2.1461
N12565 X2.4645 Y-2.1082
N12570 X2.4903 Y-2.0863
N12575 X2.5186 Y-2.0613
N12580 X2.524 Y-2.0559
N12585 G3 Y-2.0381 I-0.0088 J0.0089
N12590 G1 X2.1633 Y-1.6824
N12595 X1.875 Y-1.375
N12600 Z-0.48
N12605 G3 X1.8726 Y-1.3502 I0. J0.0125
N12610 G1 X1.8271 Y-1.3591
N12615 G3 X1.8171 Y-1.3704 I0.0024 J-0.0123
N12620 X1.9341 Y-1.3797 I0.0585 J-0.0047
N12625 X1.8171 Y-1.3704 I-0.0585 J0.0047
N12630 G2 X1.7449 Y-1.4881 I-0.1519 J0.0122
N12635 G3 X1.7508 Y-1.626 I0.0413 J-0.0673
N12640 G1 X1.753 Y-1.6272
N12645 G3 X2.0102 Y-1.621 I0.1227 J0.2493
N12650 X2.088 Y-1.5558 I-0.1283 J0.232
N12655 X2.1404 Y-1.4688 I-0.2856 J0.2312
N12660 Y-1.2811 I-0.2201 J0.0939
N12665 X2.0881 Y-1.1941 I-0.3388 J-0.1445
N12670 X2.0103 Y-1.1289 I-0.2054 J-0.166
N12675 X1.7543 Y-1.1223 I-0.1344 J-0.2434
N12680 X1.6564 Y-1.1998 I0.1267 J-0.2605
N12685 X1.6567 Y-1.5506 I0.2157 J-0.1752
N12690 X1.7508 Y-1.626 I0.2233 J0.182
N12695 G2 X1.8206 Y-1.7718 I-0.0592 J-0.118
N12700 G3 X1.9442 Y-1.8759 I0.0894 J-0.0193
N12705 X1.9572 Y-1.8701 I-0.0699 J0.1732
N12710 X2.117 Y-1.7867 I-1.8872 J3.8103
N12715 X2.2541 Y-1.6699 I-0.2145 J0.3906
N12720 X2.3161 Y-1.5684 I-0.4163 J0.3241
N12725 G2 X2.3685 Y-1.4616 I2.5679 J-1.195
N12730 G3 X2.3684 Y-1.2883 I-0.1673 J0.0866
N12735 X2.2577 Y-1.0955 I-2.3484 J-1.2199
N12740 X2.0944 Y-0.9447 I-0.3623 J-0.2287
N12745 X2.0278 Y-0.913 I-0.4472 J-0.8528
N12750 G2 X1.9612 Y-0.8813 I0.4688 J1.0695
N12755 G3 X1.7927 Y-0.8799 I-0.0856 J-0.166
N12760 X1.6015 Y-0.9863 I1.014 J-2.0472
N12765 X1.4507 Y-1.1449 I0.2292 J-0.369
N12770 X1.4155 Y-1.2165 I0.7084 J-0.3924
N12775 G2 X1.3814 Y-1.2886 I-1.0423 J0.4496
N12780 G3 X1.3788 Y-1.4551 I0.1658 J-0.0858
N12785 X1.4938 Y-1.6577 I1.5225 J0.7301
N12790 X1.669 Y-1.8114 I0.3698 J0.245
N12795 X1.7291 Y-1.8397 I1.1384 J2.3323
N12800 G2 X1.7888 Y-1.8687 I-0.5777 J-1.2647
N12805 G3 X1.9442 Y-1.8759 I0.0856 J0.166
N12810 G2 X2.11 Y-1.9029 I0.0606 J-0.1503
N12815 G3 X2.2776 Y-1.9121 I0.0899 J0.1054
N12820 X2.4441 Y-1.741 I-0.3335 J0.491
N12825 X2.5141 Y-1.6089 I-0.7687 J0.4918
N12830 G2 X2.5858 Y-1.4778 I0.7234 J-0.3103
N12835 X2.597 Y-1.4625 I0.2094 J-0.1418
N12840 G3 X2.6081 Y-1.4471 I-0.1724 J0.1367
N12845 X2.6082 Y-1.3025 I-0.1094 J0.0723
N12850 X2.5647 Y-1.2384 I-2.6265 J-1.7327
N12855 G2 X2.5283 Y-1.17 I0.2685 J0.1868
N12860 G3 X2.393 Y-0.9396 I-0.7774 J-0.3018
N12865 X2.1853 Y-0.7714 I-0.5234 J-0.4338
N12870 X2.0833 Y-0.7222 I-0.7839 J-1.4949
N12875 G2 X1.9836 Y-0.6683 I0.2869 J0.6498
N12880 X1.9652 Y-0.655 I0.1198 J0.1846
N12885 G3 X1.9468 Y-0.6416 I-0.1705 J-0.216
N12890 X1.8038 Y-0.6422 I-0.0711 J-0.1071
N12895 G2 X1.6049 Y-0.7524 I-0.7209 J1.067
N12900 G3 X1.4161 Y-0.8788 I0.2685 J-0.6053
N12905 X1.2669 Y-1.0834 I0.4931 J-0.5162
N12910 G2 X1.1415 Y-1.3035 I-1.7221 J0.8356
N12915 G3 X1.142 Y-1.4458 I0.1071 J-0.0708
N12920 G2 X1.2331 Y-1.6116 I-0.8826 J-0.5927
N12925 G3 X1.3292 Y-1.7746 I0.7256 J0.3181
N12930 X1.5523 Y-1.9612 I0.5256 J0.4017
N12935 G2 X1.8032 Y-2.1084 I-1.2008 J-2.3349
N12940 G3 X1.9462 Y-2.1078 I0.0711 J0.1071
N12945 G2 X2.2139 Y-1.9498 I1.4229 J-2.1059
N12950 G3 X2.2776 Y-1.9121 I-0.2698 J0.5287
N12955 G2 X2.4595 Y-1.9013 I0.1 J-0.1472
N12960 G3 X2.6349 Y-1.8525 I0.0615 J0.1187
N12965 G1 X2.6457 Y-1.8349
N12970 X2.6603 Y-1.8103
N12975 X2.6871 Y-1.7581
N12980 X2.719 Y-1.6836
N12985 X2.7291 Y-1.6577
N12990 X2.7306 Y-1.6542
N12995 X2.7322 Y-1.6508
N13000 X2.7566 Y-1.6038
N13005 X2.7586 Y-1.6
N13010 X2.7609 Y-1.5964
N13015 X2.7655 Y-1.5897
N13020 X2.7678 Y-1.5865
N13025 X2.7708 Y-1.5825
N13030 X2.8011 Y-1.5366
N13035 X2.8021 Y-1.5353
N13040 X2.8207 Y-1.5084
N13045 X2.8224 Y-1.5061
N13050 X2.8277 Y-1.4991
N13055 X2.8342 Y-1.4864
N13060 X2.8359 Y-1.4832
N13065 X2.8378 Y-1.4801
N13070 X2.8618 Y-1.4429
N13075 X2.8684 Y-1.4324
N13080 X2.8692 Y-1.4309
N13085 X2.8701 Y-1.4127
N13090 X2.8708 Y-1.3875
N13095 Y-1.3628
N13100 X2.8693 Y-1.3193
N13105 X2.8682 Y-1.3172
N13110 X2.8548 Y-1.2951
N13115 X2.8496 Y-1.2883
N13120 X2.8462 Y-1.2835
N13125 X2.844 Y-1.2801
N13130 X2.841 Y-1.2751
N13135 X2.8283 Y-1.2517
N13140 X2.8226 Y-1.2441
N13145 X2.8209 Y-1.2418
N13150 X2.8014 Y-1.2139
N13155 X2.7995 Y-1.211
N13160 X2.7918 Y-1.1987
N13165 X2.7768 Y-1.1761
N13170 X2.7642 Y-1.1583
N13175 X2.7617 Y-1.1547
N13180 X2.7595 Y-1.1509
N13185 X2.754 Y-1.1408
N13190 X2.7534 Y-1.1395
N13195 X2.7427 Y-1.1189
N13200 X2.7326 Y-1.1001
N13205 X2.7307 Y-1.0961
N13210 X2.7289 Y-1.0921
N13215 X2.7189 Y-1.0663
N13220 X2.6872 Y-0.9919
N13225 X2.6602 Y-0.9397
N13230 X2.6457 Y-0.9151
N13235 X2.6302 Y-0.89
N13240 X2.6122 Y-0.863
N13245 X2.5869 Y-0.8279
N13250 X2.5775 Y-0.816
N13255 X2.5372 Y-0.7685
N13260 X2.5099 Y-0.7407
N13265 X2.4873 Y-0.7184
N13270 X2.4558 Y-0.6907
N13275 X2.4375 Y-0.6753
N13280 X2.3917 Y-0.6406
N13285 X2.3882 Y-0.6382
N13290 X2.3374 Y-0.6053
N13295 X2.287 Y-0.5775
N13300 X2.2627 Y-0.5654
N13305 X2.2124 Y-0.5429
N13310 X2.1879 Y-0.534
N13315 X2.1839 Y-0.5324
N13320 X2.1569 Y-0.5207
N13325 X2.1524 Y-0.5186
N13330 X2.1051 Y-0.4942
N13335 X2.1019 Y-0.4925
N13340 X2.0989 Y-0.4906
N13345 X2.0921 Y-0.4862
N13350 X2.0873 Y-0.4828
N13355 X2.0832 Y-0.4797
N13360 X2.0307 Y-0.4448
N13365 X2.0295 Y-0.444
N13370 X2.0092 Y-0.4299
N13375 X2.0069 Y-0.4283
N13380 X1.9989 Y-0.4222
N13385 X1.9848 Y-0.4149
N13390 X1.979 Y-0.4115
N13395 X1.9325 Y-0.3817
N13400 X1.9307 Y-0.3807
N13405 X1.9129 Y-0.3799
N13410 X1.8875 Y-0.3792
N13415 X1.8627
N13420 X1.8196 Y-0.3807
N13425 X1.8042 Y-0.3894
N13430 X1.7949 Y-0.3953
N13435 X1.7866 Y-0.4016
N13440 X1.7835 Y-0.4038
N13445 X1.7803 Y-0.4059
N13450 X1.7749 Y-0.4092
N13455 X1.7714 Y-0.4112
N13460 X1.752 Y-0.4215
N13465 X1.7438 Y-0.4279
N13470 X1.7407 Y-0.4302
N13475 X1.7204 Y-0.4442
N13480 X1.6866 Y-0.4675
N13485 X1.6843 Y-0.469
N13490 X1.6625 Y-0.4829
N13495 X1.6577 Y-0.4864
N13500 X1.6542 Y-0.4887
N13505 X1.6506 Y-0.4909
N13510 X1.627 Y-0.5042
N13515 X1.6243 Y-0.5057
N13520 X1.6115 Y-0.5122
N13525 X1.6096 Y-0.5131
N13530 X1.5954 Y-0.5198
N13535 X1.5908 Y-0.5218
N13540 X1.5388 Y-0.5422
N13545 X1.5144 Y-0.5534
N13550 X1.4615 Y-0.5792
N13555 X1.4371 Y-0.5914
N13560 X1.3577 Y-0.6413
N13565 X1.2874 Y-0.6968
N13570 X1.2634 Y-0.7189
N13575 X1.2128 Y-0.7689
N13580 X1.1883 Y-0.7984
N13585 X1.1536 Y-0.8411
N13590 X1.1362 Y-0.8653
N13595 X1.1128 Y-0.9002
N13600 X1.0876 Y-0.9438
N13605 X1.0768 Y-0.9642
N13610 X1.0526 Y-1.0145
N13615 X1.0318 Y-1.0661
N13620 X1.0315 Y-1.0668
N13625 X1.0203 Y-1.0937
N13630 X1.0178 Y-1.0992
N13635 X0.9934 Y-1.1462
N13640 X0.9914 Y-1.15
N13645 X0.9891 Y-1.1536
N13650 X0.9845 Y-1.1603
N13655 X0.9822 Y-1.1635
N13660 X0.9792 Y-1.1675
N13665 X0.9489 Y-1.2134
N13670 X0.9479 Y-1.2147
N13675 X0.9293 Y-1.2416
N13680 X0.9276 Y-1.2439
N13685 X0.9223 Y-1.2509
N13690 X0.9158 Y-1.2636
N13695 X0.9141 Y-1.2668
N13700 X0.9122 Y-1.2699
N13705 X0.8882 Y-1.3071
N13710 X0.8816 Y-1.3176
N13715 X0.8808 Y-1.3191
N13720 X0.8799 Y-1.3373
N13725 X0.8792 Y-1.3625
N13730 Y-1.3873
N13735 X0.8806 Y-1.4282
N13740 X0.8807 Y-1.4307
N13745 X0.8819 Y-1.4328
N13750 X0.8952 Y-1.4549
N13755 X0.9004 Y-1.4617
N13760 X0.9038 Y-1.4665
N13765 X0.906 Y-1.4699
N13770 X0.909 Y-1.4749
N13775 X0.9215 Y-1.4979
N13780 X0.9272 Y-1.5054
N13785 X0.9295 Y-1.5084
N13790 X0.9667 Y-1.5622
N13795 X0.9686 Y-1.565
N13800 X0.9818 Y-1.5861
N13805 X0.9849 Y-1.5901
N13810 X0.9872 Y-1.5935
N13815 X0.9894 Y-1.597
N13820 X0.9954 Y-1.6071
N13825 X0.9962 Y-1.6086
N13830 X1.0065 Y-1.6272
N13835 X1.0085 Y-1.631
N13840 X1.019 Y-1.6528
N13845 X1.0208 Y-1.6569
N13850 X1.0527 Y-1.7357
N13855 X1.0644 Y-1.7603
N13860 X1.0767 Y-1.7855
N13865 X1.0899 Y-1.8101
N13870 X1.1128 Y-1.8497
N13875 X1.1378 Y-1.887
N13880 X1.1535 Y-1.9089
N13885 X1.1957 Y-1.9606
N13890 X1.2127 Y-1.9811
N13895 X1.2672 Y-2.0348
N13900 X1.2874 Y-2.0533
N13905 X1.3574 Y-2.1087
N13910 X1.4377 Y-2.159
N13915 X1.4874 Y-2.1835
N13920 X1.5142 Y-2.1965
N13925 X1.5408 Y-2.2086
N13930 X1.5835 Y-2.225
N13935 X1.5883 Y-2.227
N13940 X1.595 Y-2.2301
N13945 X1.5976 Y-2.2314
N13950 X1.6449 Y-2.2558
N13955 X1.6481 Y-2.2575
N13960 X1.6511 Y-2.2594
N13965 X1.6579 Y-2.2638
N13970 X1.6627 Y-2.2672
N13975 X1.6668 Y-2.2703
N13980 X1.7193 Y-2.3052
N13985 X1.7205 Y-2.306
N13990 X1.7408 Y-2.3201
N13995 X1.7431 Y-2.3217
N14000 X1.7511 Y-2.3278
N14005 X1.7652 Y-2.3351
N14010 X1.771 Y-2.3385
N14015 X1.8175 Y-2.3683
N14020 X1.8193 Y-2.3693
N14025 X1.8371 Y-2.3701
N14030 X1.8625 Y-2.3708
N14035 X1.8873
N14040 X1.9304 Y-2.3693
N14045 X1.9458 Y-2.3606
N14050 X1.9551 Y-2.3547
N14055 X1.9634 Y-2.3484
N14060 X1.9665 Y-2.3462
N14065 X1.9697 Y-2.3441
N14070 X1.9751 Y-2.3408
N14075 X1.9786 Y-2.3389
N14080 X1.998 Y-2.3285
N14085 X2.0062 Y-2.3221
N14090 X2.0093 Y-2.3198
N14095 X2.0296 Y-2.3058
N14100 X2.0634 Y-2.2825
N14105 X2.0657 Y-2.281
N14110 X2.0875 Y-2.2671
N14115 X2.0923 Y-2.2636
N14120 X2.0958 Y-2.2613
N14125 X2.0994 Y-2.2591
N14130 X2.123 Y-2.2458
N14135 X2.1257 Y-2.2443
N14140 X2.1385 Y-2.2378
N14145 X2.1404 Y-2.2369
N14150 X2.1546 Y-2.2302
N14155 X2.1592 Y-2.2282
N14160 X2.2114 Y-2.2077
N14165 X2.2654 Y-2.1832
N14170 X2.2869 Y-2.1725
N14175 X2.3373 Y-2.1446
N14180 X2.3926 Y-2.1087
N14185 X2.4374 Y-2.0747
N14190 X2.4623 Y-2.0536
N14195 X2.4872 Y-2.0316
N14200 X2.5123 Y-2.0068
N14205 X2.5372 Y-1.9813
N14210 X2.5625 Y-1.9518
N14215 X2.5774 Y-1.934
N14220 X2.587 Y-1.922
N14225 X2.6138 Y-1.8847
N14230 X2.6302 Y-1.8601
N14235 X2.6349 Y-1.8525
N14240 G3 X2.6322 Y-1.8363 I-0.0107 J0.0065
N14245 G1 X1.9874 Y-1.3061
N14250 X1.986 Y-1.3047
N14255 G3 X1.9712 Y-1.3016 I-0.0094 J-0.0082
N14260 G1 X1.8646 Y-1.3523
N14265 G3 X1.875 Y-1.375 I0.0054 J-0.0113
N14270 G1 Z-0.52
N14275 G2 X1.8846 Y-1.3795 I0. J-0.0125
N14280 G1 X2.0242 Y-1.5471
N14285 G3 X2.0425 Y-1.548 I0.0096 J0.008
N14290 X2.0963 Y-1.4706 I-0.1692 J0.1747
N14295 Y-1.2794 I-0.2194 J0.0956
N14300 X1.9705 Y-1.1537 I-0.2229 J-0.0971
N14305 X1.7794 I-0.0954 J-0.2194
N14310 X1.6537 Y-1.2794 I0.0971 J-0.2229
N14315 Y-1.4706 I0.2194 J-0.0956
N14320 X1.7795 Y-1.5963 I0.2229 J0.0971
N14325 X1.9706 Y-1.5962 I0.0954 J0.2194
N14330 X2.0425 Y-1.548 I-0.0972 J0.2229
N14335 G2 X2.1962 Y-1.5057 I0.1156 J-0.1193
N14340 G3 X2.3404 Y-1.4379 I0.0294 J0.1248
N14345 X2.3373 Y-1.3088 I-0.1241 J0.0616
N14350 X2.2342 Y-1.1257 I-25.1102 J-14.016
N14355 X2.0805 Y-0.9826 I-0.3044 J-0.1728
N14360 G2 X2.0116 Y-0.9489 I1.6383 J3.4357
N14365 X1.9439 Y-0.9128 I0.6845 J1.364
N14370 G3 X1.8091 Y-0.9127 I-0.0675 J-0.1192
N14375 G1 X1.6262 Y-1.0158
N14380 G3 X1.4825 Y-1.1696 I0.1717 J-0.3045
N14385 G2 X1.4493 Y-1.2378 I-4.9739 J2.3759
N14390 X1.4136 Y-1.3046 I-1.0882 J0.5383
N14395 G3 X1.4127 Y-1.4412 I0.1201 J-0.0691
N14400 X1.5158 Y-1.6243 I25.2389 J14.0878
N14405 X1.6695 Y-1.7674 I0.3044 J0.1728
N14410 G2 X1.7384 Y-1.8011 I-1.6369 J-3.4328
N14415 X1.8061 Y-1.8372 I-0.6845 J-1.3639
N14420 G3 X1.9409 Y-1.8373 I0.0675 J0.1192
N14425 G1 X2.1238 Y-1.7342
N14430 G3 X2.2676 Y-1.5803 I-0.1717 J0.3044
N14435 G2 X2.3007 Y-1.5122 I4.8874 J-2.3336
N14440 X2.3364 Y-1.4454 I1.0892 J-0.5389
N14445 G1 X2.3404 Y-1.4379
N14450 G2 X2.4674 Y-1.3852 I0.0937 J-0.0465
N14455 G3 X2.5446 Y-1.2715 I0.0227 J0.0677
N14460 G2 X2.4785 Y-1.1665 I0.3423 J0.2887
N14465 G3 X2.3688 Y-0.9831 I-0.8393 J-0.3777
N14470 X2.1961 Y-0.8434 I-0.3781 J-0.2908
N14475 G2 X2.0061 Y-0.7284 I0.4844 J1.0148
N14480 X1.9579 Y-0.6874 I0.3116 J0.4158
N14485 X1.9156 Y-0.6402 I0.2901 J0.3021
N14490 G3 X1.8346 I-0.0405 J-0.0311
N14495 G2 X1.6655 Y-0.7732 I-0.3451 J0.2646
N14500 G3 X1.4807 Y-0.8832 I0.364 J-0.822
N14505 X1.3418 Y-1.0559 I0.2888 J-0.3746
N14510 G2 X1.2272 Y-1.2456 I-0.9824 J0.4638
N14515 X1.187 Y-1.2928 I-0.4203 J0.3165
N14520 X1.1407 Y-1.334 I-0.2741 J0.2623
N14525 G3 X1.1398 Y-1.4151 I0.0307 J-0.0409
N14530 G2 X1.2715 Y-1.5835 I-0.2767 J-0.3521
N14535 G3 X1.3812 Y-1.7669 I0.8391 J0.3775
N14540 X1.5539 Y-1.9066 I0.3782 J0.2909
N14545 G2 X1.7439 Y-2.0216 I-0.4845 J-1.0149
N14550 X1.7921 Y-2.0626 I-0.3116 J-0.4158
N14555 X1.8344 Y-2.1098 I-0.2901 J-0.3021
N14560 G3 X1.9154 I0.0405 J0.0311
N14565 G2 X2.0845 Y-1.9768 I0.3451 J-0.2646
N14570 G3 X2.2693 Y-1.8668 I-0.3639 J0.8219
N14575 X2.4083 Y-1.6941 I-0.2886 J0.3745
N14580 G2 X2.5228 Y-1.5044 I0.9818 J-0.4634
N14585 X2.563 Y-1.4572 I0.4203 J-0.3165
N14590 X2.6093 Y-1.416 I0.2741 J-0.2623
N14595 G3 X2.6102 Y-1.3349 I-0.0307 J0.0409
N14600 G2 X2.5446 Y-1.2715 I0.2767 J0.3521
N14605 X2.5445 Y-1.0953 I0.1045 J0.0881
N14610 G3 X2.5552 Y-0.9194 I-0.113 J0.0951
N14615 G1 X2.5548 Y-0.9187
N14620 X2.5182 Y-0.8681
N14625 X2.5085 Y-0.8563
N14630 X2.4828 Y-0.8272
N14635 X2.4573 Y-0.7993
N14640 X2.4535 Y-0.7955
N14645 X2.4259 Y-0.77
N14650 X2.3975 Y-0.7446
N14655 X2.3844 Y-0.7339
N14660 X2.3314 Y-0.6953
N14665 X2.3097 Y-0.681
N14670 X2.2589 Y-0.6521
N14675 X2.2366 Y-0.6404
N14680 X2.2133 Y-0.6313
N14685 X2.2107 Y-0.6303
N14690 X2.1567 Y-0.6068
N14695 X2.1532 Y-0.6052
N14700 X2.1499 Y-0.6034
N14705 X2.1229 Y-0.5881
N14710 X2.1189 Y-0.5857
N14715 X2.1151 Y-0.583
N14720 X2.0836 Y-0.5594
N14725 X2.0806 Y-0.557
N14730 X2.0778 Y-0.5546
N14735 X2.0705 Y-0.5478
N14740 X2.0671 Y-0.5445
N14745 X2.0639 Y-0.5408
N14750 X2.0584 Y-0.5341
N14755 X2.0557 Y-0.5307
N14760 X2.0532 Y-0.5271
N14765 X2.0446 Y-0.5136
N14770 X2.0413 Y-0.508
N14775 X2.0378 Y-0.5013
N14780 X2.0205 Y-0.4792
N14785 X2.0181 Y-0.476
N14790 X2.016 Y-0.4727
N14795 X2.0117 Y-0.4658
N14800 X2.0099 Y-0.4628
N14805 X2.0083 Y-0.4597
N14810 X1.9958 Y-0.4441
N14815 X1.989 Y-0.4369
N14820 X1.9867 Y-0.4343
N14825 X1.9722 Y-0.4174
N14830 X1.9631 Y-0.4097
N14835 X1.9599 Y-0.4068
N14840 X1.9569 Y-0.4037
N14845 X1.948 Y-0.3941
N14850 X1.93 Y-0.3808
N14855 X1.9127 Y-0.38
N14860 X1.8875 Y-0.3792
N14865 X1.8627
N14870 X1.8206 Y-0.3807
N14875 X1.818 Y-0.3827
N14880 X1.813 Y-0.3862
N14885 X1.8038 Y-0.3921
N14890 X1.8035 Y-0.3924
N14895 X1.7935 Y-0.403
N14900 X1.7904 Y-0.4061
N14905 X1.778 Y-0.4179
N14910 X1.7608 Y-0.4365
N14915 X1.7539 Y-0.4461
N14920 X1.751 Y-0.4498
N14925 X1.7393 Y-0.4638
N14930 X1.7349 Y-0.4713
N14935 X1.7323 Y-0.4754
N14940 X1.7295 Y-0.4793
N14945 X1.7179 Y-0.4941
N14950 X1.715 Y-0.4999
N14955 G2 X1.7095 Y-0.5092 I-0.065 J0.0322
N14960 G1 X1.6955 Y-0.5293
N14965 X1.6928 Y-0.533
N14970 X1.6898 Y-0.5365
N14975 X1.6838 Y-0.5432
N14980 X1.6814 Y-0.5457
N14985 X1.6748 Y-0.5524
N14990 X1.6716 Y-0.5554
N14995 X1.6683 Y-0.5582
N15000 X1.6364 Y-0.5834
N15005 G2 X1.6242 Y-0.5912 I-0.045 J0.0568
N15010 G1 X1.5972 Y-0.605
N15015 X1.5934 Y-0.6068
N15020 X1.5393 Y-0.6303
N15025 X1.5368 Y-0.6314
N15030 X1.5134 Y-0.6405
N15035 X1.4911 Y-0.6521
N15040 X1.4404 Y-0.6811
N15045 X1.4167 Y-0.6969
N15050 X1.3656 Y-0.7339
N15055 X1.3525 Y-0.7446
N15060 X1.3162 Y-0.7771
N15065 X1.2966 Y-0.7954
N15070 X1.2927 Y-0.7993
N15075 X1.2672 Y-0.8272
N15080 X1.2415 Y-0.8563
N15085 X1.2319 Y-0.8681
N15090 X1.1921 Y-0.9233
N15095 X1.1799 Y-0.9422
N15100 X1.1508 Y-0.9933
N15105 X1.1431 Y-1.0079
N15110 X1.1402 Y-1.0139
N15115 X1.1306 Y-1.0385
N15120 X1.1295 Y-1.0411
N15125 X1.1061 Y-1.0948
N15130 X1.1044 Y-1.0985
N15135 X1.1025 Y-1.102
N15140 X1.0871 Y-1.1289
N15145 X1.0847 Y-1.1327
N15150 X1.0821 Y-1.1364
N15155 X1.0619 Y-1.1632
N15160 X1.0595 Y-1.1662
N15165 X1.0528 Y-1.1743
N15170 X1.0495 Y-1.1779
N15175 X1.046 Y-1.1813
N15180 X1.0392 Y-1.1875
N15185 X1.0366 Y-1.1897
N15190 X1.0339 Y-1.1919
N15195 X1.0271 Y-1.1969
N15200 X1.0231 Y-1.1997
N15205 X1.0189 Y-1.2023
N15210 X1.0025 Y-1.2114
N15215 X1.0002 Y-1.213
N15220 X0.9776 Y-1.2306
N15225 G2 X0.969 Y-1.2364 I-0.0445 J0.0572
N15230 G1 X0.9605 Y-1.2412
N15235 X0.9596 Y-1.2417
N15240 X0.9438 Y-1.2545
N15245 X0.9401 Y-1.2581
N15250 X0.9362 Y-1.2617
N15255 X0.918 Y-1.2771
N15260 X0.9099 Y-1.2867
N15265 X0.9071 Y-1.2897
N15270 X0.9042 Y-1.2926
N15275 X0.8938 Y-1.3023
N15280 X0.8808 Y-1.3201
N15285 X0.8807 Y-1.321
N15290 X0.8792 Y-1.3628
N15295 Y-1.3873
N15300 X0.8805 Y-1.4272
N15305 X0.8807 Y-1.43
N15310 X0.8933 Y-1.4476
N15315 X0.919 Y-1.473
N15320 X0.938 Y-1.4904
N15325 X0.9425 Y-1.4935
N15330 X0.9474 Y-1.4972
N15335 X0.9637 Y-1.5106
N15340 X0.9688 Y-1.5135
N15345 G2 X0.9772 Y-1.519 I-0.0356 J-0.0631
N15350 G1 X0.994 Y-1.5318
N15355 X0.9976 Y-1.5337
N15360 X1.0012 Y-1.5357
N15365 X1.0109 Y-1.5416
N15370 X1.0139 Y-1.5436
N15375 X1.0169 Y-1.5457
N15380 X1.0205 Y-1.5485
N15385 X1.0241 Y-1.5507
N15390 G2 X1.0329 Y-1.5574 I-0.0389 J-0.0612
N15395 G1 X1.045 Y-1.568
N15400 X1.0479 Y-1.5706
N15405 X1.0506 Y-1.5735
N15410 X1.0579 Y-1.5814
N15415 X1.0613 Y-1.5854
N15420 X1.0826 Y-1.6122
N15425 G2 X1.0901 Y-1.6239 I-0.0568 J-0.045
N15430 G1 X1.104 Y-1.6508
N15435 X1.1061 Y-1.6552
N15440 X1.1296 Y-1.7089
N15445 X1.1306 Y-1.7114
N15450 X1.1403 Y-1.7361
N15455 X1.1431 Y-1.7421
N15460 X1.1508 Y-1.7567
N15465 X1.1799 Y-1.8077
N15470 X1.1952 Y-1.8313
N15475 X1.2318 Y-1.8819
N15480 X1.2415 Y-1.8937
N15485 X1.2672 Y-1.9228
N15490 X1.2927 Y-1.9506
N15495 X1.2965 Y-1.9545
N15500 X1.3241 Y-1.98
N15505 X1.3525 Y-2.0054
N15510 X1.3656 Y-2.0161
N15515 X1.4186 Y-2.0547
N15520 X1.4403 Y-2.069
N15525 X1.4911 Y-2.0979
N15530 X1.5134 Y-2.1096
N15535 X1.5367 Y-2.1187
N15540 X1.5393 Y-2.1197
N15545 X1.5933 Y-2.1432
N15550 X1.5968 Y-2.1448
N15555 X1.6001 Y-2.1466
N15560 X1.6271 Y-2.1619
N15565 X1.6311 Y-2.1643
N15570 X1.6349 Y-2.167
N15575 X1.6664 Y-2.1906
N15580 X1.6694 Y-2.193
N15585 X1.6722 Y-2.1954
N15590 X1.6795 Y-2.2022
N15595 X1.6829 Y-2.2055
N15600 X1.6861 Y-2.2092
N15605 X1.6916 Y-2.2159
N15610 X1.6943 Y-2.2193
N15615 X1.6968 Y-2.2229
N15620 X1.7054 Y-2.2364
N15625 X1.7087 Y-2.242
N15630 X1.7122 Y-2.2487
N15635 X1.7295 Y-2.2708
N15640 X1.7319 Y-2.274
N15645 X1.734 Y-2.2773
N15650 X1.7383 Y-2.2842
N15655 X1.7401 Y-2.2872
N15660 X1.7417 Y-2.2903
N15665 X1.7542 Y-2.3059
N15670 X1.761 Y-2.3131
N15675 X1.7633 Y-2.3157
N15680 X1.7778 Y-2.3326
N15685 X1.7869 Y-2.3403
N15690 X1.7901 Y-2.3432
N15695 X1.7931 Y-2.3463
N15700 X1.802 Y-2.3559
N15705 X1.82 Y-2.3692
N15710 X1.8373 Y-2.37
N15715 X1.8625 Y-2.3708
N15720 X1.8873
N15725 X1.9294 Y-2.3693
N15730 X1.932 Y-2.3673
N15735 X1.937 Y-2.3638
N15740 X1.9462 Y-2.3579
N15745 X1.9465 Y-2.3576
N15750 X1.9565 Y-2.347
N15755 X1.9596 Y-2.3439
N15760 X1.972 Y-2.3321
N15765 X1.9892 Y-2.3135
N15770 X1.9961 Y-2.3039
N15775 X1.999 Y-2.3002
N15780 X2.0107 Y-2.2862
N15785 X2.0151 Y-2.2787
N15790 X2.0177 Y-2.2746
N15795 X2.0205 Y-2.2707
N15800 X2.0321 Y-2.2559
N15805 X2.035 Y-2.2501
N15810 G2 X2.0405 Y-2.2408 I0.065 J-0.0322
N15815 G1 X2.0545 Y-2.2207
N15820 X2.0572 Y-2.217
N15825 X2.0602 Y-2.2135
N15830 X2.0662 Y-2.2068
N15835 X2.0686 Y-2.2043
N15840 X2.0752 Y-2.1976
N15845 X2.0784 Y-2.1946
N15850 X2.0817 Y-2.1918
N15855 X2.1136 Y-2.1666
N15860 G2 X2.1258 Y-2.1588 I0.045 J-0.0568
N15865 G1 X2.1528 Y-2.145
N15870 X2.1566 Y-2.1432
N15875 X2.2106 Y-2.1197
N15880 X2.2132 Y-2.1186
N15885 X2.2366 Y-2.1095
N15890 X2.2589 Y-2.0978
N15895 X2.3096 Y-2.0689
N15900 X2.3333 Y-2.0532
N15905 X2.3844 Y-2.0161
N15910 X2.3975 Y-2.0054
N15915 X2.4338 Y-1.9729
N15920 X2.4534 Y-1.9546
N15925 X2.4573 Y-1.9506
N15930 X2.4828 Y-1.9228
N15935 X2.5085 Y-1.8937
N15940 X2.5181 Y-1.8819
N15945 X2.5579 Y-1.8267
N15950 X2.5701 Y-1.8078
N15955 X2.5992 Y-1.7567
N15960 X2.6069 Y-1.7421
N15965 X2.6098 Y-1.7361
N15970 X2.6194 Y-1.7115
N15975 X2.6205 Y-1.709
N15980 X2.6439 Y-1.6552
N15985 X2.6456 Y-1.6515
N15990 X2.6475 Y-1.648
N15995 X2.6629 Y-1.6211
N16000 X2.6653 Y-1.6173
N16005 X2.6679 Y-1.6136
N16010 X2.6881 Y-1.5868
N16015 X2.6905 Y-1.5838
N16020 X2.6972 Y-1.5757
N16025 X2.7005 Y-1.5721
N16030 X2.704 Y-1.5687
N16035 X2.7108 Y-1.5625
N16040 X2.7134 Y-1.5603
N16045 X2.7161 Y-1.5581
N16050 X2.7229 Y-1.5531
N16055 X2.7269 Y-1.5503
N16060 X2.7311 Y-1.5477
N16065 X2.7475 Y-1.5386
N16070 X2.7498 Y-1.537
N16075 X2.7724 Y-1.5194
N16080 G2 X2.781 Y-1.5136 I0.0445 J-0.0572
N16085 G1 X2.7895 Y-1.5088
N16090 X2.7904 Y-1.5083
N16095 X2.8062 Y-1.4955
N16100 X2.8099 Y-1.4919
N16105 X2.8138 Y-1.4883
N16110 X2.832 Y-1.4729
N16115 X2.8401 Y-1.4633
N16120 X2.8429 Y-1.4603
N16125 X2.8458 Y-1.4574
N16130 X2.8562 Y-1.4477
N16135 X2.8692 Y-1.4299
N16140 X2.8693 Y-1.429
N16145 X2.8708 Y-1.3872
N16150 Y-1.3628
N16155 X2.8693 Y-1.3209
N16160 X2.8692 Y-1.3199
N16165 X2.8565 Y-1.3022
N16170 X2.8305 Y-1.2761
N16175 X2.8163 Y-1.2627
N16180 X2.8046 Y-1.2535
N16185 X2.7841 Y-1.2376
N16190 X2.7831 Y-1.2371
N16195 G2 X2.7742 Y-1.2314 I0.0345 J0.0637
N16200 G1 X2.7573 Y-1.2187
N16205 X2.7529 Y-1.2166
N16210 X2.7488 Y-1.2143
N16215 X2.7391 Y-1.2084
N16220 X2.7361 Y-1.2064
N16225 X2.7331 Y-1.2043
N16230 X2.7295 Y-1.2015
N16235 X2.7259 Y-1.1993
N16240 G2 X2.7171 Y-1.1926 I0.0389 J0.0612
N16245 G1 X2.705 Y-1.182
N16250 X2.7021 Y-1.1794
N16255 X2.6994 Y-1.1765
N16260 X2.6921 Y-1.1686
N16265 X2.6887 Y-1.1646
N16270 X2.6674 Y-1.1378
N16275 G2 X2.6599 Y-1.1261 I0.0568 J0.045
N16280 G1 X2.646 Y-1.0992
N16285 X2.6439 Y-1.0948
N16290 X2.6205 Y-1.0411
N16295 X2.6194 Y-1.0385
N16300 X2.6098 Y-1.0139
N16305 X2.6069 Y-1.0079
N16310 X2.5992 Y-0.9933
N16315 X2.5702 Y-0.9424
N16320 X2.5552 Y-0.9194
N16325 G3 X2.5371 Y-0.9176 I-0.0098 J-0.0064
N16330 G1 X2.4984 Y-0.9567
N16335 X2.4966 Y-0.9582
N16340 X1.875 Y-1.375
N16345 Z-0.56
N16350 G3 X1.8833 Y-1.3532 I0. J0.0125
N16355 G1 X1.7748 Y-1.2566
N16360 G3 X1.7577 Y-1.2571 I-0.0083 J-0.0093
N16365 X1.7123 Y-1.3263 I0.1417 J-0.1424
N16370 Y-1.4237 I0.1249 J-0.0487
N16375 X1.8261 Y-1.5375 I0.1867 J0.0728
N16380 X1.9239 I0.0489 J0.1248
N16385 X2.0377 Y-1.4237 I-0.0733 J0.187
N16390 Y-1.3263 I-0.1249 J0.0487
N16395 X1.9239 Y-1.2125 I-0.1867 J-0.0728
N16400 X1.8261 I-0.0489 J-0.1248
N16405 X1.7577 Y-1.2571 I0.0733 J-0.187
N16410 G2 X1.6099 Y-1.2846 I-0.094 J0.0945
N16415 G3 X1.4811 Y-1.3622 I-0.0371 J-0.0841
N16420 X1.4993 Y-1.4542 I0.1777 J-0.0128
N16425 X1.7959 Y-1.7507 I0.5888 J0.2924
N16430 X1.9536 I0.0788 J0.1584
N16435 X2.1249 Y-1.6274 I-0.2911 J0.585
N16440 X2.2494 Y-1.4569 I-0.488 J0.4872
N16445 X2.2507 Y-1.2958 I-0.1583 J0.0819
N16450 X1.9541 Y-0.9993 I-0.5888 J-0.2924
N16455 X1.7964 I-0.0788 J-0.1584
N16460 X1.6251 Y-1.1226 I0.2911 J-0.585
N16465 X1.5006 Y-1.2931 I0.488 J-0.4872
N16470 X1.4811 Y-1.3622 I0.1583 J-0.0819
N16475 G2 X1.4123 Y-1.5108 I-0.2306 J0.0165
N16480 G3 X1.3952 Y-1.6737 I0.0898 J-0.0918
N16485 X1.4273 Y-1.7181 I0.5796 J0.3856
N16490 X1.5651 Y-1.8385 I0.388 J0.3047
N16495 X1.7232 Y-1.9307 I11.7313 J19.9379
N16500 G2 X1.7762 Y-1.9656 I-0.276 J-0.4777
N16505 X1.8235 Y-2.0078 I-0.2123 J-0.2857
N16510 G3 X1.9214 Y-2.0112 I0.0507 J0.0475
N16515 G2 X2.0868 Y-1.9022 I0.4109 J-0.4436
N16520 G3 X2.2528 Y-1.7943 I-0.2551 J0.5742
N16525 X2.3813 Y-1.6108 I-0.3361 J0.3721
N16530 G2 X2.5078 Y-1.4259 I0.487 J-0.1977
N16535 G3 X2.5102 Y-1.3276 I-0.0474 J0.0503
N16540 G2 X2.4127 Y-1.1821 I0.3577 J0.3452
N16545 G3 X2.3227 Y-1.0319 I-0.6375 J-0.2798
N16550 X2.1849 Y-0.9115 I-0.388 J-0.3047
N16555 X2.0268 Y-0.8193 I-11.7313 J-19.9379
N16560 G2 X1.9738 Y-0.7844 I0.276 J0.4777
N16565 X1.9265 Y-0.7422 I0.2123 J0.2857
N16570 G3 X1.8286 Y-0.7388 I-0.0507 J-0.0475
N16575 G2 X1.6632 Y-0.8478 I-0.4109 J0.4436
N16580 G3 X1.4972 Y-0.9557 I0.2551 J-0.5742
N16585 X1.3687 Y-1.1392 I0.3361 J-0.3721
N16590 G2 X1.2422 Y-1.3241 I-0.487 J0.1977
N16595 G3 X1.2398 Y-1.4224 I0.0474 J-0.0503
N16600 G2 X1.3373 Y-1.5679 I-0.3577 J-0.3452
N16605 G3 X1.3952 Y-1.6737 I0.6375 J0.2798
N16610 G2 X1.3989 Y-1.8205 I-0.1147 J-0.0763
N16615 G3 X1.426 Y-1.9648 I0.0955 J-0.0568
N16620 G1 X1.4387 Y-1.9747
N16625 X1.4936 Y-2.0112
N16630 X1.5437 Y-2.038
N16635 X1.5633 Y-2.0478
N16640 X1.6173 Y-2.0685
N16645 X1.623 Y-2.0709
N16650 X1.6332 Y-2.0759
N16655 X1.6379 Y-2.0784
N16660 X1.6749 Y-2.0997
N16665 X1.6784 Y-2.1019
N16670 X1.6817 Y-2.1042
N16675 X1.6892 Y-2.1097
N16680 G2 X1.699 Y-2.1184 I-0.0431 J-0.0583
N16685 G1 X1.7373 Y-2.1593
N16690 G2 X1.7438 Y-2.1672 I-0.0529 J-0.0496
N16695 G1 X1.7483 Y-2.1736
N16700 X1.7509 Y-2.1776
N16705 X1.7533 Y-2.1818
N16710 X1.7637 Y-2.2018
N16715 X1.7659 Y-2.2064
N16720 X1.7834 Y-2.2466
N16725 X1.7848 Y-2.2501
N16730 X1.7873 Y-2.2568
N16735 X1.7892 Y-2.2626
N16740 X1.7911 Y-2.2693
N16745 X1.7923 Y-2.2739
N16750 X1.7951 Y-2.2873
N16755 X1.7959 Y-2.2912
N16760 X1.7979 Y-2.3041
N16765 X1.8008 Y-2.3193
N16770 X1.8016 Y-2.3218
N16775 X1.807 Y-2.3395
N16780 X1.8093 Y-2.3442
N16785 X1.8112 Y-2.3484
N16790 X1.8146 Y-2.3565
N16795 X1.8148 Y-2.3568
N16800 X1.8213 Y-2.3666
N16805 X1.8223 Y-2.3676
N16810 X1.836 Y-2.3682
N16815 X1.914
N16820 X1.9276 Y-2.3676
N16825 X1.9279 Y-2.3674
N16830 X1.935 Y-2.3561
N16835 X1.9426 Y-2.3408
N16840 X1.9451 Y-2.3311
N16845 X1.9463 Y-2.327
N16850 X1.9478 Y-2.323
N16855 X1.9481 Y-2.3222
N16860 X1.9485 Y-2.3192
N16865 X1.9492 Y-2.3152
N16870 X1.9501 Y-2.3112
N16875 X1.9525 Y-2.3019
N16880 X1.9541 Y-2.2912
N16885 X1.9549 Y-2.2873
N16890 X1.9577 Y-2.2739
N16895 X1.9589 Y-2.2693
N16900 X1.9608 Y-2.2626
N16905 X1.9618 Y-2.2591
N16910 X1.963 Y-2.2557
N16915 X1.9763 Y-2.2221
N16920 X1.9772 Y-2.2199
N16925 X1.984 Y-2.2041
N16930 X1.9864 Y-2.1991
N16935 X1.9893 Y-2.1935
N16940 X1.9926 Y-2.188
N16945 X1.9961 Y-2.1825
N16950 X1.9987 Y-2.1788
N16955 X2.0192 Y-2.1509
N16960 X2.022 Y-2.1473
N16965 X2.0279 Y-2.1403
N16970 X2.031 Y-2.1369
N16975 X2.0342 Y-2.1337
N16980 X2.0418 Y-2.1267
N16985 X2.0439 Y-2.1248
N16990 X2.0576 Y-2.113
N16995 X2.06 Y-2.1111
N17000 X2.0733 Y-2.1005
N17005 G2 X2.0833 Y-2.094 I0.0449 J-0.0569
N17010 G1 X2.1129 Y-2.0776
N17015 X2.1174 Y-2.0754
N17020 X2.1281 Y-2.0704
N17025 X2.1327 Y-2.0685
N17030 X2.1867 Y-2.0478
N17035 X2.2063 Y-2.038
N17040 X2.2564 Y-2.0112
N17045 X2.3113 Y-1.9747
N17050 X2.3294 Y-1.9606
N17055 X2.3717 Y-1.926
N17060 X2.4219 Y-1.876
N17065 X2.4278 Y-1.8695
N17070 X2.4621 Y-1.8275
N17075 X2.4775 Y-1.8071
N17080 X2.5124 Y-1.7545
N17085 X2.5385 Y-1.7053
N17090 X2.5494 Y-1.6824
N17095 X2.5691 Y-1.6312
N17100 X2.5706 Y-1.6275
N17105 X2.5724 Y-1.6239
N17110 X2.5804 Y-1.6085
N17115 X2.5822 Y-1.6052
N17120 X2.6007 Y-1.5736
N17125 X2.603 Y-1.5699
N17130 X2.6056 Y-1.5663
N17135 X2.6107 Y-1.5596
N17140 X2.6131 Y-1.5566
N17145 X2.6156 Y-1.5538
N17150 X2.619 Y-1.5501
N17155 X2.6223 Y-1.5468
N17160 X2.6561 Y-1.5154
N17165 X2.6603 Y-1.5117
N17170 X2.6671 Y-1.5063
N17175 X2.6706 Y-1.5037
N17180 X2.6744 Y-1.5012
N17185 X2.6811 Y-1.4971
N17190 X2.6865 Y-1.4941
N17195 X2.7046 Y-1.485
N17200 X2.7085 Y-1.4832
N17205 X2.7511 Y-1.4648
N17210 X2.7546 Y-1.4634
N17215 X2.7581 Y-1.4622
N17220 X2.7648 Y-1.4601
N17225 X2.7707 Y-1.4585
N17230 X2.7842 Y-1.4555
N17235 X2.7887 Y-1.4546
N17240 X2.8084 Y-1.4515
N17245 X2.8186 Y-1.4494
N17250 X2.8245 Y-1.4475
N17255 X2.8275 Y-1.4465
N17260 X2.8383 Y-1.4435
N17265 X2.8428 Y-1.4413
N17270 X2.8462 Y-1.4398
N17275 X2.856 Y-1.4356
N17280 X2.8663 Y-1.429
N17285 X2.8675 Y-1.4278
N17290 X2.8682 Y-1.4136
N17295 Y-1.3364
N17300 X2.8675 Y-1.3223
N17305 X2.8664 Y-1.3211
N17310 X2.8591 Y-1.3162
N17315 X2.849 Y-1.3109
N17320 X2.8411 Y-1.3073
N17325 X2.8381 Y-1.3066
N17330 X2.8316 Y-1.3048
N17335 X2.8233 Y-1.3021
N17340 X2.8149 Y-1.3007
N17345 X2.8115 Y-1.3
N17350 X2.8081 Y-1.2992
N17355 X2.801 Y-1.2973
N17360 X2.7809 Y-1.2938
N17365 X2.7762 Y-1.2928
N17370 X2.7694 Y-1.2912
N17375 X2.7648 Y-1.2899
N17380 X2.7581 Y-1.2878
N17385 X2.7533 Y-1.2861
N17390 X2.7263 Y-1.2755
N17395 X2.7243 Y-1.2747
N17400 X2.7061 Y-1.2669
N17405 X2.7009 Y-1.2644
N17410 X2.692 Y-1.2598
N17415 G2 X2.6833 Y-1.2543 I0.0337 J0.0642
N17420 G1 X2.6526 Y-1.2321
N17425 X2.6495 Y-1.2298
N17430 X2.6431 Y-1.2245
N17435 X2.6399 Y-1.2218
N17440 X2.637 Y-1.219
N17445 X2.6305 Y-1.2124
N17450 X2.6274 Y-1.2091
N17455 X2.6143 Y-1.194
N17460 X2.6125 Y-1.1918
N17465 X2.6018 Y-1.1784
N17470 G2 X2.5956 Y-1.1694 I0.0566 J0.0453
N17475 G1 X2.5878 Y-1.156
N17480 X2.5868 Y-1.1541
N17485 X2.581 Y-1.1433
N17490 X2.5798 Y-1.1411
N17495 X2.5718 Y-1.125
N17500 X2.5704 Y-1.1219
N17505 X2.5691 Y-1.1188
N17510 X2.5494 Y-1.0676
N17515 X2.5385 Y-1.0447
N17520 X2.5124 Y-0.9955
N17525 X2.4775 Y-0.9429
N17530 X2.4621 Y-0.9225
N17535 X2.4278 Y-0.8805
N17540 X2.4219 Y-0.874
N17545 X2.3717 Y-0.824
N17550 X2.3294 Y-0.7894
N17555 X2.3113 Y-0.7753
N17560 X2.2564 Y-0.7388
N17565 X2.2063 Y-0.712
N17570 X2.1867 Y-0.7022
N17575 X2.1327 Y-0.6815
N17580 X2.127 Y-0.6791
N17585 X2.1168 Y-0.6741
N17590 X2.1121 Y-0.6716
N17595 X2.0751 Y-0.6503
N17600 X2.0716 Y-0.6481
N17605 X2.0683 Y-0.6458
N17610 X2.0608 Y-0.6403
N17615 G2 X2.051 Y-0.6316 I0.0431 J0.0583
N17620 G1 X2.0127 Y-0.5907
N17625 G2 X2.0062 Y-0.5828 I0.0529 J0.0496
N17630 G1 X2.0017 Y-0.5764
N17635 X1.9991 Y-0.5724
N17640 X1.9967 Y-0.5682
N17645 X1.9863 Y-0.5482
N17650 X1.9841 Y-0.5436
